!!!!SEGMENT: pl-cz--iii-668--001-001_scigalski-franciszek--missa-kyrie.krn
!!!cenid: 18xx:1096
!!!COM: Ścigalski, Franciszek
!!!COM-rismID: pe30002948
!!!CDT: 1782/01/29-1846/09/27
!!!CNT: Polish
!!!OPR: Missa
!!!OTL: Kyrie
!!!OMV: 001
!!!PDT: 1827
!!!AGN: Sacred; Mass
!!!SMS-siglum: PL-CZ
!!!SMS-shelfmark: III-668
!!!SMS-shelfwork: 001-001 M
!!!SMS-variant:
!!!SMS-altvar:
!!!NIFC-rismSourceID: 300001313
!!!NIFC-rismChildID: 300001313
!!!NIFC-islandoraID: pl-cz:39783
!!!URL-pdf-islandora: https://repozytorium.nifc.pl/islandora/object/pl-cz%3A39783/datastream/PDF/view
!!!URL-scan:
!!!ONB-nifc: UWAGA: części Mszy: Kyrie, Gloria, Credo, Et incarnatus, Et resurrexit, Sanctus,
!!!AIN: 1 alto 1 bass 1 cello 2 clara 2 fagot 1 flt 1 organ 1 soprn 1 tenor 1 timpa 2 tromp 1 viola 2 violn
!!!key: g
**kern	**fba	**dynam	**kern	**dynam	**kern	**dynam	**kern	**dynam	**kern	**text	**dynam	**kern	**text	**dynam	**kern	**text	**dynam	**kern	**text	**dynam	**kern	**dynam	**kern	**dynam	**kern	**dynam	**kern	**dynam	**kern	**dynam	**kern	**dynam	**kern	**dynam	**kern	**dynam
*group4	*	*	*group4	*	*group4	*	*group4	*	*group3	*	*	*group3	*	*	*group3	*	*	*group3	*	*	*	*	*group2	*	*group2	*	*group1	*	*group1	*	*group1	*	*group1	*	*group1	*
*part16	*	*part16	*part15	*part15	*part14	*part14	*part13	*part13	*part12	*part12	*part12	*part11	*part11	*part11	*part10	*part10	*part10	*part9	*part9	*part9	*part8	*part8	*part7	*part7	*part6	*part6	*part5	*part5	*part4	*part4	*part3	*part3	*part2	*part2	*part1	*part1
*staff16	*	*	*staff15	*	*staff14	*	*staff13	*	*staff12	*staff12	*	*staff11	*staff11	*	*staff10	*staff10	*	*staff9	*staff9	*	*staff8	*	*staff7	*	*staff6	*	*staff5	*	*staff4	*	*staff3	*	*staff2	*	*staff1	*
*I"Organo et Violoncello	*	*	*I"Alto Viola.	*	*I"Violino 2do	*	*I"Violino 1mo	*	*I"Basſo	*	*	*I"Tenore	*	*	*I"Alto	*	*	*I"Canto	*	*	*I"Tympani in B.F.	*	*I"Clarino 2do in B.	*	*I"Clarino 1mo in B.	*	*I"Fagotto 2do	*	*I"Fagotto 1mo	*	*I"Clarinetto 2do in B	*	*I"Clarinetto 1mo in B.	*	*I"Flauto	*
*I'organo et vcl	*	*	*I'a-viola	*	*I'vl 2	*	*I'vl 1	*	*I'B	*	*	*I'T	*	*	*I'A	*	*	*I'S	*	*	*I'timp	*	*I'clno 2 in B|b	*	*I'clno 1 in B|b	*	*I'fag 2	*	*I'fag 1	*	*I'cl 2 in B|b	*	*I'cl 1 in B|b	*	*I'fl	*
*Iorgan&Icello	*	*	*Iviola	*	*Ivioln	*	*Ivioln	*	*Ibass	*	*	*Itenor	*	*	*Ialto	*	*	*Isoprn	*	*	*Itimpa	*	*Itromp	*	*Itromp	*	*Ifagot	*	*Ifagot	*	*Iclara	*	*Iclara	*	*Iflt	*
*ICklav&ICstr	*	*	*ICstr	*	*ICstr	*	*ICstr	*	*ICvox	*	*	*ICvox	*	*	*ICvox	*	*	*ICvox	*	*	*ICidio	*	*ICbras	*	*ICbras	*	*ICww	*	*ICww	*	*ICww	*	*ICww	*	*ICww	*
*IGcont	*	*	*	*	*	*	*	*	*IGcoro	*	*	*IGcoro	*	*	*IGcoro	*	*	*IGcoro	*	*	*	*	*	*	*	*	*	*	*	*	*	*	*	*	*	*
*clefF4	*	*	*clefC3	*	*clefG2	*	*clefG2	*	*clefF4	*	*	*clefC4	*	*	*clefC3	*	*	*clefC1	*	*	*clefF4	*	*clefG2	*	*clefG2	*	*clefF4	*	*clefF4	*	*clefG2	*	*clefG2	*	*clefG2	*
*	*	*	*	*	*	*	*	*	*	*	*	*	*	*	*	*	*	*	*	*	*ITrd1c2	*	*ITrd1c2	*	*ITrd1c2	*	*	*	*	*	*ITrd1c2	*	*ITrd1c2	*	*	*
*k[b-e-]	*	*	*k[b-e-]	*	*k[b-e-]	*	*k[b-e-]	*	*k[b-e-]	*	*	*k[b-e-]	*	*	*k[b-e-]	*	*	*k[e-b-]	*	*	*k[b-e-]	*	*k[b-e-]	*	*k[b-e-]	*	*k[b-e-]	*	*k[b-e-]	*	*k[b-e-]	*	*k[b-e-]	*	*k[b-e-]	*
*g:	*	*	*g:	*	*g:	*	*g:	*	*g:	*	*	*g:	*	*	*g:	*	*	*g:	*	*	*g:	*	*g:	*	*g:	*	*g:	*	*g:	*	*g:	*	*g:	*	*g:	*
*M6/8	*	*	*M6/8	*	*M6/8	*	*M6/8	*	*M6/8	*	*	*M6/8	*	*	*M6/8	*	*	*M6/8	*	*	*M6/8	*	*M6/8	*	*M6/8	*	*M6/8	*	*M6/8	*	*M6/8	*	*M6/8	*	*M6/8	*
=1	=1	=1	=1	=1	=1	=1	=1	=1	=1	=1	=1	=1	=1	=1	=1	=1	=1	=1	=1	=1	=1	=1	=1	=1	=1	=1	=1	=1	=1	=1	=1	=1	=1	=1	=1	=1
*	*	*	*	*	*	*	*	*	*	*	*	*	*	*	*	*	*	*	*	*below	*	*	*	*	*	*	*	*	*	*	*	*	*	*	*	*
!LO:TX:a:i:rj:t=Andante	!	!	!LO:TX:a:i:rj:t=Andante	!	!LO:TX:a:i:rj:t=Andante	!	!LO:TX:a:i:rj:t=Andante	!	!LO:TX:a:i:rj:t=Andante	!	!	!LO:TX:a:i:rj:t=Andante	!	!	!LO:TX:a:i:rj:t=Andante	!	!	!LO:TX:a:i:rj:t=Andante	!	!	!LO:TX:a:i:rj:t=Andante	!	!LO:TX:a:i:rj:t=Andante	!	!LO:TX:a:i:rj:t=Andante	!	!LO:TX:a:i:rj:t=Andante	!	!LO:TX:a:i:rj:t=Andante	!	!LO:TX:a:i:rj:t=Andante	!	!LO:TX:a:i:rj:t=Andante	!	!LO:TX:a:i:rj:t=Andante	!
!	!	!LO:DY:rj	!	!LO:DY:rj	!	!LO:DY:rj	!LO:TX:b:i:t=dol&colon;	!LO:DY:rj	!	!	!LO:DY:rj	!	!	!LO:DY:rj	!	!	!LO:DY:rj	!	!	!LO:DY:rj	!LO:TX:a:t=6.	!	!LO:TX:a:t=6.	!	!LO:TX:a:t=6.	!	!LO:TX:a:t=6.	!	!LO:TX:a:t=6.	!	!LO:TX:a:t=6.	!	!LO:TX:a:t=6.	!	!LO:TX:a:t=6.	!
4.GG/	1	p	8r	p	(8G/L	p	4g/	p	4GG/	Ky-	p	4B-\	Ky-	p	4d\	Ky-	p	4g\	Ky-	p	0.r	.	0.r	.	0.r	.	0.r	.	0.r	.	0.r	.	0.r	.	0.r	.
.	.	.	8d\L	.	8B-/	.	.	.	.	.	.	.	.	.	.	.	.	.	.	.	.	.	.	.	.	.	.	.	.	.	.	.	.	.	.	.
.	.	.	8d\J	.	8d/J)	.	8g/	.	8GG/	-ri-	.	8B-\	-ri-	.	8d\	-ri-	.	8g\	-ri-	.	.	.	.	.	.	.	.	.	.	.	.	.	.	.	.	.
4GG/	10	.	8.d\L	.	(8G/L	.	8.b-/L	.	4GG/	-e	.	8.d\L	-e	.	4d\	-e	.	((8.b-\L	-e	.	.	.	.	.	.	.	.	.	.	.	.	.	.	.	.	.
.	.	.	.	.	8B-/	.	.	.	.	.	.	.	.	.	.	.	.	.	.	.	.	.	.	.	.	.	.	.	.	.	.	.	.	.	.	.
.	.	.	16c\K	.	.	.	16a/K	.	.	.	.	16c\Jk	.	.	.	.	.	16a\Jk)	.	.	.	.	.	.	.	.	.	.	.	.	.	.	.	.	.	.
8BB-/	6	.	8B-\J	.	8d/J)	.	8g/J	.	8BB-/	e-	.	8B-\	e-	.	8d\	e-	.	8g\)	e-	.	.	.	.	.	.	.	.	.	.	.	.	.	.	.	.	.
=2	=2	=2	=2	=2	=2	=2	=2	=2	=2	=2	=2	=2	=2	=2	=2	=2	=2	=2	=2	=2	=2	=2	=2	=2	=2	=2	=2	=2	=2	=2	=2	=2	=2	=2	=2	=2
4.D/	.	.	8r	.	(8A/L	.	(4a/	.	4.D\	-lei-	.	4.c\	-lei-	.	(4f#X\	-le-	.	4.a\	-lei-	.	.	.	.	.	.	.	.	.	.	.	.	.	.	.	.	.
.	5 #	.	(8c/L	.	8c/	.	.	.	.	.	.	.	.	.	.	.	.	.	.	.	.	.	.	.	.	.	.	.	.	.	.	.	.	.	.	.
.	.	.	8A/J)	.	8d/J)	.	8d/)	.	.	.	.	.	.	.	8d\)	-i-	.	.	.	.	.	.	.	.	.	.	.	.	.	.	.	.	.	.	.	.
4GG/	8	.	4G/	.	4B-/	.	4g/	.	4GG/	-son	.	4B-\	-son	.	4d\	-son	.	4g\	-son	.	.	.	.	.	.	.	.	.	.	.	.	.	.	.	.	.
8r	.	.	8r	.	8r	.	8b-/	.	8r	.	.	8r	.	.	8r	.	.	8r	.	.	.	.	.	.	.	.	.	.	.	.	.	.	.	.	.	.
=3	=3	=3	=3	=3	=3	=3	=3	=3	=3	=3	=3	=3	=3	=3	=3	=3	=3	=3	=3	=3	=3	=3	=3	=3	=3	=3	=3	=3	=3	=3	=3	=3	=3	=3	=3	=3
4.F#X\	6 3	.	8r	.	8r	.	(8dd\L	.	4.F#X\	Chri-	.	4.c\	Chri-	.	4.d\	Chri-	.	4.a\	Chri-	.	.	.	.	.	.	.	.	.	.	.	.	.	.	.	.	.
.	.	.	8c\L	.	(8d'/L	.	8a\	.	.	.	.	.	.	.	.	.	.	.	.	.	.	.	.	.	.	.	.	.	.	.	.	.	.	.	.	.
.	.	.	8c\J	.	8d'/J)	.	8dd\J)	.	.	.	.	.	.	.	.	.	.	.	.	.	.	.	.	.	.	.	.	.	.	.	.	.	.	.	.	.
4.G\	5 3	.	8r	.	8r	.	(8dd\L	.	4G\	-ste	.	4B-\	-ste	.	4d\	-ste	.	4b-\	-ste	.	.	.	.	.	.	.	.	.	.	.	.	.	.	.	.	.
.	.	.	8B-/L	.	(8d'/L	.	8b-\	.	.	.	.	.	.	.	.	.	.	.	.	.	.	.	.	.	.	.	.	.	.	.	.	.	.	.	.	.
.	.	.	8B-/J	.	8d'/J)	.	8dd\J)	.	8G\	e-	.	8B-\	e-	.	8d\	e-	.	8b-\	e-	.	.	.	.	.	.	.	.	.	.	.	.	.	.	.	.	.
=4	=4	=4	=4	=4	=4	=4	=4	=4	=4	=4	=4	=4	=4	=4	=4	=4	=4	=4	=4	=4	=4	=4	=4	=4	=4	=4	=4	=4	=4	=4	=4	=4	=4	=4	=4	=4
(4D\	5 #	.	(4A/	.	(4f#X/	.	(4a/	.	4.D\	-lei-	.	(4A\	-lei-	.	(4f#X\	-le-	.	(4a\	-le-	.	.	.	.	.	.	.	.	.	.	.	.	.	.	.	.	.
8DD/)	.	.	8D/)	.	8d/)	.	8f#X/	.	.	.	.	8d\)	.	.	8a\)	-i-	.	8f#X\)	-i-	.	.	.	.	.	.	.	.	.	.	.	.	.	.	.	.	.
4DD/	.	.	4D/	.	4A/	.	4d/	.	4D\	-son	.	4d\	-son	.	4a\	-son	.	4d/	-son	.	.	.	.	.	.	.	.	.	.	.	.	.	.	.	.	.
8r	.	.	8r	.	8r	.	8dd\)	.	8r	.	.	8r	.	.	8r	.	.	8r	.	.	.	.	.	.	.	.	.	.	.	.	.	.	.	.	.	.
!	!	!	!	!	!	!	!	!	!	!	!	!	!	!	!LO:LB:g=original	!	!	!	!	!	!	!	!	!	!	!	!	!	!	!	!	!	!	!	!	!
=5	=5	=5	=5	=5	=5	=5	=5	=5	=5	=5	=5	=5	=5	=5	=5	=5	=5	=5	=5	=5	=5	=5	=5	=5	=5	=5	=5	=5	=5	=5	=5	=5	=5	=5	=5	=5
4.C/	10	.	4.c\	.	8.cc\L	.	8.ee-\L	.	4C/	Ky-	.	4c\	Ky-	.	(8.cc\L	Ky-	.	(8.ee-\L	Ky-	.	1.r	.	1.r	.	1.r	.	1.r	.	1.r	.	1.r	.	1.r	.	1.r	.
.	.	.	.	.	16b-\K	.	16dd\K	.	.	.	.	.	.	.	16b-\Jk)	.	.	16dd\Jk)	.	.	.	.	.	.	.	.	.	.	.	.	.	.	.	.	.	.
.	.	.	.	.	8a\J	.	8cc\J	.	8C/	-ri-	.	8c\	-ri-	.	8a\	-ri-	.	8cc\	-ri-	.	.	.	.	.	.	.	.	.	.	.	.	.	.	.	.	.
!	!	!	!	!	!	!	!	!	!LO:LB:g=original	!	!	!	!	!	!	!	!	!	!	!	!	!	!	!	!	!	!	!	!	!	!	!	!	!	!	!
(8AA/L	8 6\	.	(8e-\L	.	4.a 4.f#X/	.	(8cc\L	.	8AA/L	-e	.	(8e-\L	-e	.	4f#X\	-e	.	4cc\	-e	.	.	.	.	.	.	.	.	.	.	.	.	.	.	.	.	.
8BB-/	8	.	8d\	.	.	.	8b-\	.	8BB-/J	.	.	8d\J)	.	.	.	.	.	.	.	.	.	.	.	.	.	.	.	.	.	.	.	.	.	.	.	.
8C/J)	6	.	8c\J)	.	.	.	8a\J)	.	8C/	e-	.	8c\	e-	.	8a\	e-	.	8a\	e-	.	.	.	.	.	.	.	.	.	.	.	.	.	.	.	.	.
!	!	!	!	!	!LO:LB:g=original	!	!LO:LB:g=original	!	!	!	!	!LO:LB:g=original	!	!	!	!	!	!LO:LB:g=original	!	!	!	!	!	!	!	!	!	!	!	!	!	!	!	!	!	!
=6	=6	=6	=6	=6	=6	=6	=6	=6	=6	=6	=6	=6	=6	=6	=6	=6	=6	=6	=6	=6	=6	=6	=6	=6	=6	=6	=6	=6	=6	=6	=6	=6	=6	=6	=6	=6
4.BB-/	10	.	4.B-\	.	8.b-/L	.	8.dd\L	.	4BB-/	-le-	.	4B-\	-le-	.	(8.b-\L	-le-	.	(8.dd\L	-le-	.	.	.	.	.	.	.	.	.	.	.	.	.	.	.	.	.
.	.	.	.	.	16a/K	.	16cc\K	.	.	.	.	.	.	.	16a\Jk)	.	.	16cc\Jk)	.	.	.	.	.	.	.	.	.	.	.	.	.	.	.	.	.	.
.	.	.	.	.	8g/J	.	8b-\J	.	8BB-/	-i-	.	8B-\	-i-	.	8g\	-i-	.	8b-\	-i-	.	.	.	.	.	.	.	.	.	.	.	.	.	.	.	.	.
(8GG/L	10	.	(8d\L	.	4.d/	.	(8b-/L	.	8GG/L	-son	.	(8d\L	-son	.	4g\	-son	.	4b-\	-son	.	.	.	.	.	.	.	.	.	.	.	.	.	.	.	.	.
8AA/	8	.	8c\	.	.	.	8a/	.	8AA/J	.	.	8c\J)	.	.	.	.	.	.	.	.	.	.	.	.	.	.	.	.	.	.	.	.	.	.	.	.
8BB-/J)	6	.	8B-\J)	.	.	.	8g/J)	.	8BB-/	e-	.	8B-\	e-	.	8g\	e-	.	8g\	e-	.	.	.	.	.	.	.	.	.	.	.	.	.	.	.	.	.
!	!	!	!LO:LB:g=original	!	!	!	!	!	!	!	!	!	!	!	!	!	!	!	!	!	!	!	!	!	!	!	!	!	!	!	!	!	!	!	!	!
=7	=7	=7	=7	=7	=7	=7	=7	=7	=7	=7	=7	=7	=7	=7	=7	=7	=7	=7	=7	=7	=7	=7	=7	=7	=7	=7	=7	=7	=7	=7	=7	=7	=7	=7	=7	=7
*	*	*	*	*	*	*	*^	*	*	*	*	*	*	*	*	*	*	*	*	*	*	*	*	*	*	*	*	*	*	*	*	*	*	*	*	*
*	*	*	*	*	*	*	*	*	*	*	*	*	*	*	*	*2\right	*	*	*	*	*	*	*	*	*	*	*	*	*	*	*	*	*	*	*	*	*
!	!	!LO:DY:rj:t=f.	!	!LO:DY:rj:t=f.	!	!LO:DY:t=f.	!	!	!LO:DY:rj:t=f.	!	!	!LO:DY:rj	!	!	!LO:DY:rj:t=f.	!	!	!LO:DY:rj:t=f.	!	!	!LO:DY:rj	!	!LO:DY:rj:t=f.	!	!LO:DY:rj	!	!LO:DY:rj:t=f.	!	!LO:DY:rj	!	!LO:DY:rj:t=f.	!	!LO:DY:rj	!	!LO:DY:rj:t=f.	!	!LO:DY:rj
4C#X/	n10 5_	f	4c\	f	4b- 4g/	f	4een/	4een\	f	2.C#X/	-lei-	f	2.B-\	-lei-	f	2.g\	-lei-	f	2.een\	-lei-	f	4BB-/	f	4B-/	f	4b-\	f	4C#X/	f	4.en\	f	4b-\	f	4ee-\	f	4.eeen\	f
8C#/	.	.	8c\	.	8b- 8g/	.	8ee/	8ee\	.	.	.	.	.	.	.	.	.	.	.	.	.	8BB-/	.	8B-/	.	8b-\	.	8C#/	.	.	.	8b-\	.	8ee-\	.	.	.
*tremolo	*	*	*tremolo	*	*tremolo	*	*	*	*	*	*	*	*	*	*	*	*	*	*	*	*	*tremolo	*	*tremolo	*	*tremolo	*	*tremolo	*	*	*	*tremolo	*	*tremolo	*	*	*
!	!	!	!LO:TX:t=...	!	!	!	!	!	!	!	!	!	!	!	!	!	!	!	!	!	!	!	!	!	!	!LO:TX:t=...	!	!	!	!	!	!LO:TX:t=...	!	!LO:TX:t=...	!	!	!
8C#/L	.	.	8c'\L	.	8b- 8g/L	.	8ee/L	8ee\L	.	.	.	.	.	.	.	.	.	.	.	.	.	8BB-/L	.	8B-/L	.	8b-'\L	.	8C#/L	.	8e\	.	8b-'\L	.	8ee-'\L	.	8eee\	.
*	*	*	*	*	*	*	*	*	*	*	*	*	*	*	*	*	*	*	*	*	*	*	*	*	*	*	*	*	*	*tremolo	*	*	*	*	*	*	*
*	*	*	*	*	*	*	*	*	*	*	*	*	*	*	*	*	*	*	*	*	*	*	*	*	*	*	*	*	*	*	*	*	*	*	*	*tremolo	*
!	!	!	!	!	!	!	!	!	!	!	!	!	!	!	!	!	!	!	!	!	!	!	!	!	!	!	!	!	!	!LO:TX:t=...	!	!	!	!	!	!LO:TX:t=...	!
8C#/	.	.	8c'\	.	8b- 8g/	.	8ee/	8ee\	.	.	.	.	.	.	.	.	.	.	.	.	.	8BB-/	.	8B-/	.	8b-'\	.	8C#/	.	8e'\L	.	8b-'\	.	8ee-'\	.	8eee'\L	.
8C#/J	.	.	8c'\J	.	8b- 8g/J	.	8ee/J	8ee\J	.	.	.	.	.	.	.	.	.	.	.	.	.	8BB-/J	.	8B-/J	.	8b-'\J	.	8C#/J	.	8e'\J	.	8b-'\J	.	8ee-'\J	.	8eee'\J	.
*Xtremolo	*	*	*Xtremolo	*	*Xtremolo	*	*	*	*	*	*	*	*	*	*	*	*	*	*	*	*	*Xtremolo	*	*Xtremolo	*	*Xtremolo	*	*Xtremolo	*	*Xtremolo	*	*Xtremolo	*	*Xtremolo	*	*Xtremolo	*
*	*	*	*	*	*	*	*v	*v	*	*	*	*	*	*	*	*	*	*	*	*	*	*	*	*	*	*	*	*	*	*	*	*	*	*	*	*	*
!LO:LB:g=original	!	!	!	!	!	!	!	!	!	!	!	!	!	!	!	!	!	!	!	!	!	!	!	!	!	!	!	!	!	!	!	!	!	!	!	!
=8	=8	=8	=8	=8	=8	=8	=8	=8	=8	=8	=8	=8	=8	=8	=8	=8	=8	=8	=8	=8	=8	=8	=8	=8	=8	=8	=8	=8	=8	=8	=8	=8	=8	=8	=8	=8
!	!	!LO:DY:rj	!	!LO:DY:rj	!	!LO:DY:rj	!	!LO:DY:rj	!	!	!LO:DY:rj	!	!	!LO:DY:rj	!	!	!LO:DY:rj	!	!	!LO:DY:rj	!LO:TX:a:t=9.	!	!	!LO:DY:rj	!	!LO:DY:rj	!	!	!	!	!	!	!	!	!	!LO:DY:rj
(4.D\	8	p	4.d\	p	(4.a 4.f#X/	p	(8dd\L	p	4D/	-son	p	4A\	-son	p	4f#X\	-son	p	4dd\	-son	p	0.r	.	4d/	p	4dd\	p	4D/	.	(8d\L	p	4a\	.	4dd\	.	(8ddd\L	p
.	.	.	.	.	.	.	8cc\	.	.	.	.	.	.	.	.	.	.	.	.	.	.	.	.	.	.	.	.	.	8c\	.	.	.	.	.	8ccc\	.
.	.	.	.	.	.	.	8a\J)	.	8r	.	.	8r	.	.	8r	.	.	8r	.	.	.	.	8r	.	8r	.	8r	.	8A\J)	.	8r	.	8r	.	8aa\J	.
4DD/)	.	.	4d\	.	4d/)	.	(8f#X/L	.	4r	.	.	4r	.	.	4r	.	.	4r	.	.	.	.	4r	.	4r	.	4r	.	(8F#X\L	.	4r	.	4r	.	8ff#X\L	.
.	.	.	.	.	.	.	8a/	.	.	.	.	.	.	.	.	.	.	.	.	.	.	.	.	.	.	.	.	.	8A\	.	.	.	.	.	8aa\	.
8r	.	.	8r	.	8r	.	8d/J)	.	8r	.	.	8r	.	.	8r	.	.	8r	.	.	.	.	8r	.	8r	.	8r	.	8D\J)	.	8r	.	8r	.	8dd\J)	.
=9	=9	=9	=9	=9	=9	=9	=9	=9	=9	=9	=9	=9	=9	=9	=9	=9	=9	=9	=9	=9	=9	=9	=9	=9	=9	=9	=9	=9	=9	=9	=9	=9	=9	=9	=9	=9
!	!	!LO:DY:rj	!	!	!	!LO:DY:rj	!	!LO:DY:t=mf.	!	!	!LO:DY:rj	!	!	!LO:DY:rj	!	!	!LO:DY:rj	!	!	!LO:DY:rj:t=mf.	!	!	!LO:TX:a:t=8.	!	!LO:TX:a:t=8.	!	!	!LO:DY:rj	!	!	!	!	!	!	!	!LO:DY:rj
4.GG/	1	mf	8r	.	(8G/L	mf	4g/	mf	4GG/	Ky-	mf	4B-\	Ky-	mf	4d\	Ky-	mf	4g\	Ky-	mf	.	.	0.r	.	0.r	.	8r	p	8r	.	8r	.	8r	p	4gg\	mf
!	!	!	!	!	!	!	!	!	!	!	!	!	!	!	!	!	!	!	!	!	!	!	!	!	!	!	!	!	!	!LO:DY:rj	!	!	!	!	!	!
.	.	.	8B-\L	.	8B-/	.	.	.	.	.	.	.	.	.	.	.	.	.	.	.	.	.	.	.	.	.	8B-\L	.	8d\L	mf	8g/L	p	8b-\L	.	.	.
.	.	.	8B-\J	.	8d/J)	.	8g/	.	8GG/	-ri-	.	8B-\	-ri-	.	8d\	-ri-	.	8g\	-ri-	.	.	.	.	.	.	.	8B-\J	.	8d\J	.	8g/J	.	8b-\J	.	8gg\	.
4GG/	10	.	8.d\L	.	(8G/L	.	8.b-/L	.	4GG/	-e	.	8.d\L	-e	.	4d\	-e	.	((8.b-\L	-e	.	.	.	.	.	.	.	8r	.	8r	.	8r	.	8r	.	8.bb-\L	.
.	.	.	.	.	8B-/	.	.	.	.	.	.	.	.	.	.	.	.	.	.	.	.	.	.	.	.	.	8B-\L	.	8d\L	.	8g/L	.	8b-\L	.	.	.
.	.	.	16c\K	.	.	.	16a/K	.	.	.	.	16c\Jk	.	.	.	.	.	16a\Jk)	.	.	.	.	.	.	.	.	.	.	.	.	.	.	.	.	16aa\K	.
8BB-/	6	.	8B-\J	.	8d/J)	.	8g/J	.	8BB-/	e-	.	8B-\	e-	.	8d\	e-	.	8g\)	e-	.	.	.	.	.	.	.	8B-\J	.	8d\J	.	8g/J	.	8b-\J	.	8gg\J	.
=10	=10	=10	=10	=10	=10	=10	=10	=10	=10	=10	=10	=10	=10	=10	=10	=10	=10	=10	=10	=10	=10	=10	=10	=10	=10	=10	=10	=10	=10	=10	=10	=10	=10	=10	=10	=10
4.D/	5 #	.	8r	.	(8A/L	.	(4a/	.	4.D\	-lei-	.	4.c\	-lei-	.	(4f#X\	-le-	.	4.a\	-lei-	.	.	.	.	.	.	.	8r	.	8r	.	8r	.	8r	.	(4aa\	.
.	.	.	8c\L	.	8c/	.	.	.	.	.	.	.	.	.	.	.	.	.	.	.	.	.	.	.	.	.	8A\L	.	8c\L	.	8f#X/L	.	8a\L	.	.	.
.	.	.	8A\J	.	8d/J)	.	8d/)	.	.	.	.	.	.	.	8e-\)	-i-	.	.	.	.	.	.	.	.	.	.	8A\J	.	8c\J	.	8f#/J	.	8a\J	.	8dd\)	.
4GG/	8	.	4G/	.	4B-/	.	4g/	.	4GG/	-son	.	4B-\	-son	.	4d\	-son	.	4g\	-son	.	.	.	.	.	.	.	4G\	.	4B-\	.	4d/	.	4f/	.	4gg\	.
8r	.	.	8r	.	8r	.	8b-/	.	8r	.	.	8r	.	.	8r	.	.	8r	.	.	.	.	.	.	.	.	8r	.	8r	.	8r	.	8r	.	8bb-\	.
!	!	!	!	!	!	!	!	!	!	!	!	!	!	!	!LO:LB:g=original	!	!	!	!	!	!	!	!	!	!	!	!	!	!	!	!	!	!	!	!LO:LB:g=original	!
=11	=11	=11	=11	=11	=11	=11	=11	=11	=11	=11	=11	=11	=11	=11	=11	=11	=11	=11	=11	=11	=11	=11	=11	=11	=11	=11	=11	=11	=11	=11	=11	=11	=11	=11	=11	=11
4.F#X\	6 3	.	8r	.	8r	.	(8dd\L	.	4.F#X\	Chri-	.	4.c\	Chri-	.	4.d\	Chri-	.	4.a\	Chri-	.	.	.	.	.	.	.	8r	.	8r	.	8r	.	8r	.	(8ddd\L	.
.	.	.	8c\L	.	(8d'/L	.	8a\	.	.	.	.	.	.	.	.	.	.	.	.	.	.	.	.	.	.	.	8A\L	.	8c\L	.	8a/L	.	8cc\L	.	8aa\	.
.	.	.	8c\J	.	8d'/J)	.	8dd\J)	.	.	.	.	.	.	.	.	.	.	.	.	.	.	.	.	.	.	.	8A\J	.	8c\J	.	8a/J	.	8cc\J	.	8ddd\J)	.
4.G\	5 3	.	8r	.	8r	.	(8dd\L	.	4G\	-ste	.	4B-\	-ste	.	4d\	-ste	.	4b-\	-ste	.	.	.	.	.	.	.	8r	.	8r	.	8r	.	8r	.	(8ddd\L	.
.	.	.	8B-/L	.	(8d'/L	.	8b-\	.	.	.	.	.	.	.	.	.	.	.	.	.	.	.	.	.	.	.	8G\L	.	8B-\L	.	8g/L	.	8b-\L	.	8bb-\	.
.	.	.	8B-/J	.	8d'/J)	.	8dd\J)	.	8G\	e-	.	8B-\	e-	.	8d\	e-	.	8b-\	e-	.	.	.	.	.	.	.	8G\J	.	8B-\J	.	8g/J	.	8b-\J	.	8ddd\J)	.
!	!	!	!	!	!	!	!LO:LB:g=original	!	!LO:LB:g=original	!	!	!	!	!	!	!	!	!	!	!	!	!	!	!	!	!	!	!	!LO:LB:g=original	!	!	!	!	!	!	!
=12	=12	=12	=12	=12	=12	=12	=12	=12	=12	=12	=12	=12	=12	=12	=12	=12	=12	=12	=12	=12	=12	=12	=12	=12	=12	=12	=12	=12	=12	=12	=12	=12	=12	=12	=12	=12
(4D\	5 #_	.	(4A/	.	(4f#X/	.	(4a/	.	4.D\	-lei-	.	(4A\	-lei-	.	(4f#X\	-lei-	.	(4a\	-lei-	.	0.r	.	.	.	.	.	8r	.	8r	.	8r	.	8r	.	(4aa\	.
.	.	.	.	.	.	.	.	.	.	.	.	.	.	.	.	.	.	.	.	.	.	.	.	.	.	.	8F#X\L	.	8A\L	.	8f#X/L	.	8a\L	.	.	.
8DD/)	.	.	8D/)	.	8d/)	.	8f#X/)	.	.	.	.	8d\)	.	.	8a\)	.	.	8f#X\)	.	.	.	.	.	.	.	.	8F#\J	.	8A\J	.	8f#/J	.	8a\J	.	8ff#X\)	.
4DD/	X X	.	4D/	.	4A/	.	4d/	.	4D\	-son	.	4d\	-son	.	4a\	-son	.	4d/	-son	.	.	.	.	.	.	.	4F#\	.	4A\	.	4f#/	.	4a\	.	4dd\	.
8r	.	.	8r	.	8r	.	8dd\	.	8r	.	.	8r	.	.	8r	.	.	8r	.	.	.	.	.	.	.	.	8r	.	8r	.	8r	.	8r	.	8ddd\	.
!	!	!	!	!	!LO:LB:g=original	!	!	!	!	!	!	!LO:LB:g=original	!	!	!	!	!	!LO:LB:g=original	!	!	!	!	!	!	!	!	!	!	!	!	!LO:LB:g=original	!	!	!	!	!
=13	=13	=13	=13	=13	=13	=13	=13	=13	=13	=13	=13	=13	=13	=13	=13	=13	=13	=13	=13	=13	=13	=13	=13	=13	=13	=13	=13	=13	=13	=13	=13	=13	=13	=13	=13	=13
4.C/	10	.	4.c\	.	8.cc\L	.	8.ee-\L	.	4C/	Ky-	.	4c\	Ky-	.	(8.cc\L	Ky-	.	(8.ee-\L	Ky-	.	.	.	0.r	.	0.r	.	8r	.	8r	.	8r	.	8r	.	8.eee-\L	.
.	.	.	.	.	.	.	.	.	.	.	.	.	.	.	.	.	.	.	.	.	.	.	.	.	.	.	8c\L	.	8e-\L	.	8cc\L	.	8ee-\L	.	.	.
.	.	.	.	.	16b-\K	.	16dd\K	.	.	.	.	.	.	.	16b-\Jk)	.	.	16dd\Jk)	.	.	.	.	.	.	.	.	.	.	.	.	.	.	.	.	16ddd\K	.
.	.	.	.	.	8a\J	.	8cc\J	.	8C/	-ri-	.	8c\	-ri-	.	8a\	-ri-	.	8cc\	-ri-	.	.	.	.	.	.	.	8c\J	.	8e-\J	.	8cc\J	.	8ee-\J	.	8ccc\J	.
(8AA/L	10 6\	.	(8e-\L	.	4.a 4.f#X/	.	(8cc\L	.	8AA/L	-e	.	(8e-\L	-e	.	4f#X\	-e	.	4cc\	-e	.	.	.	.	.	.	.	8r	.	8r	.	8r	.	8r	.	(8ccc\L	.
8BB-/	8	.	8d\	.	.	.	8b-\	.	8BB-/J	.	.	8d\J)	.	.	.	.	.	.	.	.	.	.	.	.	.	.	8c\L	.	8e-\L	.	8cc\L	.	8ee-\L	.	8bb-\	.
8C/J)	6	.	8c\J)	.	.	.	8a\J)	.	8C/	e-	.	8c\	e-	.	8a\	e-	.	8a\	e-	.	.	.	.	.	.	.	8c\J	.	8e-\J	.	8cc\J	.	8ee-\J	.	8aa\J)	.
!	!	!	!	!	!	!	!	!	!	!	!	!	!	!	!	!	!	!	!	!	!	!	!	!	!	!	!LO:LB:g=original	!	!	!	!	!	!LO:LB:g=original	!	!	!
=14	=14	=14	=14	=14	=14	=14	=14	=14	=14	=14	=14	=14	=14	=14	=14	=14	=14	=14	=14	=14	=14	=14	=14	=14	=14	=14	=14	=14	=14	=14	=14	=14	=14	=14	=14	=14
4.BB-/	10	.	4.B-/	.	8.b-/L	.	8.dd\L	.	4BB-/	-le-	.	4B-\	-le-	.	(8.b-\L	-le-	.	(8.dd\L	-le-	.	.	.	.	.	.	.	8r	.	8r	.	8r	.	8r	.	8.ddd\L	.
.	.	.	.	.	.	.	.	.	.	.	.	.	.	.	.	.	.	.	.	.	.	.	.	.	.	.	8B-\L	.	8d\L	.	8b-\L	.	8dd\L	.	.	.
.	.	.	.	.	16a/K	.	16cc\K	.	.	.	.	.	.	.	16a\Jk)	.	.	16cc\Jk)	.	.	.	.	.	.	.	.	.	.	.	.	.	.	.	.	16ccc\K	.
.	.	.	.	.	8g/J	.	8b-\J	.	8BB-/	-i-	.	8B-\	-i-	.	8g\	-i-	.	8b-\	-i-	.	.	.	.	.	.	.	8B-\J	.	8d\J	.	8b-\J	.	8dd\J	.	8bb-\J	.
(8GG/L	10	.	(8d/L	.	4.d/	.	(8b-/L	.	8GG/L	-son	.	(8d\L	-son	.	4g\	-son	.	4b-\	-son	.	.	.	.	.	.	.	8r	.	8r	.	8r	.	8r	.	(8bb-\L	.
8AA/	8	.	8c/	.	.	.	8a/	.	8AA/J	.	.	8c\J)	.	.	.	.	.	.	.	.	.	.	.	.	.	.	8B-\L	.	8d\L	.	8b-\L	.	8dd\L	.	8aa\	.
8BB-/J)	6	.	8B-/J)	.	.	.	8g/J)	.	8BB-/	e-	.	8B-\	e-	.	8g\	e-	.	8g\	e-	.	.	.	.	.	.	.	8B-\J	.	8d\J	.	8b-\J	.	8dd\J	.	8gg\J)	.
!	!	!	!LO:LB:g=original	!	!	!	!	!	!	!	!	!	!	!	!	!	!	!	!	!	!	!	!	!	!	!	!	!	!	!	!	!	!	!	!	!
=15	=15	=15	=15	=15	=15	=15	=15	=15	=15	=15	=15	=15	=15	=15	=15	=15	=15	=15	=15	=15	=15	=15	=15	=15	=15	=15	=15	=15	=15	=15	=15	=15	=15	=15	=15	=15
4.C/	6 3	.	4e-\	.	4e-/	.	(8a/L	.	4.C/	-le-	.	4.c\	-le-	.	4.e-\	-le-	.	4.a\	-le-	.	.	.	.	.	.	.	8r	.	8r	.	8r	.	8r	.	(8aa\L	.
.	.	.	.	.	.	.	8cc/	.	.	.	.	.	.	.	.	.	.	.	.	.	.	.	.	.	.	.	8A\L	.	8c\L	.	8a\L	.	8cc\L	.	8ccc\	.
.	.	.	8e-\	.	8c/	.	8a/J)	.	.	.	.	.	.	.	.	.	.	.	.	.	.	.	.	.	.	.	8A\J	.	8c\J	.	8a\J	.	8cc\J	.	8aa\J)	.
.	.	.	.	.	8qqB-/	.	8qg/	.	.	.	.	.	.	.	.	.	.	.	.	.	.	.	.	.	.	.	.	.	.	.	.	.	.	.	8qgg/	.
4.D/	#	.	4.d\	.	(8A/L	.	(8f#X/L	.	4.D/	-i-	.	4.A\	-i-	.	4.d\	-i-	.	4.f#X/	-i-	.	.	.	.	.	.	.	8r	.	8r	.	8r	.	8r	.	(8ff#X\L	.
.	.	.	.	.	8G/	.	8en/	.	.	.	.	.	.	.	.	.	.	.	.	.	.	.	.	.	.	.	8F#X\L	.	8A\L	.	8f#X/L	.	8a\L	.	8een\	.
.	.	.	.	.	8A/J)	.	8f#/J)	.	.	.	.	.	.	.	.	.	.	.	.	.	.	.	.	.	.	.	8F#\J	.	8A\J	.	8f#/J	.	8a\J	.	8ff#\J)	.
=16	=16	=16	=16	=16	=16	=16	=16	=16	=16	=16	=16	=16	=16	=16	=16	=16	=16	=16	=16	=16	=16	=16	=16	=16	=16	=16	=16	=16	=16	=16	=16	=16	=16	=16	=16	=16
*^	*	*	*	*	*	*	*	*	*	*	*	*	*	*	*	*	*	*	*	*	*	*	*	*	*	*	*	*	*	*	*	*	*	*	*	*
!LO:TX:a:i:t=Violoncello	!	!	!	!	!	!	!	!	!	!	!	!	!	!	!	!	!	!	!	!	!	!	!	!	!	!	!	!	!	!	!	!	!	!	!	!	!
4G/	4GG\	.	.	4G/	.	4B-/	.	4g/	.	4GG/	-son	.	4B-\	-son	.	4d\	-son	.	4g/	-son	.	2.r	.	.	.	.	.	4G\	.	4G\	.	4g/	.	4g/	.	4gg\	.
8G/	8r	.	.	8G/	.	8r	.	8r	.	8r	.	.	8r	.	.	8r	.	.	8r	.	.	.	.	.	.	.	.	8r	.	8r	.	8r	.	8r	.	8r	.
8.B-/L	4r	.	.	8.B-/L	.	4r	.	4r	.	4r	.	.	4r	.	.	4r	.	.	4r	.	.	.	.	.	.	.	.	4r	.	4r	.	4r	.	4r	.	4r	.
16A/K	.	.	.	16A/K	.	.	.	.	.	.	.	.	.	.	.	.	.	.	.	.	.	.	.	.	.	.	.	.	.	.	.	.	.	.	.	.	.
!	!	!	!	!	!	!LO:TX:b:i:t=dolce	!	!	!	!	!	!	!	!	!	!	!	!	!	!	!	!	!	!	!	!	!	!	!	!	!	!	!	!	!	!	!
8G/J	8r	.	.	8G/J	.	8r	.	8r	.	8r	.	.	8r	.	.	8r	.	.	8r	.	.	.	.	.	.	.	.	8r	.	8r	.	8r	.	8r	.	8r	.
*v	*v	*	*	*	*	*	*	*	*	*	*	*	*	*	*	*	*	*	*	*	*	*	*	*	*	*	*	*	*	*	*	*	*	*	*	*	*
!LO:LB:g=original	!	!	!	!	!	!	!	!	!	!	!	!	!	!	!LO:LB:g=original	!	!	!	!	!	!	!	!	!	!	!	!	!	!	!	!	!	!	!	!	!
=17	=17	=17	=17	=17	=17	=17	=17	=17	=17	=17	=17	=17	=17	=17	=17	=17	=17	=17	=17	=17	=17	=17	=17	=17	=17	=17	=17	=17	=17	=17	=17	=17	=17	=17	=17	=17
*	*	*^	*	*	*	*^	*	*	*	*	*	*	*	*	*	*	*	*	*	*	*	*	*	*	*	*^	*	*	*	*	*	*^	*	*	*	*
*2\right	*	*	*	*	*	*	*	*	*	*	*	*	*	*	*	*	*	*	*	*	*	*	*	*	*	*	*	*	*	*	*	*	*	*	*	*	*	*	*	*
!LO:TX:b:i:t=Baſsi	!	!	!	!	!	!	!	!	!LO:TX:b:i:t=dol&colon;	!	!LO:TX:a:t=1.	!	!	!LO:TX:a:t=1.	!	!	!LO:TX:a:t=1.	!	!	!LO:TX:a:t=1.	!	!	!	!LO:HP:t=cresc&colon;	!	!	!	!	!	!	!	!	!LO:DY:rj	!	!	!LO:DY:rj	!	!LO:DY:rj	!	!LO:DY:rj
!	!	!LO:HP:t=cres&colon;	!LO:HP:a	!	!LO:HP:t=cres	!	!	!	!	!	!	!	!	!	!	!	!	!	!	!	!	!	!	!LO:DY:rj	!	!	!	!	!	!	!LO:DY:rj	!	!LO:HP:a	!	!LO:HP:a	!LO:HP:t=cres&colon;	!	!	!	!
2.F\	7	<	<	4.A/	<	4cc\	.	.	4ee-X\	.	2.r	.	.	2.r	.	.	2.r	.	.	2.r	.	.	2.FFT/	p <	4r	.	4r	.	.	2.FF/	p	2.F\	p < [[	4.cc\	<	p <	4.ee-\	p	4eee-X\	p
!	!	!	!	!	!	!	!	!	!	!	!	!	!	!	!	!	!	!	!	!	!	!	!	!	!	!	!	!LO:HP:a	!LO:HP:b:t=cres&colon;	!	!	!	!	!	!	!	!	!LO:HP:t=cres	!	!
.	.	.	.	.	.	8cc\	.	.	8ee-\	.	.	.	.	.	.	.	.	.	.	.	.	.	.	.	8r	.	8r	<	<	.	.	.	.	.	.	.	.	<	8eee-\	.
!	!	!	!	!	!	!LO:TX:b:t=cres:problem=dynamics with extention lines	!LO:HP:t=cres:ext=ut	!LO:HP:a	!	!	!	!	!	!	!	!	!	!	!	!	!	!	!	!	!	!	!	!	!	!	!	!	!	!	!	!	!	!	!	!
.	.	.	.	.	.	(<16qqcc/LL	<	<	(<16qqee-/LL	<	.	.	.	.	.	.	.	.	.	.	.	.	.	.	.	.	.	.	.	.	.	.	.	.	.	.	.	.	.	.
!	!	!	!	!	!	!	!	!	!	!	!	!	!	!	!	!	!	!	!	!	!	!	!	!	!	!	!	!&colon;	!	!	!	!	!	!	!	!	!	!	!&colon;	!
.	.	.	.	.	.	16qqdd/JJ)	.	.	16qqff/JJ	.	.	.	.	.	.	.	.	.	.	.	.	.	.	.	.	.	.	.	.	.	.	.	.	.	.	.	.	.	.	.
!	!	!	!	!	!	!	!	!	!	!	!	!	!	!	!	!	!	!	!	!	!	!	!	!	!	!	!	!	!	!	!	!	!	!	!	!	!	!	!LO:LB:g=original	!LO:HP:t=cres&colon;
.	.	.	.	4.f^\	.	8.ee-'\L	.	.	8.gg\L)	.	.	.	.	.	.	.	.	.	.	.	.	.	.	.	4.F^>/	.	4.f/	.	.	.	.	.	.	4.a\	.	.	4.cc\	.	8.ggg\L	<
.	.	.	.	.	.	16dd'\K	.	.	16ee-\K	.	.	.	.	.	.	.	.	.	.	.	.	.	.	.	.	.	.	.	.	.	.	.	.	.	[	.	.	.	16fff\K	.
.	.	.	[	.	.	8cc'\J	[[	[[	8dd\J	[	.	.	.	.	.	.	.	.	.	.	.	.	.	.	.	.	.	[[	.	.	.	.	.	.	.	.	.	.	8eee-\J	.
*	*	*v	*v	*	*	*	*	*	*	*	*	*	*	*	*	*	*	*	*	*	*	*	*	*	*	*	*	*	*	*	*	*	*	*	*	*	*	*	*	*
*	*	*	*	*	*	*v	*v	*	*	*	*	*	*	*	*	*	*	*	*	*	*	*	*	*	*	*	*	*	*	*	*	*	*	*	*	*	*	*	*
*	*	*	*	*	*	*	*	*	*	*	*	*	*	*	*	*	*	*	*	*	*	*	*	*	*	*v	*v	*	*	*	*	*	*	*	*	*	*	*
*	*	*	*	*	*	*	*	*	*	*	*	*	*	*	*	*	*	*	*	*	*	*	*	*	*	*	*	*	*	*	*	*v	*v	*	*	*	*
!	!	!	!	!	!	!	!LO:LB:g=original	!	!	!	!	!	!	!	!	!	!	!	!	!	!	!	!	!	!	!	!	!	!	!	!	!	!	!	!	!
=18	=18	=18	=18	=18	=18	=18	=18	=18	=18	=18	=18	=18	=18	=18	=18	=18	=18	=18	=18	=18	=18	=18	=18	=18	=18	=18	=18	=18	=18	=18	=18	=18	=18	=18	=18	=18
*	*	*	*tremolo	*	*	*	*	*	*	*	*	*	*	*	*	*	*	*	*	*	*tremolo	*	*	*	*	*	*	*	*tremolo	*	*tremolo	*	*tremolo	*	*tremolo	*
!	!	!	!	!	!	!	!	!	!	!	!	!	!	!	!	!	!	!	!	!	!	!	!	!	!	!	!	!	!LO:TX:t=...	!	!	!	!	!	!	!
!LO:TX:t=P:problem=mixed beam	!	!LO:DY:rj	!LO:TX::bt=...	!LO:DY:rj:t=f.	!	!LO:DY:rj:t=f.	!	!LO:DY:rj	!	!	!LO:DY:rj	!	!	!LO:DY:rj:t=f.	!	!	!LO:DY:rj:t=f.	!	!	!LO:DY:rj	!LO:TX:b:t=...	!LO:DY:rj:t=f.	!	!LO:DY:rj	!	!LO:DY:rj:t=f.	!LO:TX:t=P:problem=mixed beam	!LO:DY:rj	!	!LO:DY:rj:t=f.	!LO:TX:t=...	!LO:DY:rj	!LO:TX:t=...	!LO:DY:rj	!	!
8BB-/L	8_ 3_	f	8d 8B-'/L	f	8ddL 8f'/	f	4bb- 4dd\	f	4B-\	Ky-	f	4B-\	Ky-	f	4fn\	Ky-	f	4dd\	Ky-	f	8BB-'/L	f	8B-/L	f	8b-\L	f	8BB-/L	f	8d'\L	f	8b-'\L	f	8dd'\L	f	8ddd\L	.
8B-\	.	.	8d 8B-'/	.	8dd 8f'/	.	.	.	.	.	.	.	.	.	.	.	.	.	.	.	8BB-'/	.	8d/	.	8b-\	.	8B-\	.	8d'\	.	8b-'\	.	8dd'\	.	8ddd\	.
8B-\J	.	.	8d 8B-'/J	.	8ddJ 8f'/	.	(16aa\LL	.	8B-\	-ri-	.	8B-\	-ri-	.	8f\	-ri-	.	8dd\	-ri-	.	8BB-'/J	.	8d/J	.	8b-\J	.	8B-\J	.	8d'\J	.	8b-'\J	.	8dd'\J	.	8ddd\J	.
.	.	.	.	.	.	.	16bb-\JJ)	.	.	.	.	.	.	.	.	.	.	.	.	.	.	.	.	.	.	.	.	.	.	.	.	.	.	.	.	.
*tremolo	*	*	*	*	*tremolo	*	*	*	*	*	*	*	*	*	*	*	*	*	*	*	*Xtremolo	*	*	*	*	*	*	*	*Xtremolo	*	*Xtremolo	*	*Xtremolo	*	*	*
!	!	!	!LO:TX:b:t=...	!	!LO:TX:b:t=...	!	!	!	!	!	!	!	!	!	!	!	!	!	!	!	!	!	!	!	!	!	!	!	!	!	!	!	!	!	!	!
8B-\L	.	.	8d 8B-'/L	.	8dd 8f'/L	.	(16ccc\LL	.	4B-\	-e	.	4B-\	-e	.	4f\	-e	.	4dd\	-e	.	4.BB-T/	.	4.d/	.	4.b-\	.	4.B-\	.	4.d\	.	4.b-\	.	4.dd\	.	8ddd\L	.
.	.	.	.	.	.	.	16bb-\)	.	.	.	.	.	.	.	.	.	.	.	.	.	.	.	.	.	.	.	.	.	.	.	.	.	.	.	.	.
8B-\	.	.	8d 8B-'/	.	8dd 8f'/	.	16ddd'\	.	.	.	.	.	.	.	.	.	.	.	.	.	.	.	.	.	.	.	.	.	.	.	.	.	.	.	8ddd\	.
.	.	.	.	.	.	.	16ccc'\	.	.	.	.	.	.	.	.	.	.	.	.	.	.	.	.	.	.	.	.	.	.	.	.	.	.	.	.	.
8B-\J	.	.	8d 8B-'/J	.	8dd 8f'/J	.	(16bb-\	.	8B-\	e-	.	8B-\	e-	.	8f\	e-	.	8dd\	e-	.	.	.	.	.	.	.	.	.	.	.	.	.	.	.	8ddd\J	.
.	.	.	.	.	.	.	16aa\JJ)	.	.	.	.	.	.	.	.	.	.	.	.	.	.	.	.	.	.	.	.	.	.	.	.	.	.	.	.	.
!	!	!	!	!	!	!	!	!	!LO:LB:g=original	!	!	!	!	!	!	!	!	!	!	!	!	!	!	!	!	!	!	!	!	!	!	!	!	!	!	!
=19	=19	=19	=19	=19	=19	=19	=19	=19	=19	=19	=19	=19	=19	=19	=19	=19	=19	=19	=19	=19	=19	=19	=19	=19	=19	=19	=19	=19	=19	=19	=19	=19	=19	=19	=19	=19
*	*	*	*	*	*	*	*	*	*	*	*	*	*	*	*	*	*	*	*	*	*tremolo	*	*tremolo	*	*tremolo	*	*tremolo	*	*tremolo	*	*tremolo	*	*tremolo	*	*	*
!	!	!	!LO:TX:b:t=...	!	!LO:TX:b:t=...	!	!	!	!	!	!	!	!	!	!	!	!	!	!	!	!LO:TX:b:t=...	!	!	!	!LO:TX:t=...	!	!LO:TX:t=...	!	!LO:TX:t=...	!	!	!	!	!	!LO:TX:t=...	!
8B-\L	.	.	8d 8B-'/L	.	8dd 8f'/L	.	(16bb-\LL	.	4.B-\	-lei-	.	4.B-\	-lei-	.	4.f\	-lei-	.	4.dd\	-lei-	.	8BB-'/L	.	8d/L	.	8b-'\L	.	8B-'\L	.	8d'\L	.	8b-\L	.	8dd\L	.	8ddd\L	.
.	.	.	.	.	.	.	16aa\)	.	.	.	.	.	.	.	.	.	.	.	.	.	.	.	.	.	.	.	.	.	.	.	.	.	.	.	.	.
8B-\	.	.	8d 8B-'/	.	8dd 8f'/	.	16gg'\	.	.	.	.	.	.	.	.	.	.	.	.	.	8BB-'/	.	8d/	.	8b-'\	.	8B-'\	.	8d'\	.	8b-\	.	8dd\	.	8ddd\	.
.	.	.	.	.	.	.	16ff'\	.	.	.	.	.	.	.	.	.	.	.	.	.	.	.	.	.	.	.	.	.	.	.	.	.	.	.	.	.
8B-\J	.	.	8d 8B-'/J	.	8dd 8f'/J	.	(16een\	.	.	.	.	.	.	.	.	.	.	.	.	.	8BB-'/J	.	8d/J	.	8b-'\J	.	8B-'\J	.	8d'\J	.	8b-\J	.	8dd\J	.	8ddd\J	.
.	.	.	.	.	.	.	16ff\JJ)	.	.	.	.	.	.	.	.	.	.	.	.	.	.	.	.	.	.	.	.	.	.	.	.	.	.	.	.	.
*	*	*	*	*	*	*	*	*	*	*	*	*	*	*	*	*	*	*	*	*	*Xtremolo	*	*Xtremolo	*	*Xtremolo	*	*Xtremolo	*	*Xtremolo	*	*Xtremolo	*	*Xtremolo	*	*Xtremolo	*
!	!	!	!LO:TX:b:t=...	!	!LO:TX:b:t=...	!	!	!	!	!	!	!	!	!	!	!	!	!	!	!	!	!	!	!	!LO:N:vis=4	!	!	!	!	!	!	!	!	!	!	!
8B-\L	.	.	8d 8B-'/L	.	8dd 8f'/L	.	(16gg\LL	.	4.B-\	-son	.	4.B-\	-son	.	4.f\	-son	.	4.dd\	-son	.	4.BB-T/	.	4.d/	.	4.b-\	.	4.B-\	.	4.d\	.	4.b-\	.	4.dd\	.	8ddd\L	.
.	.	.	.	.	.	.	16ff\)	.	.	.	.	.	.	.	.	.	.	.	.	.	.	.	.	.	.	.	.	.	.	.	.	.	.	.	.	.
8B-\	.	.	8d 8B-'/	.	8dd 8f'/	.	16ee-X'\	.	.	.	.	.	.	.	.	.	.	.	.	.	.	.	.	.	.	.	.	.	.	.	.	.	.	.	(16eee-\L	.
.	.	.	.	.	.	.	16dd'\	.	.	.	.	.	.	.	.	.	.	.	.	.	.	.	.	.	.	.	.	.	.	.	.	.	.	.	16ddd\)	.
8B-\J	.	.	8d 8B-'/J	.	8dd 8f'/J	.	(16cc\	.	.	.	.	.	.	.	.	.	.	.	.	.	.	.	.	.	.	.	.	.	.	.	.	.	.	.	16ccc'\	.
.	.	.	.	.	.	.	16b-\JJ)	.	.	.	.	.	.	.	.	.	.	.	.	.	.	.	.	.	.	.	.	.	.	.	.	.	.	.	16bb-'\JJ	.
*Xtremolo	*	*	*	*	*Xtremolo	*	*	*	*	*	*	*	*	*	*	*	*	*	*	*	*	*	*	*	*	*	*	*	*	*	*	*	*	*	*	*
!	!	!	!	!	!LO:LB:g=original	!	!	!	!	!	!	!LO:LB:g=original	!	!	!	!	!	!LO:LB:g=original	!	!	!	!	!	!	!	!	!	!	!	!	!	!	!	!	!	!
=20	=20	=20	=20	=20	=20	=20	=20	=20	=20	=20	=20	=20	=20	=20	=20	=20	=20	=20	=20	=20	=20	=20	=20	=20	=20	=20	=20	=20	=20	=20	=20	=20	=20	=20	=20	=20
*	*	*	*	*	*	*	*	*	*	*	*	*	*	*	*	*	*	*	*	*	*	*	*tremolo	*	*tremolo	*	*tremolo	*	*tremolo	*	*tremolo	*	*tremolo	*	*	*
!	!	!	!LO:TX:b:t=...	!	!	!	!	!	!	!	!	!	!	!	!	!	!	!	!	!	!	!	!	!	!LO:TX:t=...	!	!LO:TX:t=...	!	!LO:TX:t=...	!	!	!	!	!	!.	!
8c\L	3	.	8e- 8c'/L	.	4ee- 4f/	.	8a'/L	.	4c\	Ky-	.	4A\	Ky-	.	4e-\	Ky-	.	4cc\	Ky-	.	8FF'/L	.	8f/L	.	8cc'\L	.	8c'\L	.	8e-'\L	.	8cc\L	.	8ee-\L	.	8aa\L	.
8F\	7_	.	8e- 8c'/	.	.	.	8f'/	.	.	.	.	.	.	.	.	.	.	.	.	.	8FF'/	.	8f/	.	8cc'\	.	8c'\	.	8e-'\	.	8cc\	.	8ee-\	.	8ff\	.
8F\J	.	.	8e- 8c'/J	.	16dd'\LL	.	8a'/J	.	8F\	-ri-	.	8A\	-ri-	.	8e-\	-ri-	.	8cc\	-ri-	.	8FF'/J	.	8f/J	.	8cc'\J	.	8c'\J	.	8e-'\J	.	8cc\J	.	8ee-\J	.	8aa\J	.
.	.	.	.	.	16ee-'\JJ	.	.	.	.	.	.	.	.	.	.	.	.	.	.	.	.	.	.	.	.	.	.	.	.	.	.	.	.	.	.	.
*tremolo	*	*	*	*	*	*	*	*	*	*	*	*	*	*	*	*	*	*	*	*	*tremolo	*	*	*	*Xtremolo	*	*	*	*	*	*	*	*	*	*	*
!	!	!	!LO:TX:b:t=...	!	!	!	!	!	!	!	!	!	!	!	!	!	!	!	!	!	!LO:TX:b:t=...	!	!	!	!	!	!LO:TX:t=...	!	!LO:TX:t=...	!	!	!	!	!	!	!
8F\L	.	.	8e- 8c'/L	.	(16ff\LL	.	8cc'\L	.	4F\	-e	.	4A\	-e	.	4e-\	-e	.	4cc\	-e	.	8FF'/L	.	8f/L	.	4.cc\	.	8c'\L	.	8e-\L	.	8cc\L	.	8ee-\L	.	8ccc\L	.
.	.	.	.	.	16ee-\)	.	.	.	.	.	.	.	.	.	.	.	.	.	.	.	.	.	.	.	.	.	.	.	.	.	.	.	.	.	.	.
8F\	.	.	8e- 8c'/	.	16gg'\	.	8a'\	.	.	.	.	.	.	.	.	.	.	.	.	.	8FF'/	.	8f/	.	.	.	8c'\	.	8e-\	.	8cc\	.	8ee-\	.	8aa\	.
.	.	.	.	.	16ff'\	.	.	.	.	.	.	.	.	.	.	.	.	.	.	.	.	.	.	.	.	.	.	.	.	.	.	.	.	.	.	.
8F\J	.	.	8e- 8c'/J	.	16ee-'\	.	8cc'\J	.	8F\	e-	.	8A\	e-	.	8e-\	e-	.	8cc\	e-	.	8FF'/J	.	8f/J	.	.	.	8c'\J	.	8e-\J	.	8cc\J	.	8ee-\J	.	8ccc\J	.
.	.	.	.	.	16dd'\JJ	.	.	.	.	.	.	.	.	.	.	.	.	.	.	.	.	.	.	.	.	.	.	.	.	.	.	.	.	.	.	.
=21	=21	=21	=21	=21	=21	=21	=21	=21	=21	=21	=21	=21	=21	=21	=21	=21	=21	=21	=21	=21	=21	=21	=21	=21	=21	=21	=21	=21	=21	=21	=21	=21	=21	=21	=21	=21
*	*	*	*	*	*	*	*	*	*	*	*	*	*	*	*	*	*	*	*	*	*	*	*	*	*tremolo	*	*	*	*	*	*	*	*	*	*	*
!	!	!	!LO:TX:b:t=...	!	!	!	!	!	!	!	!	!	!	!	!	!	!	!	!	!	!LO:TX:b:t=......	!	!	!	!LO:TX:t=...	!	!LO:TX:t=...	!	!LO:TX:t=...	!	!	!	!	!	!	!
8F\L	.	.	8e- 8c'/L	.	(16ee-\LL	.	8ee-'\L	.	4.F\	-lei-	.	4.A\	-lei-	.	4.e-\	-lei-	.	4.cc\	-lei-	.	8FF'/L	.	8f/L	.	8cc'\L	.	8c'\L	.	8e-'\L	.	8cc\L	.	8ee-\L	.	8fff\L	.
.	.	.	.	.	16dd\)	.	.	.	.	.	.	.	.	.	.	.	.	.	.	.	.	.	.	.	.	.	.	.	.	.	.	.	.	.	.	.
8F\	.	.	8e- 8c'/	.	16cc'\	.	8cc'\	.	.	.	.	.	.	.	.	.	.	.	.	.	8FF'/	.	8f/	.	8cc'\	.	8c'\	.	8e-'\	.	8cc\	.	8ee-\	.	8ccc\	.
.	.	.	.	.	16b-'\	.	.	.	.	.	.	.	.	.	.	.	.	.	.	.	.	.	.	.	.	.	.	.	.	.	.	.	.	.	.	.
8F\J	.	.	8e- 8c'/J	.	16a'\	.	8ee-'\J	.	.	.	.	.	.	.	.	.	.	.	.	.	8FF'/	.	8f/	.	8cc'\J	.	8c'\J	.	8e-'\J	.	8cc\J	.	8ee-\J	.	8eee-\J	.
.	.	.	.	.	16g'\JJ	.	.	.	.	.	.	.	.	.	.	.	.	.	.	.	.	.	.	.	.	.	.	.	.	.	.	.	.	.	.	.
.	.	.	.	.	.	.	(<16qqee-/LL	.	.	.	.	.	.	.	.	.	.	.	.	.	.	.	.	.	.	.	.	.	.	.	.	.	.	.	16qqeee-/LL	.
.	.	.	.	.	.	.	16qqff/JJ	.	.	.	.	.	.	.	.	.	.	.	.	.	.	.	.	.	.	.	.	.	.	.	.	.	.	.	16qqfff/JJ	.
*	*	*	*Xtremolo	*	*	*	*	*	*	*	*	*	*	*	*	*	*	*	*	*	*	*	*	*	*	*	*	*	*	*	*	*	*	*	*	*
!	!	!	!	!	!	!	!	!LO:DY:rj:t=rf.	!	!	!	!	!	!	!	!	!	!	!	!	!	!	!	!	!LO:TX:t=...	!	!LO:TX:t=...	!	!LO:TX:t=...	!	!	!	!	!	!	!
8F\L	.	.	8e-L 8c/	.	8f'\L	.	8.gg\L)	rfz	4.F\	-son	.	4.A\	-son	.	4.e-\	-son	.	4.cc\	-son	.	8FF'/	.	8f/	.	8cc'\L	.	8c'\L	.	8e-\L	.	8a\L	.	8cc\L	.	8.ggg\L	.
8F\	.	.	8e- 8c/	.	8ee- 8f'\	.	.	.	.	.	.	.	.	.	.	.	.	.	.	.	8FF'/	.	8f/	.	8cc'\	.	8c'\	.	8e-\	.	8a\	.	8cc\	.	.	.
.	.	.	.	.	.	.	16ff\K	.	.	.	.	.	.	.	.	.	.	.	.	.	.	.	.	.	.	.	.	.	.	.	.	.	.	.	16fff\K	.
8F\J	.	.	8A/J	.	8ccJ 8f'\	.	8ee-\J	.	.	.	.	.	.	.	.	.	.	.	.	.	8FF'/J	.	8f/J	.	8cc'\J	.	8c'\J	.	8e-\J	.	8a\J	.	8cc\J	.	8eee-\J	.
*Xtremolo	*	*	*	*	*	*	*	*	*	*	*	*	*	*	*	*	*	*	*	*	*	*	*	*	*	*	*	*	*	*	*	*	*	*	*	*
!	!	!	!	!	!	!	!LO:LB:g=original	!	!	!	!	!	!	!	!	!	!	!	!	!	!	!	!	!	!	!	!	!	!LO:LB:g=original	!	!	!	!	!	!	!
=22	=22	=22	=22	=22	=22	=22	=22	=22	=22	=22	=22	=22	=22	=22	=22	=22	=22	=22	=22	=22	=22	=22	=22	=22	=22	=22	=22	=22	=22	=22	=22	=22	=22	=22	=22	=22
*	*	*	*tremolo	*	*tremolo	*	*	*	*	*	*	*	*	*	*	*	*	*	*	*	*	*	*	*	*	*	*	*	*	*	*	*	*	*	*tremolo	*
!	!	!	!LO:TX:t=P:problem=tt. 22-25 zapisane repetycją, wzięte w łuk, z adnotacją "bis"	!	!	!	!	!	!	!	!	!	!	!	!	!	!	!	!	!	!	!	!	!	!	!	!	!	!	!	!	!	!	!	!	!
!LO:TX:t=P:problem=mixed beam	!	!	!LO:TX:b:t=...	!LO:DY:rj:t=f.	!LO:TX:b:t=...	!	!	!	!	!	!	!	!	!	!	!	!	!	!	!	!	!	!	!	!LO:TX:t=...	!	!LO:TX:t=...	!	!LO:TX:t=...	!	!	!	!	!	!LO:TX:t=P:problem=tt. 22-25 zapisane repetycją, wzięte w łuk, z adnotacją "bis"	!
8BB-/L	8_ 3_	f	8dyy 8B-'/Lyy	fy	8dd 8f'/L	.	4bb- 4dd\	.	4B-\	Ky-	.	4B-\	Ky-	.	4f\	Ky-	.	4dd\	Ky-	.	8BB-/L	.	8d/L	.	8b-'\L	.	8B-'\L	.	8d'\L	.	8b-\L	.	8dd\L	.	8ddd\Lyy	.
8B-\	.	.	8dyy 8B-'/yy	.	8dd 8f'/	.	.	.	.	.	.	.	.	.	.	.	.	.	.	.	8BB-/	.	8d/	.	8b-'\	.	8B-'\	.	8d'\	.	8b-\	.	8dd\	.	8ddd\yy	.
8B-\J	.	.	8dyy 8B-'/Jyy	.	8dd 8f'/J	.	(16aa\LL	.	8B-\	-ri-	.	8B-\	-ri-	.	8f\	-ri-	.	8dd\	-ri-	.	8BB-/J	.	8d/J	.	8b-'\J	.	8B-'\J	.	8d'\J	.	8b-\J	.	8dd\J	.	8ddd\Jyy	.
.	.	.	.	.	.	.	16bb-\JJ)	.	.	.	.	.	.	.	.	.	.	.	.	.	.	.	.	.	.	.	.	.	.	.	.	.	.	.	.	.
*tremolo	*	*	*	*	*	*	*	*	*	*	*	*	*	*	*	*	*	*	*	*	*Xtremolo	*	*Xtremolo	*	*Xtremolo	*	*Xtremolo	*	*Xtremolo	*	*	*	*	*	*	*
!	!	!	!LO:TX:b:t=...	!	!LO:TX:b:t=...	!	!	!	!	!	!	!	!	!	!	!	!	!	!	!	!	!	!	!	!	!	!	!	!	!	!	!	!	!	!	!
8B-\L	.	.	8dyy 8B-'/Lyy	.	8dd 8f'/L	.	(16ccc\LL	.	4B-\	-e	.	4B-\	-e	.	4f\	-e	.	4dd\	-e	.	4.BB-T/	.	4.d/	.	4.b-\	.	4.B-\	.	4.d\	.	8b-\L	.	8dd\L	.	8ddd\Lyy	.
.	.	.	.	.	.	.	16bb-\)	.	.	.	.	.	.	.	.	.	.	.	.	.	.	.	.	.	.	.	.	.	.	.	.	.	.	.	.	.
8B-\	.	.	8dyy 8B-'/yy	.	8dd 8f'/	.	16ddd'\	.	.	.	.	.	.	.	.	.	.	.	.	.	.	.	.	.	.	.	.	.	.	.	8b-\	.	8dd\	.	8ddd\yy	.
.	.	.	.	.	.	.	16ccc'\	.	.	.	.	.	.	.	.	.	.	.	.	.	.	.	.	.	.	.	.	.	.	.	.	.	.	.	.	.
8B-\J	.	.	8dyy 8B-'/Jyy	.	8dd 8f'/J	.	(16bb-\	.	8B-\	e-	.	8B-\	e-	.	8f\	e-	.	8dd\	e-	.	.	.	.	.	.	.	.	.	.	.	8b-\J	.	8dd\J	.	8ddd\Jyy	.
.	.	.	.	.	.	.	16aa\JJ)	.	.	.	.	.	.	.	.	.	.	.	.	.	.	.	.	.	.	.	.	.	.	.	.	.	.	.	.	.
!	!	!	!	!	!	!	!	!	!	!	!	!	!	!	!LO:LB:g=original	!	!	!	!	!	!	!	!LO:LB:g=original	!	!	!	!	!	!	!	!LO:LB:g=original	!	!	!	!	!
=23	=23	=23	=23	=23	=23	=23	=23	=23	=23	=23	=23	=23	=23	=23	=23	=23	=23	=23	=23	=23	=23	=23	=23	=23	=23	=23	=23	=23	=23	=23	=23	=23	=23	=23	=23	=23
*	*	*	*	*	*	*	*	*	*	*	*	*	*	*	*	*	*	*	*	*	*tremolo	*	*tremolo	*	*tremolo	*	*tremolo	*	*tremolo	*	*	*	*	*	*	*
!	!	!	!LO:TX:b:t=...	!	!LO:TX:b:t=...	!	!	!	!	!	!	!	!	!	!	!	!	!	!	!	!	!	!	!	!LO:TX:t=...	!	!LO:TX:t=...	!	!LO:TX:t=...	!	!LO:TX:t=...	!	!	!	!LO:TX:t=...	!
8B-\L	.	.	8dyy 8B-'/Lyy	.	8dd 8f'/L	.	(16bb-\LL	.	4.B-\	-lei-	.	4.B-\	-lei-	.	4.f\	-lei-	.	4.dd\	-lei-	.	8BB-/L	.	8d/L	.	8b-'\L	.	8B-'\L	.	8d'\L	.	8b-'\L	.	8dd\L	.	8ddd\Lyy	.
.	X X	.	.	.	.	.	16aa\)	.	.	.	.	.	.	.	.	.	.	.	.	.	.	.	.	.	.	.	.	.	.	.	.	.	.	.	.	.
8B-\	.	.	8dyy 8B-'/yy	.	8dd 8f'/	.	16gg'\	.	.	.	.	.	.	.	.	.	.	.	.	.	8BB-/	.	8d/	.	8b-'\	.	8B-'\	.	8d'\	.	8b-'\	.	8dd\	.	8ddd\yy	.
.	.	.	.	.	.	.	16ff'\	.	.	.	.	.	.	.	.	.	.	.	.	.	.	.	.	.	.	.	.	.	.	.	.	.	.	.	.	.
8B-\	.	.	8dyy 8B-'/Jyy	.	8dd 8f'/J	.	(16een\	.	.	.	.	.	.	.	.	.	.	.	.	.	8BB-/J	.	8d/J	.	8b-'\J	.	8B-'\J	.	8d'\J	.	8b-'\J	.	8dd\J	.	8ddd\Jyy	.
.	.	.	.	.	.	.	16ff\JJ)	.	.	.	.	.	.	.	.	.	.	.	.	.	.	.	.	.	.	.	.	.	.	.	.	.	.	.	.	.
*	*	*	*	*	*	*	*	*	*	*	*	*	*	*	*	*	*	*	*	*	*Xtremolo	*	*Xtremolo	*	*Xtremolo	*	*Xtremolo	*	*Xtremolo	*	*	*	*	*	*Xtremolo	*
!	!	!	!LO:TX:b:t=...	!	!LO:TX:b:t=...	!	!	!	!	!	!	!	!	!	!	!	!	!	!	!	!	!	!	!	!	!	!	!	!	!	!LO:TX:t=...	!	!	!	!	!
8B-\	.	.	8dyy 8B-'/Lyy	.	8dd 8f'/L	.	(16gg\LL	.	4.B-\	-son.	.	4.B-\	-son	.	4.f\	-son	.	4.dd\	-son	.	4.BB-T/	.	4.d/	.	4.b-\	.	4.B-\	.	4.d\	.	8b-'\L	.	8dd\L	.	8ddd\Lyy	.
.	.	.	.	.	.	.	16ff\)	.	.	.	.	.	.	.	.	.	.	.	.	.	.	.	.	.	.	.	.	.	.	.	.	.	.	.	.	.
8B-\	.	.	8dyy 8B-'/yy	.	8dd 8f'/	.	16ee-X'\	.	.	.	.	.	.	.	.	.	.	.	.	.	.	.	.	.	.	.	.	.	.	.	8b-'\	.	8dd\	.	(y16eee-\Lyy	.
.	.	.	.	.	.	.	16dd'\	.	.	.	.	.	.	.	.	.	.	.	.	.	.	.	.	.	.	.	.	.	.	.	.	.	.	.	16ddd\)yy	.
8B-\J	.	.	8dyy 8B-'/Jyy	.	8dd 8f'/J	.	(16cc\	.	.	.	.	.	.	.	.	.	.	.	.	.	.	.	.	.	.	.	.	.	.	.	8b-'\J	.	8dd\J	.	16ccc'\yy	.
.	.	.	.	.	.	.	16b-\JJ)	.	.	.	.	.	.	.	.	.	.	.	.	.	.	.	.	.	.	.	.	.	.	.	.	.	.	.	16bb-'\JJyy	.
*Xtremolo	*	*	*	*	*Xtremolo	*	*	*	*	*	*	*	*	*	*	*	*	*	*	*	*	*	*	*	*	*	*	*	*	*	*	*	*	*	*	*
!	!	!	!	!	!	!	!	!	!	!	!	!	!	!	!	!	!	!	!	!	!LO:LB:g=original	!	!	!	!	!	!	!	!	!	!	!	!	!	!	!
=24	=24	=24	=24	=24	=24	=24	=24	=24	=24	=24	=24	=24	=24	=24	=24	=24	=24	=24	=24	=24	=24	=24	=24	=24	=24	=24	=24	=24	=24	=24	=24	=24	=24	=24	=24	=24
*	*	*	*	*	*	*	*	*	*	*	*	*	*	*	*	*	*	*	*	*	*tremolo	*	*tremolo	*	*tremolo	*	*tremolo	*	*tremolo	*	*	*	*	*	*	*
!	!	!	!LO:TX:b:t=...	!	!	!	!	!	!	!	!	!	!	!	!	!	!	!	!	!	!LO:TX:b:t=......	!	!	!	!LO:TX:t=...	!	!LO:TX:t=...	!	!	!	!	!	!	!	!.	!
8c\L	3	.	8e-yy 8c'/Lyy	.	4ee- 4f/	.	8a/L	.	4c\	Ky-	.	4A\	Ky-	.	4e-\	Ky-	.	4cc\	Ky-	.	8FF'/L	.	8f/L	.	8cc'\L	.	8c'\L	.	8e-\L	.	8cc\L	.	8ee-\L	.	8aa\Lyy	.
8F\	7_	.	8e-yy 8c'/yy	.	.	.	8f/	.	.	.	.	.	.	.	.	.	.	.	.	.	8FF'/	.	8f/	.	8cc'\	.	8c'\	.	8e-\	.	8cc\	.	8ee-\	.	8ff\yy	.
8F\J	.	.	8e-yy 8c'/Jyy	.	16dd'\LL	.	8a/J	.	8F\	-ri-	.	8A\	-ri-	.	8e-\	-ri-	.	8cc\	-ri-	.	8FF'/	.	8f/	.	8cc'\J	.	8c'\J	.	8e-\J	.	8cc\J	.	8ee-\J	.	8aa\Jyy	.
.	.	.	.	.	16ee-'\JJ	.	.	.	.	.	.	.	.	.	.	.	.	.	.	.	.	.	.	.	.	.	.	.	.	.	.	.	.	.	.	.
*tremolo	*	*	*	*	*	*	*	*	*	*	*	*	*	*	*	*	*	*	*	*	*	*	*	*	*	*	*	*	*	*	*	*	*	*	*	*
!	!	!	!LO:TX:b:t=...	!	!	!	!	!	!	!	!	!	!	!	!	!	!	!	!	!	!	!	!	!	!LO:TX:t=...	!	!LO:TX:t=...	!	!	!	!	!	!	!	!	!
8F\L	.	.	8e-yy 8c'/Lyy	.	(16ff\LL	.	8cc/L	.	4F\	-e	.	4A\	-e	.	4e-\	-e	.	4cc\	-e	.	8FF'/	.	8f/	.	8cc'\L	.	8c'\L	.	8e-\L	.	8cc\L	.	8ee-\L	.	8ccc\Lyy	.
.	.	.	.	.	16ee-\)	.	.	.	.	.	.	.	.	.	.	.	.	.	.	.	.	.	.	.	.	.	.	.	.	.	.	.	.	.	.	.
8F\	.	.	8e-yy 8c'/yy	.	16gg'\	.	8a/	.	.	.	.	.	.	.	.	.	.	.	.	.	8FF'/	.	8f/	.	8cc'\	.	8c'\	.	8e-\	.	8cc\	.	8ee-\	.	8aa\yy	.
.	.	.	.	.	16ff'\	.	.	.	.	.	.	.	.	.	.	.	.	.	.	.	.	.	.	.	.	.	.	.	.	.	.	.	.	.	.	.
8F\J	.	.	8e-yy 8c'/Jyy	.	16ee-'\	.	8cc/J	.	8F\	e-	.	8A\	e-	.	8e-\	e-	.	8cc\	e-	.	8FF'/J	.	8f/J	.	8cc'\J	.	8c'\J	.	8e-\J	.	8cc\J	.	8ee-\J	.	8ccc\Jyy	.
.	.	.	.	.	16dd'\JJ	.	.	.	.	.	.	.	.	.	.	.	.	.	.	.	.	.	.	.	.	.	.	.	.	.	.	.	.	.	.	.
!	!	!	!	!	!LO:LB:g=original	!	!	!	!LO:LB:g=original	!	!	!	!	!	!	!	!	!	!	!	!	!	!	!	!LO:LB:g=original	!	!	!	!	!	!	!	!	!	!	!
=25	=25	=25	=25	=25	=25	=25	=25	=25	=25	=25	=25	=25	=25	=25	=25	=25	=25	=25	=25	=25	=25	=25	=25	=25	=25	=25	=25	=25	=25	=25	=25	=25	=25	=25	=25	=25
*	*	*	*	*	*	*	*	*	*2\right	*	*	*	*	*	*	*	*	*	*	*	*	*	*	*	*tremolo	*	*	*	*	*	*	*	*	*	*	*
!	!	!	!LO:TX:b:t=...	!	!	!	!	!	!	!	!	!	!	!	!	!	!	!	!	!	!LO:TX:b:t=......	!	!	!	!LO:TX:t=...	!	!LO:TX:t=...	!	!	!	!	!	!	!	!	!
8F\L	.	.	8e-yy 8c'/Lyy	.	(16ee-\LL	.	8ee-\L	.	2.F\	-lei-	.	2.A\	-lei-	.	2.e-\	-lei-	.	2.cc\	-lei-	.	8FF'/L	.	8f/L	.	8cc'\L	.	8c'\L	.	8e-\L	.	8cc\L	.	8ee-\L	.	8fff\Lyy	.
.	.	.	.	.	16dd\)	.	.	.	.	.	.	.	.	.	.	.	.	.	.	.	.	.	.	.	.	.	.	.	.	.	.	.	.	.	.	.
8F\	.	.	8e-yy 8c'/yy	.	16cc'\	.	8cc\	.	.	.	.	.	.	.	.	.	.	.	.	.	8FF'/	.	8f/	.	8cc'\	.	8c'\	.	8e-\	.	8cc\	.	8ee-\	.	8ccc\yy	.
.	.	.	.	.	16b-'\	.	.	.	.	.	.	.	.	.	.	.	.	.	.	.	.	.	.	.	.	.	.	.	.	.	.	.	.	.	.	.
8F\	.	.	8e-yy 8c'/Jyy	.	16a'\	.	8ee-\J	.	.	.	.	.	.	.	.	.	.	.	.	.	8FF'/	.	8f/	.	8cc'\J	.	8c'\J	.	8e-\J	.	8cc\J	.	8ee-\J	.	8eee-\Jyy	.
.	.	.	.	.	16g'\JJ	.	.	.	.	.	.	.	.	.	.	.	.	.	.	.	.	.	.	.	.	.	.	.	.	.	.	.	.	.	.	.
.	.	.	.	.	.	.	(<16qqee-/LL	.	.	.	.	.	.	.	.	.	.	.	.	.	.	.	.	.	.	.	.	.	.	.	.	.	.	.	16qqeee-/LLyy	.
*	*	*	*	*	*	*	*	*	*	*	*	*	*	*	*	*	*	*	*	*	*	*	*	*	*	*	*Xtremolo	*	*	*	*	*	*	*	*	*
!	!	!	!	!	!	!	!	!	!	!	!	!	!	!	!	!	!	!	!	!	!	!	!	!	!LO:TX:t=...	!	!	!	!	!	!	!	!	!	!	!
.	.	.	.	.	.	.	16qqff/JJ	.	.	.	.	.	.	.	.	.	.	.	.	.	.	.	.	.	.	.	.	.	.	.	.	.	.	.	16qqfff/JJyy	.
*	*	*	*Xtremolo	*	*	*	*	*	*	*	*	*	*	*	*	*	*	*	*	*	*	*	*	*	*	*	*	*	*	*	*	*	*	*	*	*
!	!	!	!	!	!	!	!	!LO:DY:rj:t=rf	!	!	!	!	!	!	!	!	!	!	!	!	!	!	!	!	!	!	!	!	!	!	!	!	!	!	!	!
8F\	.	.	8e-Lyy 8c/yy	.	8f\L	.	8.gg\L)	rfz	.	.	.	.	.	.	.	.	.	.	.	.	8FF'/	.	8f/	.	8cc'\L	.	4.A\	.	8c\L	.	8a\L	.	8cc\L	.	8.ggg\Lyy	.
8F\	.	.	8e-yy 8c/yy	.	8ee- 8f'\	.	.	.	.	.	.	.	.	.	.	.	.	.	.	.	8FF'/	.	8f/	.	8cc'\	.	.	.	8c\	.	8a\	.	8cc\	.	.	.
.	.	.	.	.	.	.	16ff'\K	.	.	.	.	.	.	.	.	.	.	.	.	.	.	.	.	.	.	.	.	.	.	.	.	.	.	.	16fff\Kyy	.
8F\J	.	.	8A/Jyy	.	8ccJ 8f'\	.	8ee-'\J	.	.	.	.	.	.	.	.	.	.	.	.	.	8FF'/J	.	8f/J	.	8cc'\J	.	.	.	8c\J	.	8a\J	.	8cc\J	.	8eee-\Jyy	.
*Xtremolo	*	*	*	*	*	*	*	*	*	*	*	*	*	*	*	*	*	*	*	*	*Xtremolo	*	*Xtremolo	*	*Xtremolo	*	*	*	*Xtremolo	*	*Xtremolo	*	*Xtremolo	*	*	*
!	!	!	!	!	!	!	!LO:LB:g=original	!	!	!	!	!	!	!	!	!	!	!	!	!	!	!	!	!	!	!	!LO:LB:g=original	!	!	!	!	!	!LO:LB:g=original	!	!	!
=26	=26	=26	=26	=26	=26	=26	=26	=26	=26	=26	=26	=26	=26	=26	=26	=26	=26	=26	=26	=26	=26	=26	=26	=26	=26	=26	=26	=26	=26	=26	=26	=26	=26	=26	=26	=26
8B-\	3 5	.	8d 8B-/	.	16dd/LL|	.	16dd'\LL	.	8BB-/	-son,	.	8B-\	-son	.	8f\	-son	.	8dd\	-son	.	8BB-/	.	8d/	.	8b-\	.	8B-\	.	8B-\	.	8b-\	.	8dd\	.	8ddd\	.
.	.	.	.	.	(16e-/	.	(16ff\	.	.	.	.	.	.	.	.	.	.	.	.	.	.	.	.	.	.	.	.	.	.	.	.	.	.	.	.	.
8r	.	.	8r	.	16en/	.	16een\	.	8r	.	.	8r	.	.	8r	.	.	8r	.	.	8r	.	8r	.	8r	.	8r	.	8r	.	8r	.	8r	.	8r	.
.	.	.	.	.	16f/	.	16ff\	.	.	.	.	.	.	.	.	.	.	.	.	.	.	.	.	.	.	.	.	.	.	.	.	.	.	.	.	.
8F\	.	.	8d 8B-/	.	16g/	.	16gg\	.	8B-\	Chri-	.	8B-\	Chri-	.	8f\	Chri-	.	8dd\	Chri-	.	8FF/	.	8F/	.	8f/	.	8B- 8F\	.	8F\	.	8b-\	.	8dd\	.	8fff\	.
.	.	.	.	.	16f/JJ)	.	16ff'\JJ)	.	.	.	.	.	.	.	.	.	.	.	.	.	.	.	.	.	.	.	.	.	.	.	.	.	.	.	.	.
!	!	!	!	!	!	!	!	!	!	!	!	!LO:LB:g=original	!	!	!	!	!	!LO:LB:g=original	!	!	!	!	!	!	!	!	!	!	!	!	!	!	!	!	!	!
8c\	6	.	8e- 8c/	.	16r	.	16a\LL|	.	8c\	-ste,	.	8A\	-ste	.	8f\	-ste,	.	8ee-\	-ste	.	8FF/	.	8F/	.	8f/	.	8c\	.	8c\	.	8cc\	.	8ee-\	.	8aa\	.
.	.	.	.	.	16f/LL	.	(16ff\	.	.	.	.	.	.	.	.	.	.	.	.	.	.	.	.	.	.	.	.	.	.	.	.	.	.	.	.	.
8r	.	.	8r	.	(16e/	.	16een\	.	8r	.	.	8r	.	.	8r	.	.	8r	.	.	8r	.	8r	.	8r	.	8r	.	8r	.	8r	.	8r	.	8r	.
.	.	.	.	.	16f/	.	16ff\	.	.	.	.	.	.	.	.	.	.	.	.	.	.	.	.	.	.	.	.	.	.	.	.	.	.	.	.	.
8F\	.	.	8e- 8c/	.	16g/	.	16gg\	.	8F\	Chri-	.	8c\	Chri-	.	8f\	Chri-	.	8ee-\	Chri-	.	8FF/	.	8F/	.	8f/	.	8F\	.	8F\	.	8cc\	.	8ee-\	.	8fff\	.
.	.	.	.	.	16f/JJ)	.	16ff\JJ)	.	.	.	.	.	.	.	.	.	.	.	.	.	.	.	.	.	.	.	.	.	.	.	.	.	.	.	.	.
!LO:LB:g=original	!	!	!LO:LB:g=original	!	!	!	!	!	!	!	!	!	!	!	!	!	!	!	!	!	!	!	!	!	!	!	!	!	!	!	!	!	!	!	!	!
=27	=27	=27	=27	=27	=27	=27	=27	=27	=27	=27	=27	=27	=27	=27	=27	=27	=27	=27	=27	=27	=27	=27	=27	=27	=27	=27	=27	=27	=27	=27	=27	=27	=27	=27	=27	=27
8d\	6	.	8f 8d/	.	16r	.	16b-\LL|	.	8d\	-ste,	.	8B-\	-ste	.	8f\	-ste,	.	8ff\	-ste	.	8BB-/	.	8F/	.	8f/	.	8d\	.	8d\	.	8dd\	.	8ff\	.	8bb-\	.
.	.	.	.	.	(16f/LL	.	(16ff\	.	.	.	.	.	.	.	.	.	.	.	.	.	.	.	.	.	.	.	.	.	.	.	.	.	.	.	.	.
8r	.	.	8r	.	16en/	.	16ee-\	.	8r	.	.	8r	.	.	8r	.	.	8r	.	.	8r	.	8r	.	8r	.	8r	.	8r	.	8r	.	8r	.	8r	.
.	.	.	.	.	16f/	.	16ff\	.	.	.	.	.	.	.	.	.	.	.	.	.	.	.	.	.	.	.	.	.	.	.	.	.	.	.	.	.
8F\	.	.	8f 8d/	.	16b-'/	.	16ddd'\	.	8F\	Chri-	.	8d\	e-	.	8f\	e-	.	8ff\	e-	.	8FF/	.	8F/	.	8f/	.	8F\	.	8F\	.	8dd\	.	8ff\	.	8fff\	.
.	.	.	.	.	16dd'/JJ)	.	16bb-'\JJ)	.	.	.	.	.	.	.	.	.	.	.	.	.	.	.	.	.	.	.	.	.	.	.	.	.	.	.	.	.
8c\	3_	.	8e-L 8c/	.	4ee-X 4f^>/	.	(16bb-\LL	.	8c\	-ste,	.	4.c\	-lei-	.	4.a\	-lei-	.	4.ee-\	-lei-	.	4.FFT/	.	4.F/	.	4.f/	.	8c\	.	8c\	.	4.cc\	.	4.ee-\	.	4.aa\	.
.	.	.	.	.	.	.	16aa\)	.	.	.	.	.	.	.	.	.	.	.	.	.	.	.	.	.	.	.	.	.	.	.	.	.	.	.	.	.
8r	.	.	8e- 8c/	.	.	.	(16aa\	.	8r	.	.	.	.	.	.	.	.	.	.	.	.	.	.	.	.	.	8r	.	8r	.	.	.	.	.	.	.
.	.	.	.	.	.	.	16gg\)	.	.	.	.	.	.	.	.	.	.	.	.	.	.	.	.	.	.	.	.	.	.	.	.	.	.	.	.	.
8F\	.	.	8A/J	.	8cc 8f/	.	(16ff\	.	8F\	Chri-	.	.	.	.	.	.	.	.	.	.	.	.	.	.	.	.	8F\	.	8F\	.	.	.	.	.	.	.
.	.	.	.	.	.	.	16ee-X\JJ)	.	.	.	.	.	.	.	.	.	.	.	.	.	.	.	.	.	.	.	.	.	.	.	.	.	.	.	.	.
!	!	!	!	!	!	!	!	!	!	!	!	!	!	!	!	!	!	!	!	!	!	!	!	!	!	!	!	!	!	!	!	!	!	!	!LO:LB:g=original	!
=28	=28	=28	=28	=28	=28	=28	=28	=28	=28	=28	=28	=28	=28	=28	=28	=28	=28	=28	=28	=28	=28	=28	=28	=28	=28	=28	=28	=28	=28	=28	=28	=28	=28	=28	=28	=28
8B-\	3_	.	8d 8B-/	.	16dd/LL|	.	16dd\LL|	.	8BB-/	-ste	.	8B-\	-son,	.	8b-\	-son	.	8dd\	-son,	.	8BB-/	.	8F/	.	8f/	.	8B-\	.	8B-\	.	8b-\	.	8dd\	.	8ddd\	.
.	.	.	.	.	(16e-/	.	(16ff\	.	.	.	.	.	.	.	.	.	.	.	.	.	.	.	.	.	.	.	.	.	.	.	.	.	.	.	.	.
8r	.	.	8r	.	16en/	.	16een\	.	8r	.	.	8r	.	.	8r	.	.	8r	.	.	8r	.	8r	.	8r	.	8r	.	8r	.	8r	.	8r	.	8r	.
.	.	.	.	.	16f/	.	16ff\	.	.	.	.	.	.	.	.	.	.	.	.	.	.	.	.	.	.	.	.	.	.	.	.	.	.	.	.	.
8F\	.	.	8d 8B-/	.	16g/	.	16gg\	.	8B-\	e-	.	8B-\	Chri-	.	8f\	Chri-	.	8dd\	Chri-	.	8FF/	.	8F/	.	8f/	.	8F\	.	8F\	.	8b-\	.	8dd\	.	8ddd\	.
.	.	.	.	.	16f/JJ)	.	16ff\JJ)	.	.	.	.	.	.	.	.	.	.	.	.	.	.	.	.	.	.	.	.	.	.	.	.	.	.	.	.	.
8c\	6_	.	8e- 8c/	.	16r	.	16a\LL	.	8c\	-le-	.	8A\	-ste.	.	8f\	-ste,	.	8ee-\	-ste,	.	8FF/	.	8F/	.	8f/	.	8c\	.	8c\	.	8cc\	.	8ee-\	.	8aa\	.
.	.	.	.	.	(16f/LL	.	(16ff\	.	.	.	.	.	.	.	.	.	.	.	.	.	.	.	.	.	.	.	.	.	.	.	.	.	.	.	.	.
8r	.	.	8r	.	16e/	.	16ee\	.	8r	.	.	8r	.	.	8r	.	.	8r	.	.	8r	.	8r	.	8r	.	8r	.	8r	.	8r	.	8r	.	8r	.
.	.	.	.	.	16f/	.	16ff\	.	.	.	.	.	.	.	.	.	.	.	.	.	.	.	.	.	.	.	.	.	.	.	.	.	.	.	.	.
8F\	.	.	8e- 8c/	.	16g/	.	16gg\	.	8F\	-i-	.	8c\	Chri-	.	8f\	Chri-	.	8ee-\	Chri-	.	8FF/	.	8F/	.	8f/	.	8F\	.	8F\	.	8cc\	.	8ee-\	.	8fff\	.
.	.	.	.	.	16f/JJ)	.	16ff\JJ)	.	.	.	.	.	.	.	.	.	.	.	.	.	.	.	.	.	.	.	.	.	.	.	.	.	.	.	.	.
!	!	!	!	!	!LO:LB:g=original	!	!	!	!	!	!	!	!	!	!LO:LB:g=original	!	!	!	!	!	!	!	!	!	!	!	!	!	!	!	!	!	!	!	!	!
=29	=29	=29	=29	=29	=29	=29	=29	=29	=29	=29	=29	=29	=29	=29	=29	=29	=29	=29	=29	=29	=29	=29	=29	=29	=29	=29	=29	=29	=29	=29	=29	=29	=29	=29	=29	=29
8d\	6	.	8f 8d/	.	16r	.	16b-\LL|	.	8d\	-son	.	8B-\	-ste,	.	8f\	-ste	.	8ff\	-ste,	.	8BB-/	.	8F/	.	8f/	.	8d\	.	8d\	.	8dd\	.	8ff\	.	8bb-\	.
.	.	.	.	.	(16f/LL	.	(16ff\	.	.	.	.	.	.	.	.	.	.	.	.	.	.	.	.	.	.	.	.	.	.	.	.	.	.	.	.	.
8r	.	.	8r	.	16en/	.	16een\	.	8r	.	.	8r	.	.	8r	.	.	8r	.	.	8r	.	8r	.	8r	.	8r	.	8r	.	8r	.	8r	.	8r	.
.	.	.	.	.	16f/	.	16ff\	.	.	.	.	.	.	.	.	.	.	.	.	.	.	.	.	.	.	.	.	.	.	.	.	.	.	.	.	.
8F\	.	.	8f 8d/	.	16b-'/	.	16ddd'\	.	8F\	Chri-	.	8d\	e-	.	8f\	e-	.	8ff\	e-	.	8FF/	.	8F/	.	8f/	.	8F\	.	8F\	.	8dd\	.	8ff\	.	8fff\	.
.	.	.	.	.	16dd'/JJ)	.	16bb-'\JJ)	.	.	.	.	.	.	.	.	.	.	.	.	.	.	.	.	.	.	.	.	.	.	.	.	.	.	.	.	.
!	!	!	!	!	!	!	!LO:LB:g=original	!	!	!	!	!	!	!	!	!	!	!	!	!	!	!	!	!	!	!	!	!	!	!	!	!	!	!	!	!
8c\	3_	.	8e-L 8c/	.	4ee-X 4f^>/	.	(16bb-\LL	.	8c\	-ste,	.	4.c\	-lei-	.	4.a\	-lei-	.	4.ee-\	-lei-	.	4.FFT/	.	4.F/	.	4.f/	.	8c\	.	8c\	.	4.cc\	.	4.ee-\	.	4.aa\	.
.	.	.	.	.	.	.	16aa\)	.	.	.	.	.	.	.	.	.	.	.	.	.	.	.	.	.	.	.	.	.	.	.	.	.	.	.	.	.
8r	.	.	8e- 8c/	.	.	.	(16aa\	.	8r	.	.	.	.	.	.	.	.	.	.	.	.	.	.	.	.	.	8r	.	8r	.	.	.	.	.	.	.
.	.	.	.	.	.	.	16gg\)	.	.	.	.	.	.	.	.	.	.	.	.	.	.	.	.	.	.	.	.	.	.	.	.	.	.	.	.	.
8F\	.	.	8A/J	.	8cc 8f/	.	(16ff\	.	8F\	Chri-	.	.	.	.	.	.	.	.	.	.	.	.	.	.	.	.	8F\	.	8F\	.	.	.	.	.	.	.
.	.	.	.	.	.	.	16ee-X\JJ)	.	.	.	.	.	.	.	.	.	.	.	.	.	.	.	.	.	.	.	.	.	.	.	.	.	.	.	.	.
!	!	!	!	!	!	!	!	!	!LO:LB:g=original	!	!	!	!	!	!	!	!	!	!	!	!	!	!	!	!	!	!	!	!	!	!	!	!	!	!	!
=30	=30	=30	=30	=30	=30	=30	=30	=30	=30	=30	=30	=30	=30	=30	=30	=30	=30	=30	=30	=30	=30	=30	=30	=30	=30	=30	=30	=30	=30	=30	=30	=30	=30	=30	=30	=30
!	!	!LO:DY:rj	!	!	!	!LO:DY:rj	!	!LO:DY:rj	!	!	!	!	!	!	!	!	!	!	!	!	!	!	!	!	!	!	!	!	!	!	!	!	!	!	!	!
4B-\	3	p	4B-/	p	4dd 4f/	p	(8dd\L	p	8B-\	-ste	.	8B-\	-son	.	8f\	-son	.	8dd\	-son	.	8BB-/	.	8B-/	.	8b-\	.	8B-\	.	8B-\	.	8b-\	.	8dd\	.	8bb-\	.
!	!	!	!	!	!	!	!	!	!	!	!	!	!	!	!	!	!	!	!	!LO:DY:rj	!	!	!	!	!	!	!	!	!	!	!	!	!	!	!	!
.	.	.	.	.	.	.	8ee-\	.	8r	.	.	8r	.	.	8r	.	.	(8ee-\L	e-	p	8r	.	8r	.	8r	.	8r	.	8r	.	8r	.	8r	.	8r	.
8r	.	.	8r	.	8r	.	8ff\J)	.	8r	.	.	8r	.	.	8r	.	.	8ff\J)	.	.	8r	.	8r	.	8r	.	8r	.	8r	.	8r	.	8r	.	8r	.
!	!	!	!	!	!	!	!	!	!	!	!LO:DY:rj	!	!	!LO:DY:rj	!	!	!	!	!	!	!	!	!	!	!	!	!	!	!	!	!	!	!	!	!	!
(8BB-/L	6	.	(8d\L	.	4.f 4.B-^>/	.	4.a-X^/	.	(8BB-^>/L	e-	p	(8D/L	Ky-	p	4.f^\	lei-	.	4.a-X^\	-lei-	.	4r	.	4r	.	4r	.	4r	.	4r	.	4r	.	4r	.	4r	.
8C/	7_	.	8e-\	.	.	.	.	.	8C/J)	.	.	8E-/J)	.	.	.	.	.	.	.	.	.	.	.	.	.	.	.	.	.	.	.	.	.	.	.	.
8D/J)	.	.	8f\J)	.	.	.	.	.	8D/	-lei-	.	8F/	-ri-	.	.	.	.	.	.	.	8r	.	8r	.	8r	.	8r	.	8r	.	8r	.	8r	.	8r	.
!	!	!	!	!	!	!	!	!	!	!	!	!	!	!	!	!	!	!	!	!	!	!	!	!	!	!	!	!	!LO:LB:g=original	!	!	!	!	!	!	!
=31	=31	=31	=31	=31	=31	=31	=31	=31	=31	=31	=31	=31	=31	=31	=31	=31	=31	=31	=31	=31	=31	=31	=31	=31	=31	=31	=31	=31	=31	=31	=31	=31	=31	=31	=31	=31
!	!	!	!	!	!	!	!LO:TX:t=P:problem=mixed beam	!	!	!	!	!	!	!	!	!	!	!	!	!	!LO:TX:a:t=3.	!	!LO:TX:a:t=3.	!	!LO:TX:a:t=3.	!	!LO:TX:a:t=1.	!	!	!LO:DY:rj	!LO:TX:a:t=3.	!	!LO:TX:a:t=3.	!	!LO:TX:a:t=3.	!
8E-\L	3	.	8e-\	.	8B-/	.	8g/L|	.	8E-\	-son	.	8E-/	-e	.	8B-/	-son	.	8g\	-son	.	1.r	.	1.r	.	1.r	.	2.r	.	8r	p	1.r	.	1.r	.	1.r	.
*clefC4	*	*	*	*	*	*	*	*	*	*	*	*	*	*	*	*	*	*	*	*	*	*	*	*	*	*	*	*	*	*	*	*	*	*	*	*
!LO:TX:b:i:t=Violoncello	!	!	!	!	!	!	!	!	!	!	!	!	!	!	!	!	!	!	!	!	!	!	!	!	!	!	!	!	!	!	!	!	!	!	!	!
(8e-\	10	.	8r	.	8r	.	(8gg\	.	8r	.	.	8e-\	Ky-	.	8r	.	.	8gg\	Ky-	.	.	.	.	.	.	.	.	.	(8e-\L	.	.	.	.	.	.	.
8f\J)	8	.	8r	.	8g/	.	8ff\J)	.	8r	.	.	8f\	-ri-	.	8g\	e-	.	8ff\	-ri-	.	.	.	.	.	.	.	.	.	8f\J)	.	.	.	.	.	.	.
8g'\L	6	.	4r	.	(4cc\	.	8ee-\L|	.	4r	.	.	4g\	-e	.	4cc\	-lei-	.	4ee-\	-e	.	.	.	.	.	.	.	.	.	8a'\L	.	.	.	.	.	.	.
(8g\	6	.	.	.	.	.	(8ee-\	.	.	.	.	.	.	.	.	.	.	.	.	.	.	.	.	.	.	.	.	.	(8g\	.	.	.	.	.	.	.
8f\J)	6	.	8r	.	8bn\)	.	8dd\J)	.	8r	.	.	8f\	e-	.	8bn\	.	.	8dd\	e-	.	.	.	.	.	.	.	.	.	8f\J)	.	.	.	.	.	.	.
!	!	!	!	!	!	!	!	!	!	!	!	!LO:LB:g=original	!	!	!	!	!	!LO:LB:g=original	!	!	!	!	!	!	!	!	!	!	!	!	!	!	!	!	!	!
=32	=32	=32	=32	=32	=32	=32	=32	=32	=32	=32	=32	=32	=32	=32	=32	=32	=32	=32	=32	=32	=32	=32	=32	=32	=32	=32	=32	=32	=32	=32	=32	=32	=32	=32	=32	=32
8e-'\L	6	.	4r	.	8g/L|	.	8cc\L|	.	4r	.	.	4e-\	-le-	.	4g\	-son	.	4cc\	-le-	.	.	.	.	.	.	.	4r	.	8e-'\L	.	.	.	.	.	.	.
(8e-\	6	.	.	.	(8g/	.	(8cc\	.	.	.	.	.	.	.	.	.	.	.	.	.	.	.	.	.	.	.	.	.	(8e-\	.	.	.	.	.	.	.
8d\J)	6	.	8r	.	8a-X/J)	.	8bn\J)	.	8r	.	.	8d\	-i-	.	8a-X\	e-	.	8bn\	-i-	.	.	.	.	.	.	.	8r	.	8d\J)	.	.	.	.	.	.	.
4e-\	6	.	4r	.	4.g^/	.	(8cc\L	.	4r	.	.	4e-\	-son	.	4.g\	-le-	.	8cc\L	-son	.	.	.	.	.	.	.	4r	.	4e-\	.	.	.	.	.	.	.
.	.	.	.	.	.	.	8ee-\	.	.	.	.	.	.	.	.	.	.	8ee-\J	.	.	.	.	.	.	.	.	.	.	.	.	.	.	.	.	.	.
*clefF4	*	*	*	*	*	*	*	*	*	*	*	*	*	*	*	*	*	*	*	*	*	*	*	*	*	*	*	*	*	*	*	*	*	*	*	*
!LO:TX:b:i:t=Bassi cres&colon;	!	!	!	!	!	!	!	!	!	!	!	!	!	!	!	!	!	!	!	!	!	!	!	!	!	!	!	!LO:DY:rj	!	!	!	!	!	!	!	!
8E-\	3	.	8e-\	.	.	.	8gg\J)	.	8E-\	e-	.	8e-\	e-	.	.	.	.	8gg\	e-	.	.	.	.	.	.	.	8E-\	p	8E-\	.	.	.	.	.	.	.
=33	=33	=33	=33	=33	=33	=33	=33	=33	=33	=33	=33	=33	=33	=33	=33	=33	=33	=33	=33	=33	=33	=33	=33	=33	=33	=33	=33	=33	=33	=33	=33	=33	=33	=33	=33	=33
*	*	*^	*	*	*	*	*	*	*	*	*	*	*	*	*	*	*	*	*	*	*	*	*	*	*	*	*	*	*	*	*	*	*	*	*	*
*	*	*	*	*tremolo	*	*	*	*	*	*	*	*	*	*	*	*	*	*	*	*	*	*	*	*	*	*	*	*	*	*	*	*	*	*	*	*	*
!	!	!	!	!LO:TX:t=...	!	!	!	!	!	!	!	!LO:HP:a	!	!	!	!	!	!	!	!	!	!	!	!	!	!	!	!	!	!	!LO:HP:a	!	!	!	!	!	!
4.F\	4_	.	.	8f'\L	.	(4.e-/	.	4.b-X\	.	2.F\	-lei-	<[	(4.d\	-le-	.	4.f\	.	.	([4.b-\	-le-	<	2.r	.	2.r	.	2.r	.	4.F\	.	4.F\	<	2.r	.	2.r	.	2.r	.
.	.	.	.	8f'\	.	.	.	.	.	.	.	.	.	.	.	.	.	.	.	.	.	.	.	.	.	.	.	.	.	.	.	.	.	.	.	.	.
!	!	!	!	!	!LO:HP:t=cres&colon;	!	!	!	!	!	!	!	!	!	!	!	!	!	!	!	!	!	!	!	!	!	!	!	!	!	!	!	!	!	!	!	!
.	.	.	.	8f'\J	<	.	.	.	.	.	.	.	.	.	.	.	.	.	.	.	.	.	.	.	.	.	.	.	.	.	.	.	.	.	.	.	.
*	*	*	*	*Xtremolo	*	*	*	*	*	*	*	*	*	*	*	*	*	*	*	*	*	*	*	*	*	*	*	*	*	*	*	*	*	*	*	*	*
!LO:TX:t=P:problem=mixed beam	!	!LO:HP:a	!LO:HP:t=cres&colon;	!	!	!	!LO:HP:a	!	!	!	!	!	!	!	!	!	!	!	!	!	!	!	!	!	!	!	!	!LO:TX:t=P:problem=mixed beam	!LO:HP:a	!LO:TX:t=P:problem=mixed beam	!	!	!	!	!	!	!
8FF/L	.	<	<	4.f^\	.	8f/L)	<	(8b-\L	<	.	.	.	8d\L	.	.	(4f\	-i-	.	8b-\L]	-i-	.	.	.	.	.	.	.	8FF/L	<	8FF/L	.	.	.	.	.	.	.
8F\	.	.	.	.	.	(8f/	.	8dd\	.	.	.	.	8f\J)	.	.	.	.	.	8dd\	.	.	.	.	.	.	.	.	8F\	.	8F\	.	.	.	.	.	.	.
8F\J	3	[[	.	.	.	8e-X/J)	[[	8cc\J)	[[	.	.	.	8e-\	-i-	.	8an\)	.	.	8cc\J)	.	[[	.	.	.	.	.	.	8F\J	[[	8F\J	[[	.	.	.	.	.	.
*	*	*v	*v	*	*	*	*	*	*	*	*	*	*	*	*	*	*	*	*	*	*	*	*	*	*	*	*	*	*	*	*	*	*	*	*	*	*
!LO:LB:g=original	!	!	!LO:LB:g=original	!	!	!	!	!	!	!	!	!	!	!	!	!	!	!	!	!	!	!	!	!	!	!	!LO:LB:g=original	!	!	!	!LO:LB:g=original	!	!	!	!	!
=34	=34	=34	=34	=34	=34	=34	=34	=34	=34	=34	=34	=34	=34	=34	=34	=34	=34	=34	=34	=34	=34	=34	=34	=34	=34	=34	=34	=34	=34	=34	=34	=34	=34	=34	=34	=34
!	!	!LO:DY:rj	!	!LO:DY:rj:t=f.	!	!LO:DY:rj	!	!LO:DY:rj:t=f.	!	!	!LO:DY:rj	!	!	!LO:DY:rj:t=f.	!	!	!	!	!	!LO:DY:rj:t=f.	!	!	!	!	!	!LO:DY:rj:t=f.	!	!LO:DY:rj	!	!LO:DY:rj:t=f.	!	!	!	!LO:DY:rj:t=f.	!	!
8B-\	3_	f	8d 8B-/	f	16d/LL|	f	16b-\LL	f	8BB-/	-son	f	8d\	-son,	f	8b-\	-son,	.	8dd\	-son	f	8BB-/	.	8F/	.	8f/	f	8B-\	f	8B-\	f	8b-\	.	8dd\	f	8ddd\	.
.	.	.	.	.	(16f/	.	(16ff\	.	.	.	.	.	.	.	.	.	.	.	.	.	.	.	.	.	.	.	.	.	.	.	.	.	.	.	.	.
8r	.	.	8r	.	16en/	.	16een\	.	8r	.	.	8r	.	.	8r	.	.	8r	.	.	8r	.	8r	.	8r	.	8r	.	8r	.	8r	.	8r	.	8r	.
.	.	.	.	.	16f/	.	16ff\	.	.	.	.	.	.	.	.	.	.	.	.	.	.	.	.	.	.	.	.	.	.	.	.	.	.	.	.	.
!	!	!	!	!	!	!	!	!	!	!	!	!	!	!	!	!	!LO:DY:rj	!	!	!	!	!	!	!	!	!	!	!	!	!	!	!	!	!	!	!
8F\	6_	.	8d 8B-/	.	16g/	.	16gg\	.	8B-\	Chri-	.	8B-\	Chri-	.	8f\	Chri-	f	8dd\	Chri-	.	8FF/	.	8F/	.	8f/	.	8F\	.	8F\	.	8b-\	.	8dd\	.	8fff\	.
.	.	.	.	.	16f/JJ)	.	16ff\JJ)	.	.	.	.	.	.	.	.	.	.	.	.	.	.	.	.	.	.	.	.	.	.	.	.	.	.	.	.	.
8c\	.	.	8e- 8c/	.	16r	.	16a\LL	.	8c\	-ste,	.	8A\	-ste,	.	8f\	-ste,	.	8ee-\	-ste,	.	8FF/	.	8F/	.	8f/	.	8c\	.	8c\	.	8cc\	.	8ee-\	.	8aa\	.
.	.	.	.	.	(16f/LL	.	(16ff\	.	.	.	.	.	.	.	.	.	.	.	.	.	.	.	.	.	.	.	.	.	.	.	.	.	.	.	.	.
8r	.	.	8r	.	16e/	.	16een\	.	8r	.	.	8r	.	.	8r	.	.	8r	.	.	8r	.	8r	.	8r	.	8r	.	8r	.	8r	.	8r	.	8r	.
.	.	.	.	.	16f/	.	16ff\	.	.	.	.	.	.	.	.	.	.	.	.	.	.	.	.	.	.	.	.	.	.	.	.	.	.	.	.	.
8F\	.	.	8e- 8c/	.	16g/	.	16gg\	.	8F\	Chri-	.	8c\	Chri-	.	8f\	Chri-	.	8ee-\	Chri-	.	8FF/	.	8F/	.	8f/	.	8F\	.	8F\	.	8cc\	.	8ee-\	.	8fff\	.
.	.	.	.	.	16f/JJ)	.	16ff\JJ)	.	.	.	.	.	.	.	.	.	.	.	.	.	.	.	.	.	.	.	.	.	.	.	.	.	.	.	.	.
!	!	!	!	!	!LO:LB:g=original	!	!LO:LB:g=original	!	!	!	!	!	!	!	!LO:LB:g=original	!	!	!	!	!	!	!	!LO:LB:g=original	!	!	!	!	!	!	!	!	!	!	!	!	!
=35	=35	=35	=35	=35	=35	=35	=35	=35	=35	=35	=35	=35	=35	=35	=35	=35	=35	=35	=35	=35	=35	=35	=35	=35	=35	=35	=35	=35	=35	=35	=35	=35	=35	=35	=35	=35
8d\	6_	.	8f 8d/	.	16r	.	16b-\LL|	.	8d\	-ste,	.	8B-\	-ste,	.	8f\	-ste,	.	8ff\	-ste,	.	8BB-/	.	8F/	.	8f/	.	8d\	.	8d\	.	8dd\	.	8ff\	.	8bb-\	.
.	.	.	.	.	(16f/LL	.	(16ff\	.	.	.	.	.	.	.	.	.	.	.	.	.	.	.	.	.	.	.	.	.	.	.	.	.	.	.	.	.
8r	.	.	8r	.	16en/	.	16een\	.	8r	.	.	8r	.	.	8r	.	.	8r	.	.	8r	.	8r	.	8r	.	8r	.	8r	.	8r	.	8r	.	8r	.
.	.	.	.	.	16f/	.	16ff\	.	.	.	.	.	.	.	.	.	.	.	.	.	.	.	.	.	.	.	.	.	.	.	.	.	.	.	.	.
8F\	.	.	8f 8d/	.	16b-'/	.	16ddd'\	.	8F\	e-	.	8d\	e-	.	8f\	e-	.	8ff\	e-	.	8FF/	.	8F/	.	8f/	.	8F\	.	8F\	.	8dd\	.	8ff\	.	8fff\	.
.	.	.	.	.	16dd'/JJ)	.	16bb-'\JJ)	.	.	.	.	.	.	.	.	.	.	.	.	.	.	.	.	.	.	.	.	.	.	.	.	.	.	.	.	.
8c\	3_	.	8e-L 8c/	.	4ee-X 4f^>/	.	(16bb-\LL	.	8c\	-le-	.	4.c\	-lei-	.	4.a\	-lei-	.	4.ee-\	-lei-	.	4.FFT/	.	4.F/	.	4.f/	.	8c\	.	8c\	.	4.cc\	.	4.ee-\	.	4.aa\	.
.	.	.	.	.	.	.	16aa\)	.	.	.	.	.	.	.	.	.	.	.	.	.	.	.	.	.	.	.	.	.	.	.	.	.	.	.	.	.
8r	.	.	8e- 8c/	.	.	.	(16aa\	.	8r	.	.	.	.	.	.	.	.	.	.	.	.	.	.	.	.	.	8r	.	8r	.	.	.	.	.	.	.
.	.	.	.	.	.	.	16gg\)	.	.	.	.	.	.	.	.	.	.	.	.	.	.	.	.	.	.	.	.	.	.	.	.	.	.	.	.	.
8F\	.	.	8A/J	.	8cc 8f/	.	16ff'\	.	8F\	-i-	.	.	.	.	.	.	.	.	.	.	.	.	.	.	.	.	8F\	.	8F\	.	.	.	.	.	.	.
.	.	.	.	.	.	.	16ee-X'\JJ	.	.	.	.	.	.	.	.	.	.	.	.	.	.	.	.	.	.	.	.	.	.	.	.	.	.	.	.	.
!	!	!	!	!	!	!	!	!	!LO:LB:g=original	!	!	!	!	!	!	!	!	!	!	!	!LO:LB:g=original	!	!	!	!	!	!	!	!	!	!	!	!	!	!	!
=36	=36	=36	=36	=36	=36	=36	=36	=36	=36	=36	=36	=36	=36	=36	=36	=36	=36	=36	=36	=36	=36	=36	=36	=36	=36	=36	=36	=36	=36	=36	=36	=36	=36	=36	=36	=36
!	!	!	!LO:TX:t=P:problem=tt. 36-37 zapisane repetycją, wzięte w łuk, z adnotacją "bis"	!LO:DY:rj:t=f.	!	!	!	!	!	!	!	!	!	!	!	!	!	!	!	!	!	!	!	!	!	!	!	!	!	!	!	!	!	!	!LO:TX:t=P:problem=tt. 36-37 zapisane repetycją, wzięte w łuk, z adnotacją "bis"	!
8B-\	3_	.	8dyy 8B-/yy	fy	16dd/LL|	.	16dd'\LL	.	8BB-/	-son,	.	8B-\	-son,	.	8b-\	-son	.	8dd\	-son,	.	8BB-/	.	8F/	.	8f/	.	8B-\	.	8B-\	.	8b-\	.	8dd\	.	8ddd\yy	.
.	.	.	.	.	(16f/	.	(16ff\	.	.	.	.	.	.	.	.	.	.	.	.	.	.	.	.	.	.	.	.	.	.	.	.	.	.	.	.	.
8r	.	.	8ryy	.	16en/	.	16een\	.	8r	.	.	8r	.	.	8r	.	.	8r	.	.	8r	.	8r	.	8r	.	8r	.	8r	.	8r	.	8r	.	8ryy	.
.	.	.	.	.	16f/	.	16ff\	.	.	.	.	.	.	.	.	.	.	.	.	.	.	.	.	.	.	.	.	.	.	.	.	.	.	.	.	.
8F\	.	.	8dyy 8B-/yy	.	16g/	.	16gg\	.	8B-\	Chri-	.	8B-\	Chri-	.	8f\	Chri-	.	8dd\	Chri-	.	8FF/	.	8F/	.	8f/	.	8F\	.	8F\	.	8b-\	.	8dd\	.	8fff\yy	.
.	.	.	.	.	16f/JJ)	.	16ff\JJ)	.	.	.	.	.	.	.	.	.	.	.	.	.	.	.	.	.	.	.	.	.	.	.	.	.	.	.	.	.
8c\	6_	.	8e-yy 8c/yy	.	16r	.	16a\LL	.	8c\	-ste	.	8A\	-ste,	.	8f\	-ste,	.	8ee-\	-ste,	.	8FF/	.	8F/	.	8f/	.	8c\	.	8c\	.	8cc\	.	8ee-\	.	8aa\yy	.
.	.	.	.	.	(16f/LL	.	(16ff\	.	.	.	.	.	.	.	.	.	.	.	.	.	.	.	.	.	.	.	.	.	.	.	.	.	.	.	.	.
8r	.	.	8ryy	.	16e/	.	16een\	.	8r	.	.	8r	.	.	8r	.	.	8r	.	.	8r	.	8r	.	8r	.	8r	.	8r	.	8r	.	8r	.	8ryy	.
.	.	.	.	.	16f/	.	16ff\	.	.	.	.	.	.	.	.	.	.	.	.	.	.	.	.	.	.	.	.	.	.	.	.	.	.	.	.	.
8F\	.	.	8e-yy 8c/yy	.	16g/	.	16gg\	.	8F\	Chri-	.	8c\	Chri-	.	8f\	Chri-	.	8ee-\	Chri-	.	8FF/	.	8F/	.	8f/	.	8F\	.	8F\	.	8cc\	.	8ee-\	.	8fff\yy	.
.	.	.	.	.	16f/JJ)	.	16ff\JJ)	.	.	.	.	.	.	.	.	.	.	.	.	.	.	.	.	.	.	.	.	.	.	.	.	.	.	.	.	.
!	!	!	!	!	!	!	!	!	!	!	!	!	!	!	!	!	!	!	!	!	!	!	!	!	!LO:LB:g=original	!	!	!	!	!	!	!	!LO:LB:g=original	!	!	!
=37	=37	=37	=37	=37	=37	=37	=37	=37	=37	=37	=37	=37	=37	=37	=37	=37	=37	=37	=37	=37	=37	=37	=37	=37	=37	=37	=37	=37	=37	=37	=37	=37	=37	=37	=37	=37
8d\	6_	.	8fyy 8d/yy	.	16r	.	16b-'\LL	.	8d\	-ste	.	8B-\	-ste,	.	8f\	-ste,	.	8ff\	-ste,	.	8BB-/	.	8F/	.	8f/	.	8d\	.	8d\	.	8dd\	.	8ff\	.	8bb-\yy	.
.	.	.	.	.	(16f/LL	.	(16ff\	.	.	.	.	.	.	.	.	.	.	.	.	.	.	.	.	.	.	.	.	.	.	.	.	.	.	.	.	.
8r	.	.	8ryy	.	16en/	.	16een\	.	8r	.	.	8r	.	.	8r	.	.	8r	.	.	8r	.	8r	.	8r	.	8r	.	8r	.	8r	.	8r	.	8ryy	.
.	.	.	.	.	16f/)	.	16ff\	.	.	.	.	.	.	.	.	.	.	.	.	.	.	.	.	.	.	.	.	.	.	.	.	.	.	.	.	.
8F\	.	.	8fyy 8d/yy	.	16b-'/	.	16ddd'\	.	8F\	e-	.	8d\	e-	.	8f\	e-	.	8ff\	e-	.	8FF/	.	8F/	.	8f/	.	8F\	.	8F\	.	8dd\	.	8ff\	.	8fff\yy	.
.	.	.	.	.	16dd'/JJ	.	16bb-'\JJ)	.	.	.	.	.	.	.	.	.	.	.	.	.	.	.	.	.	.	.	.	.	.	.	.	.	.	.	.	.
8c\	3_	.	8e-Lyy 8c/yy	.	4ee-X 4f^>/	.	(16bb-\LL	.	8c\	-le-	.	4.c\	-lei-	.	4.a\	-lei-	.	4.ee-\	-lei-	.	4.FFT/	.	4.F/	.	4.f/	.	8c\	.	8c\	.	4.cc\	.	4.ee-\	.	4.aa\yy	.
.	.	.	.	.	.	.	16aa\)	.	.	.	.	.	.	.	.	.	.	.	.	.	.	.	.	.	.	.	.	.	.	.	.	.	.	.	.	.
8r	.	.	8e-yy 8c/yy	.	.	.	(16aa\	.	8r	.	.	.	.	.	.	.	.	.	.	.	.	.	.	.	.	.	8r	.	8r	.	.	.	.	.	.	.
.	.	.	.	.	.	.	16gg\)	.	.	.	.	.	.	.	.	.	.	.	.	.	.	.	.	.	.	.	.	.	.	.	.	.	.	.	.	.
8F\	.	.	8A/Jyy	.	8cc 8f/	.	16ff'\	.	8F\	-i-	.	.	.	.	.	.	.	.	.	.	.	.	.	.	.	.	8F\	.	8F\	.	.	.	.	.	.	.
.	.	.	.	.	.	.	16ee-X'\JJ	.	.	.	.	.	.	.	.	.	.	.	.	.	.	.	.	.	.	.	.	.	.	.	.	.	.	.	.	.
!	!	!	!	!	!	!	!LO:LB:g=original	!	!	!	!	!LO:LB:g=original	!	!	!	!	!	!LO:LB:g=original	!	!	!	!	!	!	!	!	!	!	!LO:LB:g=original	!	!	!	!	!	!	!
=38	=38	=38	=38	=38	=38	=38	=38	=38	=38	=38	=38	=38	=38	=38	=38	=38	=38	=38	=38	=38	=38	=38	=38	=38	=38	=38	=38	=38	=38	=38	=38	=38	=38	=38	=38	=38
*	*	*	*tremolo	*	*	*	*	*	*	*	*	*	*	*	*	*	*	*	*	*	*tremolo	*	*tremolo	*	*tremolo	*	*	*	*	*	*	*	*	*	*tremolo	*
!LO:TX:t=P:problem=mixed beam	!	!	!LO:TX:b:t=...	!	!	!	!	!	!	!	!	!	!	!	!	!	!	!	!	!	!LO:TX:t=...	!	!	!	!	!	!LO:TX:t=P:problem=mixed beam	!	!LO:TX:t=P:problem=mixed beam	!	!	!	!	!	!LO:TX:t=...	!
8BB-/L	3	.	8B-'/L	.	8b-L 8f/	.	8dd'\L	.	8B-\	-son	.	8B-\	-son,	.	8b-\	-son,	.	8dd\	-son,	.	8BB-'/L	.	8B-/L	.	8b-\L	.	8BB-/L	.	8BB-/L	.	8b-\L	.	8dd\L	.	8bb-'\L	.
8B-\	.	.	8B-'/	.	8b-/	.	8bb-'\	.	8r	.	.	8r	.	.	8r	.	.	8r	.	.	8BB-'/	.	8B-/	.	8b-\	.	8B-\	.	8B-\	.	8dd\	.	8bb-\	.	8bb-'\	.
8B-\J	.	.	8B-'/J	.	8b-/J	.	8bb-'\J	.	8B-\	e-	.	8d\	e-	.	8b-\	e-	.	8b-\	e-	.	8BB-'/J	.	8B-/J	.	8b-\J	.	8B-\J	.	8B-\J	.	8dd\J	.	8bb-\J	.	8bb-'\J	.
*	*	*	*Xtremolo	*	*	*	*	*	*	*	*	*	*	*	*	*	*	*	*	*	*	*	*Xtremolo	*	*Xtremolo	*	*	*	*	*	*	*	*	*	*Xtremolo	*
4.D\	6	.	(8f\L	.	(8dd\L	.	16bb-'\LL	.	4.D\	-lei-	.	(8f\L	-le-	.	4.b-\	-lei-	.	4.aa-X\	-lei-	.	8BB-T/L	.	[4.B-/	.	[4.b-\	.	4.D\	.	4.D\	.	4.ff\	.	4.aa-X\	.	4.aaa-X\	.
.	6 5	.	.	.	.	.	(16aa-X\	.	.	.	.	.	.	.	.	.	.	.	.	.	.	.	.	.	.	.	.	.	.	.	.	.	.	.	.	.
.	.	.	8e-\	.	8ee-\	.	16gg\	.	.	.	.	8e-\J)	.	.	.	.	.	.	.	.	8BB-T/	.	.	.	.	.	.	.	.	.	.	.	.	.	.	.
.	.	.	.	.	.	.	16aa-\	.	.	.	.	.	.	.	.	.	.	.	.	.	.	.	.	.	.	.	.	.	.	.	.	.	.	.	.	.
.	.	.	8d\J)	.	8ff\J)	.	16bb-\	.	.	.	.	8d\	-i-	.	.	.	.	.	.	.	8BB-T/J	.	.	.	.	.	.	.	.	.	.	.	.	.	.	.
.	.	.	.	.	.	.	16aa-\JJ)	.	.	.	.	.	.	.	.	.	.	.	.	.	.	.	.	.	.	.	.	.	.	.	.	.	.	.	.	.
*	*	*	*	*	*	*	*	*	*	*	*	*	*	*	*	*	*	*	*	*	*Xtremolo	*	*	*	*	*	*	*	*	*	*	*	*	*	*	*
=39	=39	=39	=39	=39	=39	=39	=39	=39	=39	=39	=39	=39	=39	=39	=39	=39	=39	=39	=39	=39	=39	=39	=39	=39	=39	=39	=39	=39	=39	=39	=39	=39	=39	=39	=39	=39
*	*	*	*tremolo	*	*	*	*	*	*	*	*	*	*	*	*	*	*	*	*	*	*	*	*	*	*	*	*tremolo	*	*tremolo	*	*	*	*	*	*	*
8E-\L	3	.	8e-\L	.	(8ee-\L	.	(16aa-X\LL	.	8E-\	-son,	.	8e-\	-son	.	8b-\	-son,	.	8gg\	-son,	.	4.BB-/	.	4.B-/]	.	4b-\]	.	8E-\L	.	8E-\L	.	4.ee-\	.	4.gg\	.	4.ggg\	.
.	.	.	.	.	.	.	16gg\	.	.	.	.	.	.	.	.	.	.	.	.	.	.	.	.	.	.	.	.	.	.	.	.	.	.	.	.	.
8E-\	.	.	8e-\	.	8cc\)	.	16ff#X\	.	8r	.	.	8r	.	.	8r	.	.	8r	.	.	.	.	.	.	.	.	8E-\	.	8E-\	.	.	.	.	.	.	.
.	.	.	.	.	.	.	16gg\	.	.	.	.	.	.	.	.	.	.	.	.	.	.	.	.	.	.	.	.	.	.	.	.	.	.	.	.	.
8E-\J	.	.	8e-\J	.	8cc'\J	.	16aa-\	.	8E-\	e-	.	8e-\	e-	.	8b-\	e-	.	8gg\	e-	.	.	.	.	.	8r	.	8E-\J	.	8E-\J	.	.	.	.	.	.	.
.	.	.	.	.	.	.	16gg\JJ)	.	.	.	.	.	.	.	.	.	.	.	.	.	.	.	.	.	.	.	.	.	.	.	.	.	.	.	.	.
*	*	*	*Xtremolo	*	*	*	*	*	*	*	*	*	*	*	*	*	*	*	*	*	*	*	*	*	*	*	*Xtremolo	*	*Xtremolo	*	*	*	*	*	*	*
4.BBn/	6 5	.	(8d\L	.	(8bn\L	.	(16gg\LL	.	4.BBn/	-lei-	.	(8d\L	-le-	.	4.g\	-lei-	.	4.ff\	-lei-	.	4r	.	4r	.	4r	.	4.BBn/	.	4.BBn/	.	4.dd\	.	4.ff\	.	4.fff\	.
.	.	.	.	.	.	.	16ffn\	.	.	.	.	.	.	.	.	.	.	.	.	.	.	.	.	.	.	.	.	.	.	.	.	.	.	.	.	.
.	.	.	8c\	.	8cc\	.	16een\	.	.	.	.	8c\J)	.	.	.	.	.	.	.	.	.	.	.	.	.	.	.	.	.	.	.	.	.	.	.	.
.	.	.	.	.	.	.	16ff\	.	.	.	.	.	.	.	.	.	.	.	.	.	.	.	.	.	.	.	.	.	.	.	.	.	.	.	.	.
.	.	.	8Bn\J)	.	8dd\J)	.	16gg\	.	.	.	.	8Bn\	-i-	.	.	.	.	.	.	.	8r	.	8r	.	8r	.	.	.	.	.	.	.	.	.	.	.
.	.	.	.	.	.	.	16ff\JJ)	.	.	.	.	.	.	.	.	.	.	.	.	.	.	.	.	.	.	.	.	.	.	.	.	.	.	.	.	.
!	!	!	!	!	!LO:LB:g=original	!	!	!	!	!	!	!	!	!	!	!	!	!	!	!	!	!	!	!	!	!	!	!	!	!	!	!	!	!	!	!
=40	=40	=40	=40	=40	=40	=40	=40	=40	=40	=40	=40	=40	=40	=40	=40	=40	=40	=40	=40	=40	=40	=40	=40	=40	=40	=40	=40	=40	=40	=40	=40	=40	=40	=40	=40	=40
*	*	*	*tremolo	*	*	*	*	*	*	*	*	*	*	*	*	*	*	*	*	*	*	*	*	*	*	*	*tremolo	*	*tremolo	*	*	*	*	*	*	*
8C/L	3	.	8c\L	.	(8cc\L	.	(16ff\LL	.	8C/	-son,	.	8c\	-son	.	8g\	-son,	.	8ee-\	-son,	.	4r	.	4r	.	4r	.	8C/L	.	8C/L	.	4.cc\	.	4.ee-\	.	4.eee-X\	.
.	.	.	.	.	.	.	16ee-X\	.	.	.	.	.	.	.	.	.	.	.	.	.	.	.	.	.	.	.	.	.	.	.	.	.	.	.	.	.
8C/	.	.	8c\	.	8g\)	.	16dd\	.	8r	.	.	8r	.	.	8r	.	.	8r	.	.	.	.	.	.	.	.	8C/	.	8C/	.	.	.	.	.	.	.
.	.	.	.	.	.	.	16ee-\	.	.	.	.	.	.	.	.	.	.	.	.	.	.	.	.	.	.	.	.	.	.	.	.	.	.	.	.	.
8C/J	.	.	8c\J	.	8g'\J	.	16ff\	.	8C/	e-	.	8c\	e-	.	8g\	e-	.	8ee-\	e-	.	8r	.	8r	.	8r	.	8C/J	.	8C/J	.	.	.	.	.	.	.
.	.	.	.	.	.	.	16ee-\JJ)	.	.	.	.	.	.	.	.	.	.	.	.	.	.	.	.	.	.	.	.	.	.	.	.	.	.	.	.	.
*	*	*	*Xtremolo	*	*	*	*	*	*	*	*	*	*	*	*	*	*	*	*	*	*	*	*	*	*	*	*	*	*Xtremolo	*	*	*	*	*	*	*
!	!	!	!	!	!	!	!	!	!	!	!LO:HP:a:t=diminuendo	!	!	!	!	!	!	!	!	!	!	!	!	!	!	!	!	!	!	!	!	!LO:HP:t=diminuendo	!	!LO:HP:t=diminuendo	!	!
4.AAn/	6 5	.	(8c\L	.	(8a\L	.	(16ff\LL	.	4.AA/	-le-	>	(8c\L	-le-	.	4.f\	-lei-	.	4.ee-\	-lei-	.	4.FFT/	.	4.F/	.	4.f/	.	8AAn/L	.	4.AAn/	.	4.cc\	>	4.ee-\	>	4.eee-\	.
.	.	.	.	.	.	.	16ee-\	.	.	.	.	.	.	.	.	.	.	.	.	.	.	.	.	.	.	.	.	.	.	.	.	.	.	.	.	.
.	.	.	8B-X\	.	8b-X\	.	16dd\	.	.	.	.	8B-X\J)	.	.	.	.	.	.	.	.	.	.	.	.	.	.	8AAn/	.	.	.	.	.	.	.	.	.
.	.	.	.	.	.	.	16ee-\	.	.	.	.	.	.	.	.	.	.	.	.	.	.	.	.	.	.	.	.	.	.	.	.	.	.	.	.	.
.	.	.	8A\J)	.	8cc\J)	.	16ff\	.	.	.	.	8A\	-i-	.	.	.	.	.	.	.	.	.	.	.	.	.	8AAn/J	.	.	.	.	.	.	.	.	.
.	.	.	.	.	.	.	16ee-\JJ)	.	.	.	.	.	.	.	.	.	.	.	.	.	.	.	.	.	.	.	.	.	.	.	.	.	.	.	.	.
*	*	*	*	*	*	*	*	*	*	*	*	*	*	*	*	*	*	*	*	*	*	*	*	*	*	*	*Xtremolo	*	*	*	*	*	*	*	*	*
!LO:LB:g=original	!	!	!	!	!	!	!LO:LB:g=original	!	!	!	!	!	!	!	!LO:LB:g=original	!	!	!	!	!	!	!	!	!	!	!	!	!	!	!	!	!	!	!	!LO:LB:g=original	!
=41	=41	=41	=41	=41	=41	=41	=41	=41	=41	=41	=41	=41	=41	=41	=41	=41	=41	=41	=41	=41	=41	=41	=41	=41	=41	=41	=41	=41	=41	=41	=41	=41	=41	=41	=41	=41
*	*	*	*	*	*tremolo	*	*	*	*	*	*	*	*	*	*	*	*	*	*	*	*	*	*	*	*	*	*	*	*	*	*	*	*	*	*	*
!	!	!LO:HP:t=diminuendo	!	!	!LO:TX:t=...	!	!	!	!	!	!	!	!	!	!	!	!LO:HP:t=diminuendo	!	!	!	!	!	!	!	!	!	!	!LO:HP:t=diminuendo	!	!	!	!	!	!	!	!LO:HP:t=diminuendo
4BB-X/	3	>	8B-\L	.	8b-'\L	.	(16ee-\LL	.	4.BB-X/	-e-	.	4.B-\	-son	.	4.f\	-son,	>	4.dd\	-son	.	4BB-/	.	4B-/	.	4b-\	.	4.BB-X/	>	4.BB-X/	.	4.b-\	.	4.dd\	.	4.ddd\	>
.	.	.	.	.	.	.	16dd\	.	.	.	.	.	.	.	.	.	.	.	.	.	.	.	.	.	.	.	.	.	.	.	.	.	.	.	.	.
!	!	!	!	!LO:HP:t=diminuendo	!	!	!	!	!	!	!	!	!	!	!	!	!	!	!	!	!	!	!	!	!	!	!	!	!	!	!	!	!	!	!	!
.	.	.	8f\	>	8b-'\	.	16cc#X\	.	.	.	.	.	.	.	.	.	.	.	.	.	.	.	.	.	.	.	.	.	.	.	.	.	.	.	.	.
.	.	.	.	.	.	.	16dd\	.	.	.	.	.	.	.	.	.	.	.	.	.	.	.	.	.	.	.	.	.	.	.	.	.	.	.	.	.
8r	.	.	8f\J	.	8b-'\J	.	16ff\	.	.	.	.	.	.	.	.	.	.	.	.	.	8r	.	8r	.	8r	.	.	.	.	.	.	.	.	.	.	.
.	.	.	.	.	.	.	16dd\JJ)	.	.	.	.	.	.	.	.	.	.	.	.	.	.	.	.	.	.	.	.	.	.	.	.	.	.	.	.	.
*	*	*	*	*	*Xtremolo	*	*	*	*	*	*	*	*	*	*	*	*	*	*	*	*	*	*	*	*	*	*	*	*	*	*	*	*	*	*	*
!	!	!	!	!	!	!	!	!	!	!	!	!	!	!	!	!	!	!	!	!	!	!	!	!	!	!	!	!	!	!LO:HP:t=dimin&colon;	!	!	!	!	!	!
4E-\	6 3	.	8r	.	8r	.	(16dd\LL	.	4.E-\	-e-	.	4.e-X\	e-	.	4.g\	e-	.	4.cc\	e-	.	4r	.	4r	.	4r	.	4.G\	.	4.e-X\	>	4.g/	.	4.cc\	.	4.ccc\	.
.	.	.	.	.	.	.	16ccn\	.	.	.	.	.	.	.	.	.	.	.	.	.	.	.	.	.	.	.	.	.	.	.	.	.	.	.	.	.
!	!	!	!	!	!	!LO:HP:t=diminuendo	!	!	!	!	!	!	!	!	!	!	!	!	!	!	!	!	!	!	!	!	!	!	!	!	!	!	!	!	!	!
.	.	.	8e-\L	.	8g/L	>	16bn\	.	.	.	.	.	.	.	.	.	.	.	.	.	.	.	.	.	.	.	.	.	.	.	.	.	.	.	.	.
.	.	.	.	.	.	.	16cc\	.	.	.	.	.	.	.	.	.	.	.	.	.	.	.	.	.	.	.	.	.	.	.	.	.	.	.	.	.
8r	.	.	8e-\J	.	8g'/J	.	16ee-\	.	.	.	.	.	.	.	.	.	.	.	.	.	8r	.	8r	.	8r	.	.	.	.	.	.	.	.	.	.	.
.	.	.	.	.	.	.	16cc\JJ)	.	.	.	.	.	.	.	.	.	.	.	.	.	.	.	.	.	.	.	.	.	.	.	.	.	.	.	.	.
!	!	!	!	!	!	!	!	!	!LO:LB:g=original	!	!	!	!	!	!	!	!	!	!	!	!	!	!	!	!	!	!	!	!	!	!	!	!	!	!	!
=42	=42	=42	=42	=42	=42	=42	=42	=42	=42	=42	=42	=42	=42	=42	=42	=42	=42	=42	=42	=42	=42	=42	=42	=42	=42	=42	=42	=42	=42	=42	=42	=42	=42	=42	=42	=42
!	!	!	!	!	!	!	!	!	!	!	!	!	!	!LO:HP:t=diminuendo	!	!	!	!	!	!	!LO:TX:a:t=30	!	!LO:TX:a:t=1.	!	!LO:TX:a:t=1.	!	!	!	!	!	!	!	!	!	!	!
4F\	4	.	8r	.	8r	.	(16cc\LL	.	2.F\	-i-	.	4.d\	-le-	>	4.f\	-le-	.	4.b-\	-le-	.	0.r	.	2.r	.	2.r	.	4.F\	.	4.d\	.	4.f/	.	4.b-\	.	4.bb-\	.
.	.	.	.	.	.	.	16b-X\	.	.	.	.	.	.	.	.	.	.	.	.	.	.	.	.	.	.	.	.	.	.	.	.	.	.	.	.	.
.	.	.	8d\L	.	8f/L	.	16a\	.	.	.	.	.	.	.	.	.	.	.	.	.	.	.	.	.	.	.	.	.	.	.	.	.	.	.	.	.
.	.	.	.	.	.	.	16b-\	.	.	.	.	.	.	.	.	.	.	.	.	.	.	.	.	.	.	.	.	.	.	.	.	.	.	.	.	.
8r	.	.	8d\J	.	8f/J	.	16dd\	.	.	.	.	.	.	.	.	.	.	.	.	.	.	.	.	.	.	.	.	.	.	.	.	.	.	.	.	.
.	.	.	.	.	.	.	16b-\JJ)	.	.	.	.	.	.	.	.	.	.	.	.	.	.	.	.	.	.	.	.	.	.	.	.	.	.	.	.	.
4FF/	3	.	8r	.	8r	.	(16b-/LL	.	.	.	.	4.c\	-i-	.	4.e-\	-i-	.	4.a\	-i-	.	.	.	.	.	.	.	4.E-\	.	4.c\	.	4.e-/	.	4.a\	.	4.aa\	.
.	.	.	.	.	.	.	16a/	.	.	.	.	.	.	.	.	.	.	.	.	.	.	.	.	.	.	.	.	.	.	.	.	.	.	.	.	.
.	.	.	8c\L	.	8e-/L	.	16g#X/	.	.	.	.	.	.	.	.	.	.	.	.	.	.	.	.	.	.	.	.	.	.	.	.	.	.	.	.	.
.	.	.	.	.	.	.	16a/	.	.	.	.	.	.	.	.	.	.	.	.	.	.	.	.	.	.	.	.	.	.	.	.	.	.	.	.	.
8r	.	.	8c\J	.	8e-/J	.	16cc/	.	.	.	.	.	.	.	.	.	.	.	.	.	.	.	.	.	.	.	.	.	.	.	.	.	.	.	.	.
.	.	.	.	.	.	.	16a/JJ)	.	.	.	.	.	.	.	.	.	.	.	.	.	.	.	.	.	.	.	.	.	.	.	.	.	.	.	.	.
!	!	!	!LO:LB:g=original	!	!	!	!	!	!	!	!	!	!	!	!	!	!	!	!	!	!	!	!	!	!	!	!LO:LB:g=original	!	!	!	!LO:LB:g=original	!	!	!	!	!
=43	=43	=43	=43	=43	=43	=43	=43	=43	=43	=43	=43	=43	=43	=43	=43	=43	=43	=43	=43	=43	=43	=43	=43	=43	=43	=43	=43	=43	=43	=43	=43	=43	=43	=43	=43	=43
*	*	*	*	*	*	*	*	*	*	*	*	*	*	*	*	*	*	*	*	*	*	*	*	*	*	*	*tremolo	*	*	*	*tremolo	*	*	*	*	*
!	!	!LO:DY:rj	!	!LO:DY:rj:t=f.	!	!LO:DY:rj:t=f.	!	!LO:DY:t=f.	!	!	!	!	!	!	!	!	!	!	!	!	!	!	!	!	!	!	!LO:TX:t=...	!	!	!LO:DY:rj	!LO:TX:b:t=...	!LO:DY:rj	!	!LO:DY:rj:t=f.	!	!LO:DY:rj
8BB-/L	8 3	f	8B-\L	f	8d/L	f	8b-/L	f	8BB-/	-son,	.	8B-\	-son	.	8d\	-son	.	8b-\	-son,	.	.	.	8r	.	8r	.	8D'\L	.	8B-\L	f	8d'/L	f	8b-\L	f	8bb-\L	f
!	!	!	!	!	!	!	!	!	!	!	!	!	!	!	!	!	!	!	!	!	!	!	!	!LO:DY:rj	!	!LO:DY:rj	!	!	!	!	!	!	!	!	!	!
8D/|	.	.	8d\	.	8f#X 8A/	.	8dd 8d'/	.	8r	.	.	8r	.	.	8r	.	.	8r	.	.	.	.	8d/L	f	8dd\L	f	8D'\	.	8d\	.	8d'/	.	8dd\	.	8ddd\	.
!	!	!	!	!	!	!	!	!	!	!	!LO:DY:rj	!	!	!	!	!	!	!	!	!	!	!	!	!	!	!	!	!	!	!	!	!	!	!	!	!
8D/J|	.	.	8d\J	.	8f#J 8A/	.	8ddJ 8d'/	.	8d\	e-	f	8r	.	.	8r	.	.	8r	.	.	.	.	8d/J	.	8dd\J	.	8D'\J	.	8d\J	.	8d'/J	.	8dd\J	.	8ddd\J	.
*tremolo	*	*	*tremolo	*	*tremolo	*	*	*	*	*	*	*	*	*	*	*	*	*	*	*	*	*	*tremolo	*	*	*	*	*	*tremolo	*	*	*	*tremolo	*	*tremolo	*
!LO:TX:t=...	!	!	!LO:TX:t=...	!	!	!	!	!	!	!	!	!	!	!	!	!	!	!	!	!	!	!	!	!	!	!	!LO:TX:t=...	!	!LO:TX:t=...	!	!LO:TX:b:t=...	!	!LO:TX:t=...	!	!LO:TX:t=...	!
8D'\L	.	.	8d'\L	.	8f# 8A/L	.	8ddL 8d'/	.	4.d\	-lei-	.	4r	.	.	4r	.	.	4r	.	.	.	.	8d/L	.	8dd\L	.	8D'\L	.	8d'\L	.	8d'/L	.	8dd'\L	.	8ddd'\L	.
8D'\	.	.	8d'\	.	8f# 8A/	.	8dd 8d'/	.	.	.	.	.	.	.	.	.	.	.	.	.	.	.	8d/	.	8dd\	.	8D'\	.	8d'\	.	8d'/	.	8dd'\	.	8ddd'\	.
8D'\J	.	.	8d'\J	.	8f# 8A/J	.	8ddJ 8d'/	.	.	.	.	8r	.	.	8r	.	.	8r	.	.	.	.	8d/J	.	8dd\J	.	8D'\J	.	8d'\J	.	8d'/J	.	8dd'\J	.	8ddd'\J	.
*Xtremolo	*	*	*Xtremolo	*	*Xtremolo	*	*	*	*	*	*	*	*	*	*	*	*	*	*	*	*	*	*Xtremolo	*	*	*	*Xtremolo	*	*Xtremolo	*	*Xtremolo	*	*Xtremolo	*	*Xtremolo	*
!	!	!	!	!	!	!	!	!	!	!	!	!LO:LB:g=original	!	!	!	!	!	!	!	!	!	!	!	!	!	!	!	!	!	!	!	!	!	!	!	!
=44	=44	=44	=44	=44	=44	=44	=44	=44	=44	=44	=44	=44	=44	=44	=44	=44	=44	=44	=44	=44	=44	=44	=44	=44	=44	=44	=44	=44	=44	=44	=44	=44	=44	=44	=44	=44
*clefC4	*	*	*	*	*	*	*	*	*	*	*	*	*	*	*	*	*	*	*	*	*	*	*	*	*	*	*	*	*	*	*	*	*	*	*	*
!LO:TX:b:i:t=Violon&colon;	!	!LO:DY:rj	!	!LO:DY:rj	!	!LO:DY:rj	!	!LO:DY:rj	!	!	!	!	!	!LO:DY:rj	!	!	!LO:DY:rj	!	!	!LO:DY:rj	!	!	!LO:TX:a:t=1.	!	!LO:TX:a:t=1.	!	!LO:TX:a:t=1.	!	!LO:TX:a:t=1.	!	!LO:TX:a:t=1.	!	!LO:TX:a:t=1.	!	!LO:TX:a:t=1.	!
(8c\L	4	p	4.A/	p	[4.d/	p	(8f#X/L	p	8D\	-son	.	(8c\L	e-	p	4.d\	e-	p	(8f#X/L	e-	p	.	.	2.r	.	2.r	.	2.r	.	2.r	.	2.r	.	2.r	.	2.r	.
8B-\	#6	.	.	.	.	.	8g/	.	8r	.	.	8B-\	.	.	.	.	.	8g/	.	.	.	.	.	.	.	.	.	.	.	.	.	.	.	.	.	.
8A\J	8	.	.	.	.	.	8a/J	.	8r	.	.	8A\J)	.	.	.	.	.	8a/J)	.	.	.	.	.	.	.	.	.	.	.	.	.	.	.	.	.	.
8B-\L	6	.	(8B-/L	.	8d/L]	.	8g/L	.	4r	.	.	(8B-\L	-le-	.	(8d\L	-lei-	.	(8g/L	-lei-	.	.	.	.	.	.	.	.	.	.	.	.	.	.	.	.	.
8A\	8	.	8d/)	.	(8f#X/	.	8a/	.	.	.	.	8A\J)	.	.	8f#X\J)	.	.	8a/	.	.	.	.	.	.	.	.	.	.	.	.	.	.	.	.	.	.
8G\J	10	.	8d'/J	.	8g/J)	.	8b-/J)	.	8r	.	.	8G/	-i-	.	8g\	-i-	.	8b-/J)	.	.	.	.	.	.	.	.	.	.	.	.	.	.	.	.	.	.
!	!	!	!	!	!	!	!LO:LB:g=original	!	!	!	!	!	!	!	!	!	!	!	!	!	!	!	!	!	!	!	!	!	!	!	!	!	!	!	!	!
=45	=45	=45	=45	=45	=45	=45	=45	=45	=45	=45	=45	=45	=45	=45	=45	=45	=45	=45	=45	=45	=45	=45	=45	=45	=45	=45	=45	=45	=45	=45	=45	=45	=45	=45	=45	=45
*	*	*	*tremolo	*	*	*	*	*	*	*	*	*	*	*	*	*	*	*	*	*	*	*	*	*	*	*	*	*	*	*	*	*	*	*	*	*
!	!	!	!LO:TX:t=......	!LO:DY:rj:t=f.	!	!LO:DY:rj	!	!LO:DY:rj:t=f.	!	!	!	!	!	!	!	!	!	!	!	!	!	!	!	!	!	!	!	!	!	!	!	!	!	!	!	!
8D/L)	5	.	8d\L	f	8f#X/L	f	8a/L	f	8r	.	.	8D/	-son	.	8f#X\	-son	.	8a\	-son	.	.	.	8r	.	8r	.	8r	.	8r	.	8r	.	8r	.	8r	.
*clefF4	*	*	*	*	*	*	*	*	*	*	*	*	*	*	*	*	*	*	*	*	*	*	*	*	*	*	*	*	*	*	*	*	*	*	*	*
!LO:TX:b:i:t=Bassi	!	!LO:DY:rj	!	!	!	!	!	!	!	!	!	!	!	!	!	!	!	!	!	!	!	!	!	!	!	!	!	!	!	!	!	!	!	!	!	!
8D/	.	f	8d\	.	8f# 8A/	.	8dd 8d/	.	8r	.	.	8r	.	.	8r	.	.	8r	.	.	.	.	8d/L	.	8dd\L	.	8D'\L	.	8d\L	.	8d/L	.	8dd\L	.	8ddd\L	.
8D/J	.	.	8d\	.	8f#J 8A/	.	8ddJ 8d/	.	8d\	e-	.	8r	.	.	8r	.	.	8r	.	.	.	.	8d/J	.	8dd\J	.	8D'\J	.	8d\J	.	8d/J	.	8dd\J	.	8ddd\J	.
*tremolo	*	*	*	*	*tremolo	*	*	*	*	*	*	*	*	*	*	*	*	*	*	*	*	*	*tremolo	*	*tremolo	*	*tremolo	*	*tremolo	*	*tremolo	*	*tremolo	*	*tremolo	*
!	!	!	!	!	!	!	!	!	!	!	!	!	!	!	!	!	!	!	!	!	!	!	!	!	!LO:TX:t=...	!	!LO:TX:t=...	!	!LO:TX:t=...	!	!LO:TX:b:t=...	!	!	!	!	!
8D\L	.	.	8d\	.	8f# 8A/L	.	8ddL 8d/	.	4.d\	-lei-	.	4r	.	.	4r	.	.	4r	.	.	.	.	8d/L	.	8dd'\L	.	8D'\L	.	8d'\L	.	8d'/L	.	8dd\L	.	8ddd\L	.
8D\	.	.	8d\	.	8f# 8A/	.	8dd 8d/	.	.	.	.	.	.	.	.	.	.	.	.	.	.	.	8d/	.	8dd'\	.	8D'\	.	8d'\	.	8d'/	.	8dd\	.	8ddd\	.
8D\J	.	.	8d\J	.	8f# 8A/J	.	8ddJ 8d/	.	.	.	.	8r	.	.	8r	.	.	8r	.	.	.	.	8d/J	.	8dd'\J	.	8D'\J	.	8d'\J	.	8d'/J	.	8dd\J	.	8ddd\J	.
*Xtremolo	*	*	*Xtremolo	*	*Xtremolo	*	*	*	*	*	*	*	*	*	*	*	*	*	*	*	*	*	*Xtremolo	*	*Xtremolo	*	*Xtremolo	*	*Xtremolo	*	*Xtremolo	*	*Xtremolo	*	*Xtremolo	*
*clefC4	*	*	*	*	*	*	*	*	*	*	*	*	*	*	*	*	*	*	*	*	*	*	*	*	*	*	*	*	*	*	*	*	*	*	*	*
!	!	!	!	!	!	!	!	!	!	!	!	!	!	!	!	!	!	!LO:LB:g=original	!	!	!	!	!LO:LB:g=original	!	!	!	!	!	!	!	!	!	!	!	!	!
=46	=46	=46	=46	=46	=46	=46	=46	=46	=46	=46	=46	=46	=46	=46	=46	=46	=46	=46	=46	=46	=46	=46	=46	=46	=46	=46	=46	=46	=46	=46	=46	=46	=46	=46	=46	=46
!LO:TX:b:i:t=Violonc&colon;	!	!	!	!LO:DY:rj	!	!LO:DY:rj	!	!LO:DY:rj	!	!	!	!	!	!	!	!	!	!	!	!	!	!	!LO:TX:a:t=1.	!	!LO:TX:a:t=1.	!	!LO:TX:a:t=1.	!	!LO:TX:a:t=1.	!	!LO:TX:a:t=1.	!	!LO:TX:a:t=1.	!	!LO:TX:a:t=1.	!
(8c\L	4	.	4.A/	p	[4.d/	p	(8f#X/L	p	8D\	-son	.	(8c\L	e-	.	4.d\	e-	.	(8f#X/L	e-	.	0.r	.	2.r	.	2.r	.	2.r	.	2.r	.	2.r	.	2.r	.	2.r	.
8B-\	#6	.	.	.	.	.	8g/	.	8r	.	.	8B-\	.	.	.	.	.	8g/	.	.	.	.	.	.	.	.	.	.	.	.	.	.	.	.	.	.
8A\J	8	.	.	.	.	.	8a/J	.	8r	.	.	8A\J)	.	.	.	.	.	8a/J)	.	.	.	.	.	.	.	.	.	.	.	.	.	.	.	.	.	.
8B-\L	6	.	(8B-/L	.	8d/L]	.	8g/L	.	4r	.	.	(8B-\L	-le-	.	(8d\L	-le-	.	(8g/L	-lei-	.	.	.	.	.	.	.	.	.	.	.	.	.	.	.	.	.
8A\	8	.	8d/)	.	(8f#X/	.	8a/	.	.	.	.	8A\J)	.	.	8f#X\J)	.	.	8a/	.	.	.	.	.	.	.	.	.	.	.	.	.	.	.	.	.	.
8G\J)	10	.	8d'/J	.	8g/J)	.	8b-/J)	.	8r	.	.	8G/	-i-	.	8g\	-i-	.	8b-/J)	.	.	.	.	.	.	.	.	.	.	.	.	.	.	.	.	.	.
*clefF4	*	*	*	*	*	*	*	*	*	*	*	*	*	*	*	*	*	*	*	*	*	*	*	*	*	*	*	*	*	*	*	*	*	*	*	*
!	!	!	!	!	!LO:LB:g=original	!	!	!	!	!	!	!	!	!	!	!	!	!	!	!	!	!	!	!	!	!	!	!	!	!	!	!	!	!	!	!
=47	=47	=47	=47	=47	=47	=47	=47	=47	=47	=47	=47	=47	=47	=47	=47	=47	=47	=47	=47	=47	=47	=47	=47	=47	=47	=47	=47	=47	=47	=47	=47	=47	=47	=47	=47	=47
*	*	*	*	*	*	*	*	*	*	*	*	*	*	*	*	*	*	*	*	*	*	*	*	*	*	*	*2\right	*	*	*	*2\right	*	*	*	*	*
*	*	*	*	*	*	*	*	*	*	*	*	*	*	*	*	*	*	*	*	*	*	*	*tremolo	*	*tremolo	*	*tremolo	*	*tremolo	*	*tremolo	*	*tremolo	*	*	*
!LO:TX:b:i:t=Bassi	!	!LO:DY:rj	!	!LO:DY:rj:t=f.	!	!	!	!LO:DY:rj:t=f.	!	!	!	!	!	!	!	!	!	!	!	!	!	!	!	!	!LO:TX:t=...	!	!LO:TX:t=......	!LO:DY:t=ff.	!	!	!LO:TX:t=......	!LO:DY:rj	!LO:TX:t=......	!	!	!LO:DY:rj
8D\L	5	f	8d\L	f	8f#X/L	.	8d/L	f	8r	.	.	8D/	-son	.	8f#X\	-son	.	8a\	-son	.	.	.	8d/L	.	8dd'\L	.	8d'\L	ff	8f#X\L	.	8ff#X'\L	ff	8aa'\L	.	8d'/L	f
!	!	!	!	!	!	!	!	!	!	!	!	!	!	!	!	!	!LO:DY:t=f.	!	!	!	!	!	!	!	!	!	!	!	!	!	!	!	!	!	!	!
8d 8D\	5_ #_	.	8d 8c\	.	8a 8f#/	.	8f#X/	.	8r	.	.	8r	.	.	8r	.	f	8r	.	.	.	.	8d/	.	8dd'\	.	8d'\	.	8f#X\	.	8ff#X'\	.	8aa'\	.	8f#X'/	.
!	!	!	!	!	!	!	!	!	!	!	!	!	!	!LO:DY:rj:t=f.	!	!	!	!	!	!LO:DY:rj:t=f.	!	!	!	!	!	!	!	!	!	!	!	!	!	!	!	!
8dJ 8D\	X X	.	8dJ 8c\	.	8aJ 8f#/	.	8a/J	.	8d\	e-	.	8c\	e-	f	8a\	e-	.	8ff#X\	e-	f	.	.	8d/	.	8dd'\J	.	8d'\	.	8f#X\	.	8ff#X'\	.	8aa'\	.	8a'/J	.
*tremolo	*	*	*tremolo	*	*tremolo	*	*	*	*	*	*	*	*	*	*	*	*	*	*	*	*	*	*	*	*	*	*	*	*	*	*	*	*	*	*	*
!	!	!	!	!	!LO:TX:b:t=...	!	!	!	!	!	!	!	!	!	!	!	!	!	!	!	!	!	!	!	!LO:TX:t=...	!	!	!	!	!	!	!	!	!	!	!
8d 8D\L	.	.	8d 8c\L	.	8a 8f#'/L	.	8dd\L	.	4.d\	-lei-	.	4.c\	-lei-	.	4.a\	-lei-	.	4.ff#\	-lei-	.	.	.	8d/	.	8dd'\L	.	8d'\	.	8f#X\	.	8ff#X'\	.	8aa'\	.	8dd'\L	.
8d 8D\	.	.	8d 8c\	.	8a 8f#'/	.	8ff#X\	.	.	.	.	.	.	.	.	.	.	.	.	.	.	.	8d/	.	8dd'\	.	8d'\	.	8f#X\	.	8ff#X'\	.	8aa'\	.	8ff#X'\	.
8d 8D\J	.	.	8d 8c\J	.	8a 8f#'/J	.	8aa\J	.	.	.	.	.	.	.	.	.	.	.	.	.	.	.	8d/J	.	8dd'\J	.	8d'\J	.	8f#X\J	.	8ff#X'\J	.	8aa'\J	.	8aa'\J	.
!LO:LB:g=original	!	!	!	!	!	!	!	!	!	!	!	!	!	!	!LO:LB:g=original	!	!	!	!	!	!	!	!	!	!	!	!	!	!	!	!	!	!	!	!	!
=48	=48	=48	=48	=48	=48	=48	=48	=48	=48	=48	=48	=48	=48	=48	=48	=48	=48	=48	=48	=48	=48	=48	=48	=48	=48	=48	=48	=48	=48	=48	=48	=48	=48	=48	=48	=48
*	*	*	*^	*	*	*	*	*	*	*	*	*	*	*	*	*	*	*	*	*	*	*	*	*	*	*	*	*	*	*	*	*	*	*	*	*
!	!	!	!	!	!	!LO:TX:b:t=...	!	!	!	!	!	!	!	!	!	!	!	!	!	!	!	!	!	!	!	!LO:TX:t=......	!	!LO:TX:t=......	!	!	!	!	!	!LO:TX:t=......	!	!	!
8d 8D\L	6 4	.	8d/L	8B-\L	.	8b- 8g'/L	.	8d/L	.	8D\	-son	.	8B-\	-son,	.	8b-\	-son,	.	8gg\	-son,	.	.	.	8d/L	.	8dd'\L	.	8d'\L	.	8g\L	.	8gg\L	.	8bb-'\L	.	8d/L	.
8d 8D\	.	.	8d/	8B-\	.	8b- 8g'/	.	8g/	.	8r	.	.	8r	.	.	8r	.	.	8r	.	.	.	.	8d/	.	8dd'\	.	8d'\	.	8g\	.	8gg\	.	8bb-'\	.	8g/	.
8d 8D\	.	.	8d/	8B-\	.	8b- 8g'/J	.	8b-/J	.	8d\	e-	.	8d\	e-	.	8b-\	e-	.	8gg\	e-	.	.	.	8d/	.	8dd'\	.	8d'\	.	8g\	.	8gg\	.	8bb-'\	.	8b-/J	.
!	!	!	!	!	!	!LO:TX:b:t=...	!	!	!	!	!	!	!	!	!	!	!	!	!	!	!	!	!	!	!	!	!	!	!	!	!	!	!	!	!	!	!
8d 8D\	.	.	8d/	8B-\	.	8b- 8g'/L	.	8dd\L	.	4.d\	-lei-	.	4.d\	-lei-	.	4.b-\	-lei-	.	4.gg\	-lei-	.	.	.	8d/	.	8dd'\	.	8d'\	.	8g\	.	8gg\	.	8bb-'\	.	8dd\L	.
8d 8D\	.	.	8d/	8B-\	.	8b- 8g'/	.	8gg\	.	.	.	.	.	.	.	.	.	.	.	.	.	.	.	8d/	.	8dd'\	.	8d'\	.	8g\	.	8gg\	.	8bb-'\	.	8gg\	.
8d 8D\J	.	.	8d/J	8B-\J	.	8b- 8g'/J	.	8bb-\J	.	.	.	.	.	.	.	.	.	.	.	.	.	.	.	8d/J	.	8dd'\J	.	8d'\J	.	8g\J	.	8gg\J	.	8bb-'\J	.	8bb-\J	.
!	!	!	!	!	!	!	!	!	!	!LO:LB:g=original	!	!	!	!	!	!	!	!	!	!	!	!	!	!	!	!	!	!	!	!	!	!	!	!	!	!	!
=49	=49	=49	=49	=49	=49	=49	=49	=49	=49	=49	=49	=49	=49	=49	=49	=49	=49	=49	=49	=49	=49	=49	=49	=49	=49	=49	=49	=49	=49	=49	=49	=49	=49	=49	=49	=49	=49
!	!	!	!	!	!	!LO:TX:b:t=...	!	!	!	!	!	!	!	!	!	!	!	!	!	!	!	!	!	!	!	!LO:TX:t=......	!	!LO:TX:t=......	!	!	!	!	!	!LO:TX:t=......	!	!	!
8d 8D\L	5 #	.	8d/L	8c\L	.	8a 8f#X'/L	.	8d/L	.	8D\	-son	.	8d\	-son,	.	8a\	-son,	.	8ff#X\	-son,	.	.	.	8d/L	.	8dd'\L	.	8d'\L	.	8f#X\L	.	8ff#X\L	.	8aa'\L	.	8d/L	.
8d 8D\	.	.	8d/	8c\	.	8a 8f#X'/	.	8f#X/	.	8r	.	.	8r	.	.	8r	.	.	8r	.	.	.	.	8d/	.	8dd'\	.	8d'\	.	8f#X\	.	8ff#X\	.	8aa'\	.	8f#X/	.
8d 8D\	.	.	8d/	8c\	.	8a 8f#X'/J	.	8a/J	.	8d\	e-	.	8c\	e-	.	8a\	e-	.	8ff#\	e-	.	.	.	8d/	.	8dd'\	.	8d'\	.	8f#X\	.	8ff#X\	.	8aa'\	.	8a/J	.
!	!	!	!	!	!	!LO:TX:b:t=...	!	!	!	!	!	!	!	!	!	!	!	!	!	!	!	!	!	!	!	!	!	!	!	!	!	!	!	!	!	!	!
8d 8D\	.	.	8d/	8c\	.	8a 8f#'/L	.	8dd\L	.	4.d\	-lei-	.	4.c\	-lei-	.	4.a\	-lei-	.	4.ff#\	-lei-	.	.	.	8d/	.	8dd'\	.	8d'\	.	8f#X\	.	8ff#X\	.	8aa'\	.	8dd\L	.
8d 8D\	.	.	8d/	8c\	.	8a 8f#'/	.	8ff#X\	.	.	.	.	.	.	.	.	.	.	.	.	.	.	.	8d/	.	8dd'\	.	8d'\	.	8f#X\	.	8ff#X\	.	8aa'\	.	8ff#X\	.
8d 8D\J	.	.	8d/J	8c\J	.	8a 8f#'/J	.	8aa\J	.	.	.	.	.	.	.	.	.	.	.	.	.	.	.	8d/J	.	8dd'\J	.	8d'\J	.	8f#X\J	.	8ff#X\J	.	8aa'\J	.	8aa\J	.
!	!	!	!	!	!	!	!	!LO:LB:g=original	!	!	!	!	!LO:LB:g=original	!	!	!	!	!	!	!	!	!	!	!	!	!	!	!	!	!LO:LB:g=original	!	!	!	!	!	!	!
=50	=50	=50	=50	=50	=50	=50	=50	=50	=50	=50	=50	=50	=50	=50	=50	=50	=50	=50	=50	=50	=50	=50	=50	=50	=50	=50	=50	=50	=50	=50	=50	=50	=50	=50	=50	=50	=50
*	*	*	*	*tremolo	*	*	*	*	*	*	*	*	*	*	*	*	*	*	*	*	*	*	*	*	*	*	*	*	*	*	*	*	*	*	*	*	*
!	!	!	!	!	!	!LO:TX:b:t=...	!	!	!	!	!	!	!	!	!	!	!	!	!	!	!	!	!	!	!	!LO:TX:t=......	!	!LO:TX:t=......	!	!	!	!	!	!LO:TX:t=......	!	!	!
8d 8D\L	6 -4	.	8d/L	8B-\L	.	8b- 8g'/L	.	8d/L	.	8D\	-son	.	8B-\	-son,	.	8b-\	-son,	.	8gg\	-son,	.	0.r	.	8d/L	.	8dd'\L	.	8d'\L	.	8g\L	.	8gg\L	.	8bb-'\L	.	8d/L	.
8d 8D\	.	.	8d/	8B-\	.	8b- 8g'/	.	8g/	.	8r	.	.	8r	.	.	8r	.	.	8r	.	.	.	.	8d/	.	8dd'\	.	8d'\	.	8g\	.	8gg\	.	8bb-'\	.	8g/	.
8d 8D\	.	.	8d/	8B-\	.	8b- 8g'/J	.	8b-/J	.	8d\	e-	.	8d\	e-	.	8b-\	e-	.	8gg\	e-	.	.	.	8d/	.	8dd'\	.	8d'\	.	8g\	.	8gg\	.	8bb-'\	.	8b-/J	.
!	!	!	!	!	!	!LO:TX:b:t=...	!	!	!	!	!	!	!	!	!	!	!	!	!	!	!	!	!	!	!	!	!	!	!	!	!	!	!	!	!	!	!
8d 8D\	.	.	8d/	8B-\	.	8b- 8g'/L	.	8dd\L	.	4.d\	-le-	.	4.d\	-le-	.	4.b-\	-lei-	.	4.gg\	-lei-	.	.	.	8d/	.	8dd'\	.	8d'\	.	8g\	.	8gg\	.	8bb-'\	.	8dd\L	.
8d 8D\	.	.	8d/	8B-\	.	8b- 8g'/	.	8gg\	.	.	.	.	.	.	.	.	.	.	.	.	.	.	.	8d/	.	8dd'\	.	8d'\	.	8g\	.	8gg\	.	8bb-'\	.	8gg\	.
8d 8D\J	.	.	8d/J	8B-\J	.	8b- 8g'/J	.	8bb-\J	.	.	.	.	.	.	.	.	.	.	.	.	.	.	.	8d/J	.	8dd'\J	.	8d'\J	.	8g\J	.	8gg\J	.	8bb-'\J	.	8bb-\J	.
*Xtremolo	*	*	*Xtremolo	*Xtremolo	*	*Xtremolo	*	*	*	*	*	*	*	*	*	*	*	*	*	*	*	*	*	*	*	*Xtremolo	*	*Xtremolo	*	*Xtremolo	*	*Xtremolo	*	*Xtremolo	*	*	*
*	*	*	*v	*v	*	*	*	*	*	*	*	*	*	*	*	*	*	*	*	*	*	*	*	*	*	*	*	*	*	*	*	*	*	*	*	*	*
!	!	!	!	!	!	!	!	!	!	!	!	!	!	!	!	!	!	!	!	!	!	!	!	!	!	!	!	!	!	!	!	!	!	!	!LO:LB:g=original	!
=51	=51	=51	=51	=51	=51	=51	=51	=51	=51	=51	=51	=51	=51	=51	=51	=51	=51	=51	=51	=51	=51	=51	=51	=51	=51	=51	=51	=51	=51	=51	=51	=51	=51	=51	=51	=51
!LO:TX:b:i:t=Unisono	!	!	!	!	!	!	!	!	!	!	!	!	!	!	!	!	!	!	!	!	!	!	!	!	!	!	!	!	!	!	!	!	!	!	!	!
(8A\L	.	.	(8a\L	.	(8a/L	.	(8aa\L	.	[2.D\	-i-	.	[2.d\	-i-	.	[2.a\	.	.	[2.ff#X\	.	.	.	.	(8d/L	.	[2.dd\	.	[2.d\	.	[2.f#X\	.	[2.ff#X\	.	[2.aa\	.	(8aa\L	.
8d\	.	.	8dd\	.	8dd/	.	8ddd\	.	.	.	.	.	.	.	.	.	.	.	.	.	.	.	8d/	.	.	.	.	.	.	.	.	.	.	.	8ddd\	.
8A\J	.	.	8a\J	.	8a/J	.	8aa\J	.	.	.	.	.	.	.	.	.	.	.	.	.	.	.	8d/	.	.	.	.	.	.	.	.	.	.	.	8aa\J	.
8F#X\L	.	.	8f#X\L	.	8f#X/L	.	8ff#X\L	.	.	.	.	.	.	.	.	.	.	.	.	.	.	.	8d/	.	.	.	.	.	.	.	.	.	.	.	8ff#X\L	.
8A\	.	.	8a\	.	8a/	.	8aa\	.	.	.	.	.	.	.	.	.	.	.	.	.	.	.	8d/	.	.	.	.	.	.	.	.	.	.	.	8aa\	.
8F#\J)	.	.	8f#\J)	.	8f#/J)	.	8ff#\J)	.	.	.	.	.	.	.	.	.	.	.	.	.	.	.	8d/J	.	.	.	.	.	.	.	.	.	.	.	8ff#\J)	.
*	*	*	*	*	*	*	*	*	*	*	*	*	*	*	*	*	*	*	*	*	*	*	*Xtremolo	*	*	*	*	*	*	*	*	*	*	*	*	*
!	!	!	!LO:LB:g=original	!	!	!	!	!	!	!	!	!	!	!	!	!	!	!	!	!	!	!	!	!	!	!	!	!	!	!	!	!	!	!	!	!
=52	=52	=52	=52	=52	=52	=52	=52	=52	=52	=52	=52	=52	=52	=52	=52	=52	=52	=52	=52	=52	=52	=52	=52	=52	=52	=52	=52	=52	=52	=52	=52	=52	=52	=52	=52	=52
(8D\L	.	.	(8d\L	.	(8d/L	.	(8dd\L	.	4.D\]	-son	.	4.d\]	-son,	.	4.a\]	-son	.	4.ff#\]	-son	.	.	.	4.d/)	.	4dd\]	.	4.d\]	.	4.f#\]	.	4.ff#\]	.	4.aa\]	.	(8dd\L	.
8F#X\	.	.	8f#X\	.	8f#X/	.	8ff#X\	.	.	.	.	.	.	.	.	.	.	.	.	.	.	.	.	.	.	.	.	.	.	.	.	.	.	.	8ff#X\	.
8D\J)	.	.	8d\J)	.	8d/J)	.	8dd\J)	.	.	.	.	.	.	.	.	.	.	.	.	.	.	.	.	.	8r	.	.	.	.	.	.	.	.	.	8dd\J)	.
8AA'/L	.	.	8A'/L	.	4r	.	4r	.	4r	.	.	4r	.	.	4r	.	.	4r	.	.	.	.	4r	.	4r	.	8A\L	.	8A'\L	.	8r	.	4r	.	4r	.
8FF#X'/	.	.	8F#X'/	.	.	.	.	.	.	.	.	.	.	.	.	.	.	.	.	.	.	.	.	.	.	.	8F#X\	.	8F#X'\	.	4r	.	.	.	.	.
8DD'/J	.	.	8D'/J	.	8r	.	8r	.	8r	.	.	8r	.	.	8r	.	.	8r	.	.	.	.	8r	.	8r	.	8D\J	.	8D'\J	.	.	.	8r	.	8r	.
!	!	!	!	!	!	!	!	!	!	!	!	!	!	!	!	!	!	!LO:LB:g=original	!	!	!	!	!	!	!LO:LB:g=original	!	!	!	!	!	!	!	!LO:LB:g=original	!	!	!
=53	=53	=53	=53	=53	=53	=53	=53	=53	=53	=53	=53	=53	=53	=53	=53	=53	=53	=53	=53	=53	=53	=53	=53	=53	=53	=53	=53	=53	=53	=53	=53	=53	=53	=53	=53	=53
!	!	!LO:DY:rj	!	!	!	!LO:DY:rj	!	!LO:DY:t=mf.	!	!	!LO:DY:rj	!	!	!LO:DY:rj	!	!	!LO:DY:rj	!	!	!LO:DY:rj	!	!	!LO:TX:a:t=7	!	!LO:TX:a:t=7	!	!LO:TX:a:t=7	!	!LO:TX:a:t=7.	!	!LO:TX:a:t=7.	!	!LO:TX:a:t=7.	!	!LO:TX:a:t=7	!
4.GG/	1	p	8r	p	(8G/L	p	4g/	mf	4GG/	Ky-	p	4B-\	Ky-	p	4d\	Ky-	p	4g\	Ky-	p	.	.	0.r	.	0.r	.	0.r	.	0.r	.	0.r	.	0.r	.	0.r	.
.	.	.	8B-/L	.	8B-/	.	.	.	.	.	.	.	.	.	.	.	.	.	.	.	.	.	.	.	.	.	.	.	.	.	.	.	.	.	.	.
.	.	.	8B-/J	.	8d/J)	.	8g/	.	8GG/	-ri-	.	8B-\	-ri-	.	8d\	-ri-	.	8g\	-ri-	.	.	.	.	.	.	.	.	.	.	.	.	.	.	.	.	.
!	!	!	!	!	!	!	!LO:TX:b:i:t=dol&colon;	!	!	!	!	!	!	!	!	!	!	!	!	!	!	!	!	!	!	!	!	!	!	!	!	!	!	!	!	!
4GG/	10	.	8.d/L	.	(8G/L	.	8.b-/L	.	4GG/	-e	.	8.d\L	-e	.	4d\	-e	.	((8.b-\L	-e-	.	.	.	.	.	.	.	.	.	.	.	.	.	.	.	.	.
.	.	.	.	.	8B-/	.	.	.	.	.	.	.	.	.	.	.	.	.	.	.	.	.	.	.	.	.	.	.	.	.	.	.	.	.	.	.
.	.	.	16c/K	.	.	.	16a/K	.	.	.	.	16c\Jk	.	.	.	.	.	16a\Jk)	.	.	.	.	.	.	.	.	.	.	.	.	.	.	.	.	.	.
8BB-/	6	.	8B-/J	.	8d/J)	.	8g/J	.	8BB-/	e-	.	8B-\	e-	.	8d\	e-	.	8g\)	.	.	.	.	.	.	.	.	.	.	.	.	.	.	.	.	.	.
!	!	!	!	!	!LO:LB:g=original	!	!	!	!	!	!	!	!	!	!LO:LB:g=original	!	!	!	!	!	!	!	!	!	!	!	!	!	!	!	!	!	!	!	!	!
=54	=54	=54	=54	=54	=54	=54	=54	=54	=54	=54	=54	=54	=54	=54	=54	=54	=54	=54	=54	=54	=54	=54	=54	=54	=54	=54	=54	=54	=54	=54	=54	=54	=54	=54	=54	=54
4.D/	5 #	.	8r	.	(8A/L	.	(4a/	.	4.D\	-lei-	.	4.c\	-lei-	.	(4f#X\	-lei-	.	4.a\	-lei-	.	0.r	.	.	.	.	.	.	.	.	.	.	.	.	.	.	.
.	.	.	(8c/L	.	8c/	.	.	.	.	.	.	.	.	.	.	.	.	.	.	.	.	.	.	.	.	.	.	.	.	.	.	.	.	.	.	.
.	.	.	8A/J)	.	8d/J)	.	8d/)	.	.	.	.	.	.	.	8d#X\)	.	.	.	.	.	.	.	.	.	.	.	.	.	.	.	.	.	.	.	.	.
4GG/	8	.	4G/	.	4B-/	.	4g/	.	4GG/	-son	.	4B-\	-son	.	4d#\	-son	.	4g\	-son	.	.	.	.	.	.	.	.	.	.	.	.	.	.	.	.	.
8r	.	.	8r	.	8r	.	8b-/	.	8r	.	.	8r	.	.	8r	.	.	8r	.	.	.	.	.	.	.	.	.	.	.	.	.	.	.	.	.	.
=55	=55	=55	=55	=55	=55	=55	=55	=55	=55	=55	=55	=55	=55	=55	=55	=55	=55	=55	=55	=55	=55	=55	=55	=55	=55	=55	=55	=55	=55	=55	=55	=55	=55	=55	=55	=55
4.F#X\	6 3	.	8r	.	8r	.	(8dd\L	.	4.F#X\	Chri-	.	4.c\	Chri-	.	4.d\	Chri-	.	4.a\	Chri-	.	.	.	.	.	.	.	.	.	.	.	.	.	.	.	.	.
.	.	.	8c/L	.	(8d'/L	.	8a\	.	.	.	.	.	.	.	.	.	.	.	.	.	.	.	.	.	.	.	.	.	.	.	.	.	.	.	.	.
.	.	.	8c/J	.	8d'/J)	.	8dd\J)	.	.	.	.	.	.	.	.	.	.	.	.	.	.	.	.	.	.	.	.	.	.	.	.	.	.	.	.	.
4.G\	5 3	.	8r	.	8r	.	(8dd\L	.	4G\	-ste	.	4B-\	-ste	.	4d\	-ste	.	4b-\	-ste	.	.	.	.	.	.	.	.	.	.	.	.	.	.	.	.	.
.	.	.	8B-/L	.	(8d'/L	.	8b-\	.	.	.	.	.	.	.	.	.	.	.	.	.	.	.	.	.	.	.	.	.	.	.	.	.	.	.	.	.
.	.	.	8B-/J	.	8d'/J)	.	8dd\J)	.	8G\	e-	.	8B-\	e-	.	8d\	e-	.	8b-\	e-	.	.	.	.	.	.	.	.	.	.	.	.	.	.	.	.	.
!	!	!	!	!	!	!	!LO:LB:g=original	!	!LO:LB:g=original	!	!	!	!	!	!	!	!	!	!	!	!	!	!	!	!	!	!	!	!	!	!	!	!	!	!	!
=56	=56	=56	=56	=56	=56	=56	=56	=56	=56	=56	=56	=56	=56	=56	=56	=56	=56	=56	=56	=56	=56	=56	=56	=56	=56	=56	=56	=56	=56	=56	=56	=56	=56	=56	=56	=56
(4D\	5 #	.	4A/	.	(4f#X/	.	(4a/	.	4.D\	-lei-	.	(4A\	-lei-	.	(4f#X\	-lei-	.	(4a\	-le-	.	.	.	.	.	.	.	.	.	.	.	.	.	.	.	.	.
8DD/)	.	.	8D/	.	8d/	.	8f#X/	.	.	.	.	8d\)	.	.	8a\)	-i-	.	8f#X\)	-i-	.	.	.	.	.	.	.	.	.	.	.	.	.	.	.	.	.
4DD/	1	.	4D/	.	4A/)	.	4d/)	.	4D\	-son	.	4d\	-son	.	4a\	-son	.	4d/	-son	.	.	.	.	.	.	.	.	.	.	.	.	.	.	.	.	.
8r	.	.	8r	.	8r	.	8dd\	.	8r	.	.	8r	.	.	8r	.	.	8r	.	.	.	.	.	.	.	.	.	.	.	.	.	.	.	.	.	.
!	!	!	!	!	!	!	!	!	!	!	!	!LO:LB:g=original	!	!	!	!	!	!	!	!	!	!	!	!	!	!	!	!	!	!	!	!	!	!	!	!
=57	=57	=57	=57	=57	=57	=57	=57	=57	=57	=57	=57	=57	=57	=57	=57	=57	=57	=57	=57	=57	=57	=57	=57	=57	=57	=57	=57	=57	=57	=57	=57	=57	=57	=57	=57	=57
4.C/	10	.	4.c\	.	8.cc\L	.	8.ee-\L	.	4C/	Chri-	.	4c\	Ky-	.	(8.cc\L	Ky-	.	(8.ee-\L	Ky-	.	.	.	1.r	.	1.r	.	1.r	.	1.r	.	1.r	.	1.r	.	1.r	.
.	.	.	.	.	16b-\K	.	16dd\K	.	.	.	.	.	.	.	16b-\Jk)	.	.	16dd\Jk)	.	.	.	.	.	.	.	.	.	.	.	.	.	.	.	.	.	.
.	.	.	.	.	8a\J	.	8cc\J	.	8C/	.	.	8c\	-ri-	.	8a\	-ri-	.	8cc\	-ri-	.	.	.	.	.	.	.	.	.	.	.	.	.	.	.	.	.
(8AA/L	10	.	(8e-\L	.	4.a 4.f#X/	.	(8cc\L	.	8AA/L	-ste	.	(8e-\L	-e	.	4f#X\	-e	.	4cc\	-e	.	.	.	.	.	.	.	.	.	.	.	.	.	.	.	.	.
8BB-/	8	.	8d\	.	.	.	8b-\	.	8BB-/J	.	.	8d\J)	.	.	.	.	.	.	.	.	.	.	.	.	.	.	.	.	.	.	.	.	.	.	.	.
8C/J)	6	.	8c\J)	.	.	.	8a\J)	.	8C/	e-	.	8c\	e-	.	8a\	e-	.	8a\	e-	.	.	.	.	.	.	.	.	.	.	.	.	.	.	.	.	.
!LO:LB:g=original	!	!	!	!	!	!	!	!	!	!	!	!	!	!	!	!	!	!	!	!	!	!	!	!	!	!	!	!	!	!	!	!	!	!	!	!
=58	=58	=58	=58	=58	=58	=58	=58	=58	=58	=58	=58	=58	=58	=58	=58	=58	=58	=58	=58	=58	=58	=58	=58	=58	=58	=58	=58	=58	=58	=58	=58	=58	=58	=58	=58	=58
4.BB-/	10	.	4.B-/	.	8.b-/L	.	8.dd\L	.	4BB-/	-le-	.	4B-\	-le-	.	8.b-\L	-le-	.	(8.dd\L	-le-	.	0.r	.	.	.	.	.	.	.	.	.	.	.	.	.	.	.
.	.	.	.	.	16a/K	.	16cc\K	.	.	.	.	.	.	.	(16a\Jk	.	.	16cc\Jk)	.	.	.	.	.	.	.	.	.	.	.	.	.	.	.	.	.	.
.	.	.	.	.	8g/J	.	8b-\J	.	8BB-/	-i-	.	8B-\	-i-	.	8g\)	-i-	.	8b-\	-i-	.	.	.	.	.	.	.	.	.	.	.	.	.	.	.	.	.
(8GG/L	10	.	(8d/L	.	4.d/	.	(8b-/L	.	8GG/L	-son	.	(8d\L	-son	.	4g\	-son	.	4b-\	-son	.	.	.	.	.	.	.	.	.	.	.	.	.	.	.	.	.
8AA/	8	.	8c/	.	.	.	8a/	.	8AA/J	.	.	8c\J)	.	.	.	.	.	.	.	.	.	.	.	.	.	.	.	.	.	.	.	.	.	.	.	.
8BB-/J)	6	.	8B-/J)	.	.	.	8g/J)	.	8BB-/	e-	.	8B-\	e-	.	8g\	e	.	8g\	e-	.	.	.	.	.	.	.	.	.	.	.	.	.	.	.	.	.
!	!	!	!	!	!	!	!	!	!	!	!	!	!	!	!LO:LB:g=original	!	!	!LO:LB:g=original	!	!	!	!	!	!	!	!	!	!	!	!	!	!	!	!	!	!
=59	=59	=59	=59	=59	=59	=59	=59	=59	=59	=59	=59	=59	=59	=59	=59	=59	=59	=59	=59	=59	=59	=59	=59	=59	=59	=59	=59	=59	=59	=59	=59	=59	=59	=59	=59	=59
4.C/	6 3	.	4c\	.	4e-/	.	(8a\L	.	4.C/	-le-	.	4.c\	-le-	.	(4.e-\	-le-	.	(4.a\	-le-	.	.	.	2.r	.	2.r	.	2.r	.	2.r	.	2.r	.	2.r	.	2.r	.
.	.	.	.	.	.	.	8dd\	.	.	.	.	.	.	.	.	.	.	.	.	.	.	.	.	.	.	.	.	.	.	.	.	.	.	.	.	.
.	.	.	8e-\	.	8c/	.	8a\J)	.	.	.	.	.	.	.	.	.	.	.	.	.	.	.	.	.	.	.	.	.	.	.	.	.	.	.	.	.
.	.	.	.	.	8qB-/	.	8qg/	.	.	.	.	.	.	.	.	.	.	.	.	.	.	.	.	.	.	.	.	.	.	.	.	.	.	.	.	.
4.D/	5 #	.	4d\	.	8A/L	.	8f#X/L	.	4.D\	-i-	.	4.A\	-i-	.	4.d\)	-i-	.	4.f#X\)	-i-	.	.	.	.	.	.	.	.	.	.	.	.	.	.	.	.	.
.	.	.	.	.	8G/	.	8en/	.	.	.	.	.	.	.	.	.	.	.	.	.	.	.	.	.	.	.	.	.	.	.	.	.	.	.	.	.
.	.	.	8d\	.	8A/J	.	8f#/J	.	.	.	.	.	.	.	.	.	.	.	.	.	.	.	.	.	.	.	.	.	.	.	.	.	.	.	.	.
!	!	!	!LO:LB:g=original	!	!	!	!	!	!	!	!	!	!	!	!	!	!	!	!	!	!	!	!	!	!	!	!	!	!	!	!	!	!	!	!	!
=60	=60	=60	=60	=60	=60	=60	=60	=60	=60	=60	=60	=60	=60	=60	=60	=60	=60	=60	=60	=60	=60	=60	=60	=60	=60	=60	=60	=60	=60	=60	=60	=60	=60	=60	=60	=60
*	*	*	*^	*	*	*	*	*	*	*	*	*	*	*	*	*	*	*	*	*	*	*	*	*	*	*	*	*	*	*	*	*	*	*	*	*
!	!	!LO:DY:rj	!	!	!LO:DY:rj	!	!LO:DY:rj:t=f.	!	!LO:DY:rj:t=f.	!	!	!	!	!	!LO:DY:rj:t=f.	!	!	!	!	!	!	!	!	!	!	!	!LO:DY:rj	!	!	!	!LO:DY:rj:t=f.	!	!LO:DY:rj:t=f.	!	!LO:DY:rj:t=f.	!	!LO:DY:rj
8G\	3	f	8d/	8B-\	f	16B-/LL	f	16b-\LL	f	8G\	-son,	.	8B-\	-son,	f	8d\	-son,	.	8g\	-son,	.	.	.	8d/	.	8dd\	f	8G\	f	8G\	f	8g/	f	8b-\	f	8bb-\	f
.	.	.	.	.	.	(16d/	.	(16dd\	.	.	.	.	.	.	.	.	.	.	.	.	.	.	.	.	.	.	.	.	.	.	.	.	.	.	.	.	.
8r	.	.	8r	8ryy	.	16c#X/	.	16cc#X\	.	8r	.	.	8r	.	.	8r	.	.	8r	.	.	.	.	8r	.	8r	.	8r	.	8r	.	8r	.	8r	.	8r	.
.	.	.	.	.	.	16d/	.	16dd\	.	.	.	.	.	.	.	.	.	f	.	.	.	.	.	.	.	.	.	.	.	.	.	.	.	.	.	.	.
!	!	!	!	!	!	!	!	!	!	!	!	!	!	!	!	!	!	!	!	!	!LO:DY:rj:t=f.	!	!	!	!	!	!	!	!	!	!	!	!	!	!	!	!
8D\	.	.	8d/	8B-\	.	16e-/	.	16ee-X\	.	8G\	Chri-	.	8B-\	Chri-	.	8d\	Chri-	.	8b-\	Chri-	f	.	.	8d/	.	8dd\	.	8D\	.	8G\	.	8f/	.	8b-\	.	8ddd\	.
.	.	.	.	.	.	16d/JJ)	.	16dd\JJ)	.	.	.	.	.	.	.	.	.	.	.	.	.	.	.	.	.	.	.	.	.	.	.	.	.	.	.	.	.
!	!	!	!	!	!	!LO:LB:g=original	!	!	!	!	!	!	!	!	!	!	!	!	!	!	!	!	!	!	!	!	!	!	!	!	!	!	!	!	!	!	!
8A\	6\ 3	.	8d/	8B-\	.	16r	.	16f#X\LL|	.	8A\	-ste,	.	8A\	-ste,	.	8d\	-ste.	.	8cc\	-ste,	.	.	.	8d/	.	8dd\	.	8A\	.	8A\	.	8a/	.	8cc\	.	8ff#X\	.
.	.	.	.	.	.	(16d/LL	.	(16dd\	.	.	.	.	.	.	.	.	.	.	.	.	.	.	.	.	.	.	.	.	.	.	.	.	.	.	.	.	.
8r	.	.	8r	8ryy	.	16c#X/	.	16cc#X\	.	8r	.	.	8r	.	.	8r	.	.	8r	.	.	.	.	8r	.	8r	.	8r	.	8r	.	8r	.	8r	.	8r	.
.	.	.	.	.	.	16d/	.	16dd\	.	.	.	.	.	.	.	.	.	.	.	.	.	.	.	.	.	.	.	.	.	.	.	.	.	.	.	.	.
8D\	.	.	8d/	8B-\	.	16e-/	.	16ee-\	.	8D\	Chri-	.	8A\	Chri-	.	8d\	Chri-	.	8cc\	Chri-	.	.	.	8d/	.	8dd\	.	8G\	.	8D\	.	8a/	.	8cc\	.	8ddd\	.
.	.	.	.	.	.	16d/JJ)	.	16dd\JJ)	.	.	.	.	.	.	.	.	.	.	.	.	.	.	.	.	.	.	.	.	.	.	.	.	.	.	.	.	.
!	!	!	!	!	!	!	!	!LO:LB:g=original	!	!LO:LB:g=original	!	!	!	!	!	!	!	!	!	!	!	!	!	!	!	!	!	!	!	!	!	!	!	!	!	!	!
=61	=61	=61	=61	=61	=61	=61	=61	=61	=61	=61	=61	=61	=61	=61	=61	=61	=61	=61	=61	=61	=61	=61	=61	=61	=61	=61	=61	=61	=61	=61	=61	=61	=61	=61	=61	=61	=61
8B-\	6	.	8d/	8B-\	.	16r	.	16g\LL	.	8B-\	-ste,	.	8B-\	-ste,	.	8e-\	-ste,	.	8dd\	-ste,	.	.	.	8d/	.	8dd\	.	8B-\	.	8B-\	.	8b-\	.	8dd\	.	8gg\	.
.	.	.	.	.	.	(16d/LL	.	(16dd\	.	.	.	.	.	.	.	.	.	.	.	.	.	.	.	.	.	.	.	.	.	.	.	.	.	.	.	.	.
8r	.	.	8r	8ryy	.	16c#X/	.	16cc#X\	.	8r	.	.	8r	.	.	8r	.	.	8r	.	.	.	.	8r	.	8r	.	8r	.	8r	.	8r	.	8r	.	8r	.
.	.	.	.	.	.	16d/)	.	16dd\	.	.	.	.	.	.	.	.	.	.	.	.	.	.	.	.	.	.	.	.	.	.	.	.	.	.	.	.	.
8D\	.	.	8d/	8B-\	.	16g'/	.	16bb-'\	.	8D\	Chri-	.	8B-\	e-	.	8d\	e-	.	8dd\	e-	.	.	.	8d/	.	8dd\	.	8D\	.	8D\	.	8b-\	.	8dd\	.	8ddd\	.
.	.	.	.	.	.	16b-'/JJ	.	16gg'\JJ)	.	.	.	.	.	.	.	.	.	.	.	.	.	.	.	.	.	.	.	.	.	.	.	.	.	.	.	.	.
8A\	6\ 3	.	8d/	8A\	.	4cc 4d/	.	(16gg\LL	.	8G\	-ste,	.	4.d\	-lei-	.	4.f#X\	-lei-	.	4.cc\	-lei-	.	.	.	4.d/	.	4.dd\	.	8A\	.	8A\	.	4.a\	.	4.cc\	.	(16ggg\LL	.
.	.	.	.	.	.	.	.	16ff#X\)	.	.	.	.	.	.	.	.	.	.	.	.	.	.	.	.	.	.	.	.	.	.	.	.	.	.	.	16fff#X\)	.
8r	.	.	8r	8ryy	.	.	.	(16ff#\	.	8r	.	.	.	.	.	.	.	.	.	.	.	.	.	.	.	.	.	8r	.	8r	.	.	.	.	.	(16fff#\	.
.	.	.	.	.	.	.	.	16ee-\)	.	.	.	.	.	.	.	.	.	.	.	.	.	.	.	.	.	.	.	.	.	.	.	.	.	.	.	16eee-\)	.
8D\	.	.	8d/	8c\	.	8a 8d/	.	16dd'\	.	8D\	Chri-	.	.	.	.	.	.	.	.	.	.	.	.	.	.	.	.	8D\	.	8D\	.	.	.	.	.	16ddd'\	.
.	.	.	.	.	.	.	.	16cc#'\JJ	.	.	.	.	.	.	.	.	.	.	.	.	.	.	.	.	.	.	.	.	.	.	.	.	.	.	.	16ccc'\JJ	.
!	!	!	!	!	!	!	!	!	!	!	!	!	!	!	!	!	!	!	!	!	!	!	!	!	!	!	!	!LO:LB:g=original	!	!	!	!LO:LB:g=original	!	!	!	!	!
=62	=62	=62	=62	=62	=62	=62	=62	=62	=62	=62	=62	=62	=62	=62	=62	=62	=62	=62	=62	=62	=62	=62	=62	=62	=62	=62	=62	=62	=62	=62	=62	=62	=62	=62	=62	=62	=62
!	!	!	!	!	!	!	!	!	!	!	!	!	!	!	!	!	!	!	!	!	!	!	!	!	!	!	!	!	!	!	!	!	!	!	!	!LO:TX:t=P:problem=t. 62-63 zapisane repetycją, wzięte w łuk, z adnotacją "bis"	!LO:DY:rj
8G\	3	.	8d/	8B-\	.	16b-/LL|	.	16b-'\LL	.	8G\	-ste,	.	8B-\	-son,	.	8g\	-son,	.	8b-\	-son,	.	0.r	.	8d/	.	8dd\	.	8G\	.	8G\	.	8g/	.	8b-\	.	8bb-\yy	fy
.	.	.	.	.	.	(16d/	.	(16dd\	.	.	.	.	.	.	.	.	.	.	.	.	.	.	.	.	.	.	.	.	.	.	.	.	.	.	.	.	.
8r	.	.	8r	8ryy	.	16c#X/	.	16cc#X\	.	8r	.	.	8r	.	.	8r	.	.	8r	.	.	.	.	8r	.	8r	.	8r	.	8r	.	8r	.	8r	.	8ryy	.
.	.	.	.	.	.	16d/	.	16dd\	.	.	.	.	.	.	.	.	.	.	.	.	.	.	.	.	.	.	.	.	.	.	.	.	.	.	.	.	.
8D\	.	.	8d/	8B-\	.	16e-/	.	16ee-\	.	8G\	e-	.	8B-\	Chri-	.	8d\	Chri-	.	8b-\	Chri-	.	.	.	8d/	.	8dd\	.	8G\	.	8G\	.	8g/	.	8b-\	.	8ddd\yy	.
.	.	.	.	.	.	16d/JJ)	.	16dd\JJ)	.	.	.	.	.	.	.	.	.	.	.	.	.	.	.	.	.	.	.	.	.	.	.	.	.	.	.	.	.
8A\	6\ 3	.	8d/	8c\	.	16r	.	16f#X'\LL	.	8A\	-le-	.	8A\	-ste	.	8d\	-ste,	.	8cc\	-ste,	.	.	.	8d/	.	8dd\	.	8A\	.	8A\	.	8a/	.	8cc\	.	8ff#X\yy	.
.	.	.	.	.	.	(16d/LL	.	(16dd\	.	.	.	.	.	.	.	.	.	.	.	.	.	.	.	.	.	.	.	.	.	.	.	.	.	.	.	.	.
8r	.	.	8r	8ryy	.	16c#/	.	16cc#X\	.	8r	.	.	8r	.	.	8r	.	.	8r	.	.	.	.	8r	.	8r	.	8r	.	8r	.	8r	.	8r	.	8ryy	.
.	.	.	.	.	.	16d/	.	16dd\	.	.	.	.	.	.	.	.	.	.	.	.	.	.	.	.	.	.	.	.	.	.	.	.	.	.	.	.	.
8D\	.	.	8d/	8c\	.	16e-/	.	16ee-\	.	8D\	-i-	.	8A\	Chri-	.	8d\	Chri-	.	8cc\	Chri-	.	.	.	8d/	.	8dd\	.	8D\	.	8D\	.	8a/	.	8cc\	.	8ddd\yy	.
.	.	.	.	.	.	16d/JJ)	.	16dd\JJ)	.	.	.	.	.	.	.	.	.	.	.	.	.	.	.	.	.	.	.	.	.	.	.	.	.	.	.	.	.
!	!	!	!	!	!	!	!	!	!	!	!	!	!LO:LB:g=original	!	!	!	!	!	!	!	!	!	!	!	!	!	!	!	!	!	!	!	!	!	!	!	!
=63	=63	=63	=63	=63	=63	=63	=63	=63	=63	=63	=63	=63	=63	=63	=63	=63	=63	=63	=63	=63	=63	=63	=63	=63	=63	=63	=63	=63	=63	=63	=63	=63	=63	=63	=63	=63	=63
8B-\	6	.	8d/	8B-\	.	16r	.	16g'\LL	.	8B-\	-son,	.	8B-\	-ste,	.	8d\	-ste,	.	8dd\	-ste,	.	.	.	8d/	.	8dd\	.	8B-\	.	8B-\	.	8b-\	.	8dd\	.	8gg\yy	.
.	.	.	.	.	.	(16d/LL	.	(16dd\	.	.	.	.	.	.	.	.	.	.	.	.	.	.	.	.	.	.	.	.	.	.	.	.	.	.	.	.	.
8r	.	.	8r	8ryy	.	16c#X/	.	16cc#X\	.	8r	.	.	8r	.	.	8r	.	.	8r	.	.	.	.	8r	.	8r	.	8r	.	8r	.	8r	.	8r	.	8ryy	.
.	.	.	.	.	.	16d/)	.	16dd\	.	.	.	.	.	.	.	.	.	.	.	.	.	.	.	.	.	.	.	.	.	.	.	.	.	.	.	.	.
8D\	.	.	8d/	8B-\	.	16g'/	.	16bb-\	.	8D\	Chri-	.	8B-\	e-	.	8d\	e-	.	8dd\	e-	.	.	.	8d/	.	8dd\	.	8D\	.	8D\	.	8b-\	.	8dd\	.	8ddd\yy	.
.	.	.	.	.	.	16b-'/JJ	.	16gg\JJ)	.	.	.	.	.	.	.	.	.	.	.	.	.	.	.	.	.	.	.	.	.	.	.	.	.	.	.	.	.
8A\	6\ 3	.	8d/	8A\	.	4cc 4d/	.	(16gg\LL	.	8A\	-ste	.	4.d\	-lei-	.	4.f#X\	-lei-	.	4.cc\	-lei-	.	.	.	4.d/	.	4.dd\	.	8A\	.	8A\	.	4.a\	.	4.cc\	.	(y16ggg\LLyy	.
.	.	.	.	.	.	.	.	16ff#X\)	.	.	.	.	.	.	.	.	.	.	.	.	.	.	.	.	.	.	.	.	.	.	.	.	.	.	.	16fff#X\)yy	.
8r	.	.	8r	8ryy	.	.	.	(16ff#\	.	8r	.	.	.	.	.	.	.	.	.	.	.	.	.	.	.	.	.	8r	.	8r	.	.	.	.	.	(y16fff#\yy	.
.	.	.	.	.	.	.	.	16ee-\)	.	.	.	.	.	.	.	.	.	.	.	.	.	.	.	.	.	.	.	.	.	.	.	.	.	.	.	16eee-\)yy	.
8D\	.	.	8d/	8c\	.	8a 8d/	.	16dd'\	.	8D\	e-	.	.	.	.	.	.	.	.	.	.	.	.	.	.	.	.	8D\	.	8D\	.	.	.	.	.	16ddd'\yy	.
.	.	.	.	.	.	.	.	16cc#'\JJ	.	.	.	.	.	.	.	.	.	.	.	.	.	.	.	.	.	.	.	.	.	.	.	.	.	.	.	16ccc'\JJyy	.
*	*	*	*v	*v	*	*	*	*	*	*	*	*	*	*	*	*	*	*	*	*	*	*	*	*	*	*	*	*	*	*	*	*	*	*	*	*	*
!	!	!	!	!	!	!	!	!	!	!	!	!	!	!	!LO:LB:g=original	!	!	!	!	!	!	!	!LO:LB:g=original	!	!	!	!	!	!	!	!	!	!	!	!	!
=64	=64	=64	=64	=64	=64	=64	=64	=64	=64	=64	=64	=64	=64	=64	=64	=64	=64	=64	=64	=64	=64	=64	=64	=64	=64	=64	=64	=64	=64	=64	=64	=64	=64	=64	=64	=64
*	*	*	*	*	*	*	*	*	*	*	*	*	*	*	*	*	*	*	*	*	*	*	*	*	*	*	*	*	*tremolo	*	*	*	*	*	*	*
8G\L	n	.	8dL 8Bn\	.	8g'/L	.	16bn\LL	.	8G\	-le-	.	8d\	-son	.	8g\	-son,	.	8bn\	-son,	.	.	.	8d/	.	8dd\	.	8G\	.	8G\L	.	8g\L	.	8bX\L	.	8bbn\L	.
.	.	.	.	.	.	.	(16gg\	.	.	.	.	.	.	.	.	.	.	.	.	.	.	.	.	.	.	.	.	.	.	.	.	.	.	.	.	.
8G\	.	.	8f\	.	8bn 8d'/	.	16ff#X\	.	8r	.	.	8r	.	.	8r	.	.	8r	.	.	.	.	8r	.	8r	.	8r	.	8G\	.	8bX\	.	8ff\	.	8ggg\	.
.	.	.	.	.	.	.	16gg\	.	.	.	.	.	.	.	.	.	.	.	.	.	.	.	.	.	.	.	.	.	.	.	.	.	.	.	.	.
8G\J	.	.	8f\J	.	8bJ 8d'/	.	16aa-X'\	.	8G\	-e-	.	8Bn\	e-	.	8g\	e-	.	8b\	e-	.	.	.	8d/	.	8dd\	.	8G\	.	8G\J	.	8b\J	.	8ff\J	.	8ggg\J	.
.	.	.	.	.	.	.	16gg'\JJ)	.	.	.	.	.	.	.	.	.	.	.	.	.	.	.	.	.	.	.	.	.	.	.	.	.	.	.	.	.
*	*	*	*	*	*	*	*	*	*	*	*	*	*	*	*	*	*	*	*	*	*	*	*	*	*tremolo	*	*	*	*Xtremolo	*	*	*	*	*	*	*
!	!	!	!	!	!	!	!LO:LB:g=original	!	!	!	!	!	!	!	!	!	!	!	!	!	!	!	!	!	!LO:TX:t=...	!	!	!	!	!	!	!	!	!	!	!
4.BBn/	5	.	8f\L	.	8bL 8d'/	.	16ffn'\LL	.	4.BBn/	-i-	.	4.d\	-lei-	.	4.g\	-lei-	.	4.ff\	-lei-	.	.	.	8d/L	.	8dd'\L	.	4.BBn/	.	4.BBn/	.	4.b\	.	4.ff\	.	16fffn'\LL	.
.	.	.	.	.	.	.	16dd'\	.	.	.	.	.	.	.	.	.	.	.	.	.	.	.	.	.	.	.	.	.	.	.	.	.	.	.	16ddd'\	.
.	.	.	8d\	.	8f 8G'/	.	16b'\	.	.	.	.	.	.	.	.	.	.	.	.	.	.	.	8d/	.	8dd'\	.	.	.	.	.	.	.	.	.	16bbn'\	.
.	.	.	.	.	.	.	16g'\	.	.	.	.	.	.	.	.	.	.	.	.	.	.	.	.	.	.	.	.	.	.	.	.	.	.	.	16gg'\	.
.	.	.	8Bn\J	.	8dJ 8G'/	.	16f'\	.	.	.	.	.	.	.	.	.	.	.	.	.	.	.	8d/J	.	8dd'\J	.	.	.	.	.	.	.	.	.	16ff'\	.
.	.	.	.	.	.	.	16d'\JJ	.	.	.	.	.	.	.	.	.	.	.	.	.	.	.	.	.	.	.	.	.	.	.	.	.	.	.	16dd'\JJ	.
*	*	*	*	*	*	*	*	*	*	*	*	*	*	*	*	*	*	*	*	*	*	*	*	*	*Xtremolo	*	*	*	*.	*	*	*	*	*	*	*
!LO:LB:g=original	!	!	!	!	!LO:LB:g=original	!	!	!	!	!	!	!	!	!	!	!	!	!	!	!	!	!	!	!	!	!	!	!	!LO:LB:g=original	!	!	!	!	!	!LO:LB:g=original	!
=65	=65	=65	=65	=65	=65	=65	=65	=65	=65	=65	=65	=65	=65	=65	=65	=65	=65	=65	=65	=65	=65	=65	=65	=65	=65	=65	=65	=65	=65	=65	=65	=65	=65	=65	=65	=65
!	!	!	!	!	!	!	!	!	!	!	!	!	!	!	!	!	!	!	!	!	!	!	!LO:TX:a:t=1.	!	!LO:TX:a:t=1.	!	!	!	!	!	!	!	!	!	!	!
4C/	3	.	4c\	.	4e- 4G/	.	(8e-/L	.	4C/	-son	.	4c\	-son	.	4g\	-son	.	4ee-\	-son,	.	.	.	2.r	.	2.r	.	4C/	.	4C/	.	4cc\	.	4ee-\	.	(8ee-\L	.
.	.	.	.	.	.	.	8g/	.	.	.	.	.	.	.	.	.	.	.	.	.	.	.	.	.	.	.	.	.	.	.	.	.	.	.	8gg\	.
8r	.	.	8r	.	8r	.	8cc/J)	.	8r	.	.	8r	.	.	8r	.	.	8r	.	.	.	.	.	.	.	.	8r	.	8r	.	8r	.	8r	.	8ccc\J)	.
(8C\L	10	.	(8A/L	.	(8g/L	.	(8ee-\L	.	(8C/L	e-	.	(8A\L	e-	.	(8g\L	e-	.	(8ee-\L	e-	.	.	.	.	.	.	.	(8c\L	.	(8e-\L	.	(8cc\L	.	8ee-\L	.	(8eee-\L	.
8D\	8	.	8B-X/	.	8f/	.	8dd\	.	8D/	.	.	8B-X\	.	.	8fn\	.	.	8dd\	.	.	.	.	.	.	.	.	8B-\	.	8d\	.	8b-X\	.	8dd\	.	8ddd\	.
8E-\J)	6	.	8c/J)	.	8e-/J)	.	8cc\J)	.	8E-/J)	.	.	8c\J)	.	.	8e-\J)	.	.	8cc\J)	.	.	.	.	.	.	.	.	8A\J)	.	8c\J)	.	8a\J)	.	8cc\J	.	8ccc\J)	.
!	!	!	!LO:LB:g=original	!	!	!	!	!	!LO:LB:g=original	!	!	!	!	!	!	!	!	!LO:LB:g=original	!	!	!	!	!	!	!	!	!	!	!	!	!	!	!	!	!	!
=66	=66	=66	=66	=66	=66	=66	=66	=66	=66	=66	=66	=66	=66	=66	=66	=66	=66	=66	=66	=66	=66	=66	=66	=66	=66	=66	=66	=66	=66	=66	=66	=66	=66	=66	=66	=66
8D\	6_ 4_	.	8d\	.	8d/	.	(8b-\L	.	2.D\	-lei-	.	4.d\	-le-	.	(4d\	-le-	.	4.b-\	-le-	.	0.r	.	8d/	.	8dd\	.	8G\	.	8B-\	.	8g/	.	8b-\	.	(8bb-\L	.
8r	.	.	8r	.	8r	.	8dd\)	.	.	.	.	.	.	.	.	.	.	.	.	.	.	.	8r	.	8r	.	8r	.	8r	.	8r	.	8r	.	8ddd\)	.
8D\	.	.	8d\	.	8B-/	.	8g'\J	.	.	.	.	.	.	.	8g\)	.	.	.	.	.	.	.	8d/	.	8dd\	.	8G\	.	8B-\	.	8g/	.	8b-\	.	8gg'\J	.
8DD/	5_ #_	.	8d\	.	8c/	.	(8a/L	.	.	.	.	4.c\	-i-	.	4.f#X\	-i-	.	4.a\	-i-	.	.	.	8d/	.	8dd\	.	8G#X\	.	8A\	.	8f#X/	.	8a\	.	(8aa\L	.
8r	.	.	8r	.	8r	.	8cc/)	.	.	.	.	.	.	.	.	.	.	.	.	.	.	.	8r	.	8r	.	8r	.	8r	.	8r	.	8r	.	8ccc\)	.
8D\	.	.	8d\	.	8A/	.	8f#X'/J	.	.	.	.	.	.	.	.	.	.	.	.	.	.	.	8d/	.	8dd\	.	8F\	.	8A\	.	8f#/	.	8a\	.	8ff#X'\J	.
=67	=67	=67	=67	=67	=67	=67	=67	=67	=67	=67	=67	=67	=67	=67	=67	=67	=67	=67	=67	=67	=67	=67	=67	=67	=67	=67	=67	=67	=67	=67	=67	=67	=67	=67	=67	=67
!	!	!LO:DY:rj	!	!	!	!LO:DY:rj	!	!LO:DY:rj	!	!	!LO:DY:rj	!	!	!	!	!	!	!	!	!	!	!	!	!	!	!	!	!	!	!LO:DY:rj	!	!LO:DY:rj	!	!LO:DY:rj	!	!
[2.GG/	1	p	8d\	.	8B-/	p	8g/	p	4.GG/	-son	p	8B-\	-son	.	8g\	-son	.	8g\	-son,	.	.	.	8d/	.	8dd\	.	8G\	pp	8G\	pp	4g/	p	[2.g/	p	4gg\	.
.	.	.	8r	.	8r	.	8r	.	.	.	.	8r	.	.	8r	.	.	8r	.	.	.	.	8r	.	8r	.	8r	.	8r	.	.	.	.	.	.	pp
!	!	!	!	!LO:DY:rj	!	!	!	!	!	!	!	!	!	!	!	!	!LO:DY:rj	!	!	!	!	!	!	!	!	!	!	!	!	!	!	!	!	!	!	!
.	.	.	8G/	p	8Bn/	.	8d/	.	.	.	.	8G/	e-	.	8Bn/	e-	p	8g\	e-	.	.	.	8r	.	8r	.	8GG/	.	8G\	.	8G/	.	.	.	8g/	.
.	7 n	.	4.Bn/	.	4.d/	.	4.fn/	.	4.GG/	e-	.	4.G/	-lei-	.	4.d\	-lei-	.	4.fn/	-lei-	.	.	.	4r	.	4r	.	4.D\	.	4.Fn\	.	[4.G/	.	.	.	[4.g/	.
.	.	.	.	.	.	.	.	.	.	.	.	.	.	.	.	.	.	.	.	.	.	.	8r	.	8r	.	.	.	.	.	.	.	.	.	.	.
=68	=68	=68	=68	=68	=68	=68	=68	=68	=68	=68	=68	=68	=68	=68	=68	=68	=68	=68	=68	=68	=68	=68	=68	=68	=68	=68	=68	=68	=68	=68	=68	=68	=68	=68	=68	=68
!	!	!	!	!	!	!	!	!	!	!	!	!	!	!	!	!	!	!	!	!	!	!	!LO:TX:a:t=4	!	!LO:TX:a:t=4	!	!	!	!	!	!	!	!	!	!	!
2.GG/_	6 4	.	4.G/	.	8c/L	.	8.e-/L	.	2.GG/	-lei-	.	2.G/	.	.	4c\	-son	.	4e-/	-son	.	.	.	0.r	.	0.r	.	4.C/	.	4.E-\	.	2.G/_	.	2.g/_	.	2.g/_	.
.	.	.	.	.	8Bn/	.	.	.	.	.	.	.	.	.	.	.	.	.	.	.	.	.	.	.	.	.	.	.	.	.	.	.	.	.	.	.
.	.	.	.	.	.	.	16d/K	.	.	.	.	.	.	.	.	.	.	.	.	.	.	.	.	.	.	.	.	.	.	.	.	.	.	.	.	.
.	.	.	.	.	8c/J	.	8e-/J	.	.	.	.	.	.	.	8c\	e-	.	8e-/	e-	.	.	.	.	.	.	.	.	.	.	.	.	.	.	.	.	.
.	#7 4	.	4.c/	.	4.A/	.	4.f#X/	.	.	.	.	.	.	.	4.A/	-lei-	.	4.f#X/	-lei-	.	.	.	.	.	.	.	4.AA/	.	4.F#X\	.	.	.	.	.	.	.
!	!	!	!	!	!	!	!LO:LB:g=original	!	!	!	!	!	!	!	!	!	!	!	!	!	!	!	!	!	!	!	!	!	!	!	!	!	!	!	!	!
=69	=69	=69	=69	=69	=69	=69	=69	=69	=69	=69	=69	=69	=69	=69	=69	=69	=69	=69	=69	=69	=69	=69	=69	=69	=69	=69	=69	=69	=69	=69	=69	=69	=69	=69	=69	=69
2.GG/_	8 n	.	8d/	.	8B-X/	.	8g/	.	4.GG/	-son	.	4.G/	-son,	.	4B-X/	-son	.	8g/	-son,	.	.	.	.	.	.	.	8BB-/	.	8G\	.	2.G/_	.	2.g/_	.	2.g/_	.
.	.	.	8r	.	8r	.	8r	.	.	.	.	.	.	.	.	.	.	8r	.	.	.	.	.	.	.	.	8r	.	8r	.	.	.	.	.	.	.
.	.	.	8G/	.	8Bn/	.	8d/	.	.	.	.	.	.	.	8Bn/	e-	.	8g/	e-	.	.	.	.	.	.	.	8BBn/	.	8G\	.	.	.	.	.	.	.
.	7 n	.	4.Bn/	.	4.d/	.	4.fn/	.	4.GG/	e-	.	4.G/	e-	.	4.d\	-lei-	.	4.fn/	-lei-	.	.	.	.	.	.	.	4.D\	.	4.Fn\	.	.	.	.	.	.	.
!	!	!	!	!	!	!	!	!	!	!	!	!	!	!	!LO:LB:g=original	!	!	!	!	!	!	!	!	!	!	!	!	!	!	!	!	!	!	!	!	!
=70	=70	=70	=70	=70	=70	=70	=70	=70	=70	=70	=70	=70	=70	=70	=70	=70	=70	=70	=70	=70	=70	=70	=70	=70	=70	=70	=70	=70	=70	=70	=70	=70	=70	=70	=70	=70
2.GG/_	6 4_	.	4.G/	.	8c/L	.	8.e-/L	.	2.GG/	-lei-	.	2.G/	-lei-	.	4c\	-son	.	4e-/	-son	.	1.r	.	.	.	.	.	4.C/	.	4.E-\	.	2.G/_	.	2.g/_	.	2.g/_	.
.	.	.	.	.	8Bn/	.	.	.	.	.	.	.	.	.	.	.	.	.	.	.	.	.	.	.	.	.	.	.	.	.	.	.	.	.	.	.
.	.	.	.	.	.	.	16d/K	.	.	.	.	.	.	.	.	.	.	.	.	.	.	.	.	.	.	.	.	.	.	.	.	.	.	.	.	.
.	.	.	.	.	8c/J	.	8e-/J	.	.	.	.	.	.	.	8c\	e-	.	8e-/	e-	.	.	.	.	.	.	.	.	.	.	.	.	.	.	.	.	.
.	#7 x	.	4.c/	.	4.A/	.	4.f#X/	.	.	.	.	.	.	.	4.A/	-lei-	.	4.f#X/	-lei-	.	.	.	.	.	.	.	4.AA/	.	4.F#X\	.	.	.	.	.	.	.
=71	=71	=71	=71	=71	=71	=71	=71	=71	=71	=71	=71	=71	=71	=71	=71	=71	=71	=71	=71	=71	=71	=71	=71	=71	=71	=71	=71	=71	=71	=71	=71	=71	=71	=71	=71	=71
4.GG/]	8 3	.	4.G/	.	4.d 4.B-X/	.	4.g/	.	4.GG/	-son	.	4.G/	-son,	.	4.B-X/	-son	.	4.g/	-son	.	.	.	.	.	.	.	4.BB-X/	.	4.G\	.	4.G/]	.	4.g/]	.	4.g/]	.
4r	.	.	4r	.	4r	.	4r	.	4r	.	.	4r	.	.	4r	.	.	4r	.	.	.	.	.	.	.	.	4r	.	4r	.	4r	.	4r	.	4r	.
!	!	!	!	!	!LO:TX:b:i:t=Verte Gloria.	!	!	!	!LO:TX:b:i:t=Volti Gloria	!	!	!	!	!	!LO:TX:b:i:t=Volti Gloria	!	!	!	!	!	!	!	!	!	!	!	!	!	!	!	!	!	!	!	!	!
8r	.	.	8r	.	8r	.	8r	.	8r	.	.	8r	.	.	8r	.	.	8r	.	.	.	.	.	.	.	.	8r	.	8r	.	8r	.	8r	.	8r	.
==	==	==	==	==	==	==	==	==	==	==	==	==	==	==	==	==	==	==	==	==	==	==	==	==	==	==	==	==	==	==	==	==	==	==	==	==
*-	*-	*-	*-	*-	*-	*-	*-	*-	*-	*-	*-	*-	*-	*-	*-	*-	*-	*-	*-	*-	*-	*-	*-	*-	*-	*-	*-	*-	*-	*-	*-	*-	*-	*-	*-	*-
!!!system-decoration: [(g1)][(g2)]<s8>[(g3)][(g4)]
!!!RDF**kern: > = above
!!!RDF**kern: < = below
!!!RDF**kern: | = vertical stroke
!!!ENC: Marcin Jachim
!!!END: 2020-10-10
!!!ENC: Marta Lawrence
!!!END: 2021-01-17
!!!YEC: Copyright 2022 Narodowy Instytut Fryderyka Chopina (https://polishscores.org)
!!!YEM: License CC-BY-4.0 (https://creativecommons.org/licenses/by/4.0)
